%
(CClampHolderLeft)
(T1  D=0.25 CR=0 - ZMIN=-0.5 - flat end mill)
G90
G17
G20
G28 G91 Z0
G90

(2D Adaptive3)
M9
T1 M6
S1800 M3
G54
M9
G0 X-0.0245 Y-0.2841
Z0.6
Z0.2
Z-0.2
G1 Z-0.225 F30
X-0.0244 Y-0.2838 Z-0.2289
X-0.0242 Y-0.2829 Z-0.2327
X-0.0239 Y-0.2815 Z-0.2363
X-0.0233 Y-0.2795 Z-0.2397
X-0.0227 Y-0.277 Z-0.2427
X-0.022 Y-0.2741 Z-0.2452
X-0.0211 Y-0.2709 Z-0.2473
X-0.0202 Y-0.2674 Z-0.2488
X-0.0193 Y-0.2637 Z-0.2497
X-0.0183 Y-0.2599 Z-0.25
G3 X0.0013 Y-0.1238 I-0.6183 J0.1584
G1 X0.0012 Y-0.1178 F40
X-0.0065 Y-0.0796
X-0.0119 Y-0.041
X-0.0157 Y-0.0021
X-0.0182 Y0.0368
X-0.02 Y0.0757
X-0.0212 Y0.1147
X-0.022 Y0.1537
X-0.0226 Y0.1927
X-0.0229 Y0.2316
X-0.0232 Y0.2706
X-0.0234 Y0.3096
X-0.0236 Y0.3876
X-0.0237 Y0.5046
Y0.8165
X-0.0238 Y1.8693
Y2.1422
X-0.0171 Y2.1605
X0.0045 Y2.193
X0.0352 Y2.217
X0.0702 Y2.2343
X0.1072 Y2.2464
X0.1452 Y2.2549
X0.1838 Y2.2608
X0.2226 Y2.2649
X0.2615 Y2.2677
X0.3004 Y2.2696
X0.3394 Y2.2709
X0.3784 Y2.2718
X0.3881 Y2.2711
X0.407 Y2.2665
X0.4404 Y2.2463
X0.4651 Y2.2162
X0.4829 Y2.1815
X0.4955 Y2.1446
X0.5043 Y2.1066
X0.5104 Y2.0681
X0.5146 Y2.0293
X0.5175 Y1.9905
X0.5195 Y1.9515
X0.5209 Y1.9125
X0.5218 Y1.8736
X0.5225 Y1.8346
X0.5229 Y1.7956
X0.5232 Y1.7566
X0.5234 Y1.7176
X0.5236 Y1.6786
X0.5237 Y1.6006
X0.5239 Y1.4447
X0.524 Y1.0548
X0.5241 Y0.621
X0.5398 Y0.5853
X0.554 Y0.549
X0.564 Y0.5113
X0.571 Y0.473
X0.5758 Y0.4343
X0.5791 Y0.3954
X0.5813 Y0.3565
X0.5829 Y0.3175
X0.584 Y0.2785
X0.5847 Y0.2396
X0.5852 Y0.2006
X0.5855 Y0.1616
X0.5858 Y0.1226
X0.5854 Y0.1129
X0.5813 Y0.0938
X0.5614 Y0.0603
X0.5314 Y0.0354
X0.4968 Y0.0174
X0.4599 Y0.0048
X0.4219 Y-0.0041
X0.3834 Y-0.0103
X0.3447 Y-0.0145
X0.3058 Y-0.0174
X0.2669 Y-0.0194
X0.2279 Y-0.0208
X0.2085 Y-0.0189
X0.1906 Y-0.0111
X0.1588 Y0.0113
X0.1349 Y0.0422
X0.1176 Y0.0771
X0.1052 Y0.1141
X0.0964 Y0.1521
X0.0903 Y0.1906
X0.086 Y0.2293
X0.083 Y0.2682
X0.0809 Y0.3072
X0.0795 Y0.3461
X0.0785 Y0.3851
X0.0778 Y0.4241
X0.0773 Y0.4631
X0.077 Y0.5021
X0.0768 Y0.541
X0.0766 Y0.58
X0.0764 Y0.658
X0.0763 Y0.775
Y1.1259
Y2.0032
X0.0796 Y2.0224
X0.0938 Y2.0587
X0.1191 Y2.0884
X0.1506 Y2.1113
X0.1856 Y2.1286
X0.2224 Y2.1413
X0.2414 Y2.1459
X0.2607 Y2.1482
X0.2799 Y2.1448
X0.3158 Y2.1296
X0.3445 Y2.1032
X0.3663 Y2.0709
X0.3825 Y2.0354
X0.3944 Y1.9983
X0.4029 Y1.9602
X0.409 Y1.9217
X0.4134 Y1.883
X0.4165 Y1.8441
X0.4187 Y1.8052
X0.4202 Y1.7662
X0.4213 Y1.7272
X0.4221 Y1.6883
X0.4226 Y1.6493
X0.423 Y1.6103
X0.4233 Y1.5713
X0.4235 Y1.5323
X0.4237 Y1.4543
X0.4239 Y1.3374
X0.424 Y1.0644
X0.4241 Y0.7135
X0.4247 Y0.694
X0.427 Y0.6668
X0.4333 Y0.6283
X0.4422 Y0.5904
X0.4509 Y0.5524
X0.4587 Y0.5141
X0.4651 Y0.4757
X0.4702 Y0.437
X0.4742 Y0.3983
X0.4773 Y0.3594
X0.4797 Y0.3205
X0.4814 Y0.2815
X0.4827 Y0.2425
X0.4788 Y0.2235
X0.4633 Y0.1876
X0.4373 Y0.1586
X0.4053 Y0.1364
X0.37 Y0.1197
X0.3515 Y0.1136
X0.332 Y0.1135
X0.3132 Y0.1187
X0.2786 Y0.1365
X0.2512 Y0.1643
X0.233 Y0.1988
X0.2196 Y0.2354
X0.2099 Y0.2732
X0.2029 Y0.3115
X0.1978 Y0.3502
X0.1942 Y0.389
X0.1916 Y0.4279
X0.1897 Y0.4668
X0.1884 Y0.5058
X0.1875 Y0.5448
X0.1868 Y0.5838
X0.1863 Y0.6276
X0.186 Y0.6666
X0.1858 Y0.7056
X0.1856 Y0.7446
X0.1854 Y0.8226
X0.1853 Y0.9396
Y1.2515
Y1.8753
X0.1863 Y1.8948
X0.1886 Y1.9043
X0.1901 Y1.9089
X0.1919 Y1.9134
G3 X0.1933 Y1.9231 I-0.0236 J0.0083 F30
G1 X0.1931 Y1.927 Z-0.2497
X0.1928 Y1.9308 Z-0.2488
X0.1926 Y1.9344 Z-0.2473
X0.1924 Y1.9378 Z-0.2452
X0.1923 Y1.9407 Z-0.2427
X0.1921 Y1.9433 Z-0.2397
X0.192 Y1.9453 Z-0.2363
X0.1919 Y1.9468 Z-0.2327
Y1.9478 Z-0.2289
Y1.9481 Z-0.225
G0 Z0.2
X0.1528 Y0.5908
Z-0.2
G1 Z-0.225 F30
X0.1531 Y0.5907 Z-0.2289
X0.154 Y0.5905 Z-0.2327
X0.1554 Y0.5902 Z-0.2363
X0.1574 Y0.5897 Z-0.2397
X0.1599 Y0.5891 Z-0.2427
X0.1628 Y0.5884 Z-0.2452
X0.1661 Y0.5876 Z-0.2473
X0.1696 Y0.5868 Z-0.2488
X0.1733 Y0.5859 Z-0.2497
X0.1771 Y0.585 Z-0.25
G3 X0.1868 Y0.5838 I0.0106 J0.0443
G1 X0.1928 Y0.5839 F40
X0.2026 Y0.5844
X0.2219 Y0.5822
X0.2579 Y0.5671
X0.2868 Y0.5409
X0.3092 Y0.509
X0.3264 Y0.474
X0.3393 Y0.4372
X0.3491 Y0.3995
X0.3527 Y0.3803
X0.3535 Y0.3755
X0.354 Y0.3707
G3 X0.3572 Y0.3615 I0.0248 J0.0035 F30
G1 X0.3592 Y0.3581 Z-0.2497
X0.3611 Y0.3548 Z-0.2488
X0.363 Y0.3517 Z-0.2473
X0.3647 Y0.3488 Z-0.2452
X0.3662 Y0.3462 Z-0.2427
X0.3675 Y0.3441 Z-0.2397
X0.3685 Y0.3423 Z-0.2363
X0.3693 Y0.341 Z-0.2327
X0.3698 Y0.3402 Z-0.2289
X0.3699 Y0.3399 Z-0.225
G0 Z0.6
X1.038 Y-0.2841
Z0.2
Z-0.2
G1 Z-0.225 F30
X1.0381 Y-0.2838 Z-0.2289
X1.0383 Y-0.2829 Z-0.2327
X1.0386 Y-0.2815 Z-0.2363
X1.0392 Y-0.2795 Z-0.2397
X1.0398 Y-0.277 Z-0.2427
X1.0405 Y-0.2741 Z-0.2452
X1.0414 Y-0.2709 Z-0.2473
X1.0423 Y-0.2674 Z-0.2488
X1.0432 Y-0.2637 Z-0.2497
X1.0442 Y-0.2599 Z-0.25
G3 X1.0638 Y-0.1238 I-0.6183 J0.1584
G1 X1.0637 Y-0.1178 F40
X1.056 Y-0.0796
X1.0506 Y-0.041
X1.0468 Y-0.0021
X1.0443 Y0.0368
X1.0425 Y0.0757
X1.0413 Y0.1147
X1.0405 Y0.1537
X1.0399 Y0.1927
X1.0396 Y0.2316
X1.0393 Y0.2706
X1.0391 Y0.3096
X1.0389 Y0.3876
X1.0494 Y0.4252
X1.0537 Y0.4339
X1.0621 Y0.4531
X1.0709 Y0.4785
X1.0801 Y0.5139
X1.0869 Y0.5523
X1.0914 Y0.591
X1.0944 Y0.6299
X1.0965 Y0.6688
X1.0979 Y0.7078
X1.0989 Y0.7468
X1.0996 Y0.7858
X1.1 Y0.8248
X1.1003 Y0.8637
X1.1005 Y0.9027
X1.1007 Y0.9417
X1.1009 Y1.0197
X1.101 Y1.1757
X1.1012 Y1.8385
Y2.1309
X1.1039 Y2.1502
X1.1126 Y2.1677
X1.1367 Y2.1984
X1.1685 Y2.2209
X1.204 Y2.237
X1.2413 Y2.2484
X1.2508 Y2.2504
X1.2606 Y2.2507
X1.2702 Y2.2495
X1.2889 Y2.2437
X1.3206 Y2.221
X1.3439 Y2.1897
X1.3606 Y2.1545
X1.3724 Y2.1174
X1.3806 Y2.0792
X1.3863 Y2.0407
X1.3903 Y2.0019
X1.393 Y1.963
X1.3948 Y1.924
X1.3961 Y1.8851
X1.397 Y1.8461
X1.3976 Y1.8071
X1.398 Y1.7681
X1.3983 Y1.7291
X1.3985 Y1.6901
X1.3986 Y1.6511
X1.3988 Y1.5732
X1.3989 Y1.4172
X1.399 Y0.8323
X1.3991 Y0.7933
X1.3983 Y0.7836
X1.3974 Y0.7702
X1.3965 Y0.7552
X1.3957 Y0.738
X1.3948 Y0.718
X1.3939 Y0.6941
X1.393 Y0.6645
X1.3921 Y0.6255
X1.392 Y0.6206
X1.3941 Y0.615
X1.4118 Y0.5803
X1.4243 Y0.5433
X1.4329 Y0.5053
X1.439 Y0.4668
X1.4431 Y0.428
X1.446 Y0.3891
X1.4479 Y0.3502
X1.4493 Y0.3112
X1.4502 Y0.2722
X1.4509 Y0.2333
X1.4513 Y0.1943
X1.4516 Y0.1553
X1.4518 Y0.1163
X1.4465 Y0.0975
X1.4257 Y0.0646
X1.3949 Y0.0407
X1.3598 Y0.0237
X1.3226 Y0.0119
X1.3036 Y0.0077
X1.294 Y0.006
X1.2842 Y0.0059
X1.2746 Y0.0074
X1.2561 Y0.0135
X1.225 Y0.037
X1.2022 Y0.0687
X1.186 Y0.1041
X1.1744 Y0.1414
X1.1663 Y0.1795
X1.1607 Y0.2181
X1.1567 Y0.2569
X1.155 Y0.2958
X1.1585 Y0.3347
X1.1647 Y0.3732
X1.1718 Y0.4115
X1.1762 Y0.4355
X1.179 Y0.4519
X1.1813 Y0.4655
X1.1831 Y0.4774
X1.185 Y0.4901
X1.1869 Y0.5033
X1.1884 Y0.5144
X1.1899 Y0.5265
X1.1915 Y0.5401
X1.1929 Y0.5522
X1.1943 Y0.5653
X1.1957 Y0.58
X1.197 Y0.5941
X1.1983 Y0.6096
X1.1996 Y0.6266
X1.2008 Y0.6442
X1.202 Y0.6644
X1.2031 Y0.686
X1.2043 Y0.7111
X1.2054 Y0.7405
X1.2065 Y0.7755
X1.2075 Y0.8145
X1.2082 Y0.8535
X1.2087 Y0.8924
X1.209 Y0.9314
X1.2093 Y0.9704
X1.2095 Y1.0094
X1.2098 Y1.0874
X1.2099 Y1.2044
X1.2101 Y1.4383
X1.2102 Y1.9939
X1.2107 Y1.9988
G3 X1.2095 Y2.0085 I-0.0249 J0.0017 F30
G1 X1.2082 Y2.0122 Z-0.2497
X1.207 Y2.0158 Z-0.2488
X1.2058 Y2.0192 Z-0.2473
X1.2048 Y2.0224 Z-0.2452
X1.2038 Y2.0252 Z-0.2427
X1.203 Y2.0276 Z-0.2397
X1.2023 Y2.0296 Z-0.2363
X1.2019 Y2.031 Z-0.2327
X1.2016 Y2.0319 Z-0.2289
X1.2015 Y2.0321 Z-0.225
G0 Z0.2
X1.1502 Y0.487
Z-0.2
G1 Z-0.225 F30
X1.1505 Y0.4868 Z-0.2289
X1.1514 Y0.4865 Z-0.2327
X1.1527 Y0.4859 Z-0.2363
X1.1546 Y0.4851 Z-0.2397
X1.157 Y0.4841 Z-0.2427
X1.1597 Y0.4829 Z-0.2452
X1.1628 Y0.4816 Z-0.2473
X1.1661 Y0.4802 Z-0.2488
X1.1696 Y0.4787 Z-0.2497
X1.1732 Y0.4772 Z-0.25
G3 X1.1826 Y0.4743 I0.0179 J0.0419
G1 X1.1886 Y0.4734 F40
X1.1983 Y0.4738
X1.208 Y0.4726
X1.2266 Y0.467
X1.2591 Y0.4453
X1.2832 Y0.4147
X1.3007 Y0.3799
X1.3133 Y0.343
X1.3222 Y0.305
X1.3285 Y0.2665
X1.3287 Y0.2616
X1.3285 Y0.2568
G3 X1.3303 Y0.2472 I0.025 J-0.0001 F30
G1 X1.3318 Y0.2436 Z-0.2497
X1.3333 Y0.2401 Z-0.2488
X1.3346 Y0.2367 Z-0.2473
X1.3359 Y0.2336 Z-0.2452
X1.337 Y0.2308 Z-0.2427
X1.338 Y0.2285 Z-0.2397
X1.3388 Y0.2266 Z-0.2363
X1.3394 Y0.2252 Z-0.2327
X1.3397 Y0.2244 Z-0.2289
X1.3398 Y0.2241 Z-0.225
G0 Z0.6
X1.913 Y-0.2841
Z0.2
Z-0.2
G1 Z-0.225 F30
X1.9131 Y-0.2838 Z-0.2289
X1.9133 Y-0.2829 Z-0.2327
X1.9136 Y-0.2815 Z-0.2363
X1.9142 Y-0.2795 Z-0.2397
X1.9148 Y-0.277 Z-0.2427
X1.9155 Y-0.2741 Z-0.2452
X1.9164 Y-0.2709 Z-0.2473
X1.9173 Y-0.2674 Z-0.2488
X1.9182 Y-0.2637 Z-0.2497
X1.9192 Y-0.2599 Z-0.25
G3 X1.9388 Y-0.1238 I-0.6183 J0.1584
G1 Y-0.1178 F40
X1.931 Y-0.0796
X1.9256 Y-0.041
X1.9218 Y-0.0021
X1.9193 Y0.0368
X1.9175 Y0.0757
X1.9163 Y0.1147
X1.9155 Y0.1537
X1.9149 Y0.1927
X1.9146 Y0.2316
X1.9143 Y0.2706
X1.9141 Y0.3096
X1.9139 Y0.3876
X1.9244 Y0.4252
X1.9287 Y0.4339
X1.9371 Y0.4531
X1.9459 Y0.4785
X1.9551 Y0.5139
X1.9619 Y0.5523
X1.9664 Y0.591
X1.9694 Y0.6299
X1.9715 Y0.6688
X1.9729 Y0.7078
X1.9739 Y0.7468
X1.9746 Y0.7858
X1.975 Y0.8248
X1.9753 Y0.8637
X1.9755 Y0.9027
X1.9757 Y0.9417
X1.9759 Y1.0197
X1.976 Y1.1757
X1.9762 Y1.8385
Y2.1309
X1.9789 Y2.1502
X1.9876 Y2.1677
X2.0117 Y2.1984
X2.0435 Y2.2209
X2.079 Y2.237
X2.1163 Y2.2484
X2.1258 Y2.2504
X2.1356 Y2.2507
X2.1452 Y2.2495
X2.1639 Y2.2437
X2.1956 Y2.221
X2.2189 Y2.1897
X2.2356 Y2.1545
X2.2474 Y2.1174
X2.2556 Y2.0792
X2.2613 Y2.0407
X2.2653 Y2.0019
X2.268 Y1.963
X2.2698 Y1.924
X2.2711 Y1.8851
X2.272 Y1.8461
X2.2726 Y1.8071
X2.273 Y1.7681
X2.2733 Y1.7291
X2.2735 Y1.6901
X2.2736 Y1.6511
X2.2738 Y1.5732
X2.2739 Y1.4172
X2.274 Y0.8323
X2.2741 Y0.7933
X2.2733 Y0.7836
X2.2724 Y0.7702
X2.2715 Y0.7552
X2.2707 Y0.738
X2.2698 Y0.718
X2.2689 Y0.6941
X2.268 Y0.6645
X2.2671 Y0.6255
X2.267 Y0.6206
X2.2691 Y0.615
X2.2868 Y0.5803
X2.2993 Y0.5433
X2.3079 Y0.5053
X2.314 Y0.4668
X2.3181 Y0.428
X2.321 Y0.3891
X2.3229 Y0.3502
X2.3243 Y0.3112
X2.3252 Y0.2722
X2.3259 Y0.2333
X2.3263 Y0.1943
X2.3266 Y0.1553
X2.3268 Y0.1163
X2.3215 Y0.0975
X2.3007 Y0.0646
X2.2699 Y0.0407
X2.2348 Y0.0237
X2.1976 Y0.0119
X2.1786 Y0.0077
X2.169 Y0.006
X2.1592 Y0.0059
X2.1496 Y0.0074
X2.1311 Y0.0135
X2.1 Y0.037
X2.0772 Y0.0687
X2.061 Y0.1041
X2.0494 Y0.1414
X2.0413 Y0.1795
X2.0357 Y0.2181
X2.0317 Y0.2569
X2.03 Y0.2958
X2.0335 Y0.3347
X2.0397 Y0.3732
X2.0468 Y0.4115
X2.0512 Y0.4355
X2.054 Y0.4519
X2.0563 Y0.4655
X2.0581 Y0.4774
X2.06 Y0.4901
X2.0619 Y0.5033
X2.0634 Y0.5144
X2.0649 Y0.5265
X2.0665 Y0.5401
X2.0679 Y0.5522
X2.0693 Y0.5653
X2.0707 Y0.58
X2.072 Y0.5941
X2.0733 Y0.6096
X2.0746 Y0.6266
X2.0758 Y0.6442
X2.077 Y0.6644
X2.0781 Y0.686
X2.0793 Y0.7111
X2.0804 Y0.7405
X2.0815 Y0.7755
X2.0825 Y0.8145
X2.0832 Y0.8535
X2.0837 Y0.8924
X2.084 Y0.9314
X2.0843 Y0.9704
X2.0845 Y1.0094
X2.0848 Y1.0874
X2.0849 Y1.2044
X2.0851 Y1.4383
X2.0852 Y1.9939
X2.0857 Y1.9988
G3 X2.0845 Y2.0085 I-0.0249 J0.0017 F30
G1 X2.0832 Y2.0122 Z-0.2497
X2.082 Y2.0158 Z-0.2488
X2.0808 Y2.0192 Z-0.2473
X2.0798 Y2.0224 Z-0.2452
X2.0788 Y2.0252 Z-0.2427
X2.078 Y2.0276 Z-0.2397
X2.0773 Y2.0296 Z-0.2363
X2.0769 Y2.031 Z-0.2327
X2.0766 Y2.0319 Z-0.2289
X2.0765 Y2.0321 Z-0.225
G0 Z0.2
X2.0252 Y0.487
Z-0.2
G1 Z-0.225 F30
X2.0255 Y0.4868 Z-0.2289
X2.0264 Y0.4865 Z-0.2327
X2.0277 Y0.4859 Z-0.2363
X2.0296 Y0.4851 Z-0.2397
X2.032 Y0.4841 Z-0.2427
X2.0347 Y0.4829 Z-0.2452
X2.0378 Y0.4816 Z-0.2473
X2.0411 Y0.4802 Z-0.2488
X2.0446 Y0.4787 Z-0.2497
X2.0482 Y0.4772 Z-0.25
G3 X2.0576 Y0.4743 I0.0179 J0.0419
G1 X2.0636 Y0.4734 F40
X2.0733 Y0.4738
X2.083 Y0.4726
X2.1016 Y0.467
X2.1341 Y0.4453
X2.1582 Y0.4147
X2.1757 Y0.3799
X2.1883 Y0.343
X2.1972 Y0.305
X2.2035 Y0.2665
X2.2037 Y0.2616
X2.2035 Y0.2568
G3 X2.2053 Y0.2472 I0.025 J-0.0001 F30
G1 X2.2068 Y0.2436 Z-0.2497
X2.2083 Y0.2401 Z-0.2488
X2.2096 Y0.2367 Z-0.2473
X2.2109 Y0.2336 Z-0.2452
X2.212 Y0.2308 Z-0.2427
X2.213 Y0.2285 Z-0.2397
X2.2138 Y0.2266 Z-0.2363
X2.2144 Y0.2252 Z-0.2327
X2.2147 Y0.2244 Z-0.2289
X2.2148 Y0.2241 Z-0.225
G0 Z0.6
X2.788 Y-0.2841
Z0.2
Z-0.2
G1 Z-0.225 F30
X2.7881 Y-0.2838 Z-0.2289
X2.7883 Y-0.2829 Z-0.2327
X2.7887 Y-0.2815 Z-0.2363
X2.7892 Y-0.2795 Z-0.2397
X2.7898 Y-0.277 Z-0.2427
X2.7905 Y-0.2741 Z-0.2452
X2.7914 Y-0.2709 Z-0.2473
X2.7923 Y-0.2674 Z-0.2488
X2.7932 Y-0.2637 Z-0.2497
X2.7942 Y-0.2599 Z-0.25
G3 X2.8138 Y-0.1238 I-0.6183 J0.1584
G1 Y-0.1178 F40
X2.806 Y-0.0796
X2.8006 Y-0.041
X2.7968 Y-0.0021
X2.7943 Y0.0368
X2.7925 Y0.0757
X2.7913 Y0.1147
X2.7905 Y0.1537
X2.7899 Y0.1927
X2.7896 Y0.2316
X2.7893 Y0.2706
X2.7891 Y0.3096
X2.7889 Y0.3876
X2.7994 Y0.4252
X2.8037 Y0.4339
X2.8121 Y0.4531
X2.8209 Y0.4785
X2.8301 Y0.5139
X2.8369 Y0.5523
X2.8414 Y0.591
X2.8444 Y0.6299
X2.8465 Y0.6688
X2.8479 Y0.7078
X2.8489 Y0.7468
X2.8496 Y0.7858
X2.85 Y0.8248
X2.8503 Y0.8637
X2.8505 Y0.9027
X2.8507 Y0.9417
X2.8509 Y1.0197
X2.851 Y1.1757
X2.8512 Y1.8385
Y2.1309
X2.8539 Y2.1502
X2.8626 Y2.1677
X2.8867 Y2.1984
X2.9185 Y2.2209
X2.954 Y2.237
X2.9913 Y2.2484
X3.0008 Y2.2504
X3.0106 Y2.2507
X3.0202 Y2.2495
X3.0389 Y2.2437
X3.0706 Y2.221
X3.0939 Y2.1897
X3.1106 Y2.1545
X3.1224 Y2.1174
X3.1306 Y2.0792
X3.1363 Y2.0407
X3.1403 Y2.0019
X3.143 Y1.963
X3.1448 Y1.924
X3.1461 Y1.8851
X3.147 Y1.8461
X3.1476 Y1.8071
X3.148 Y1.7681
X3.1483 Y1.7291
X3.1485 Y1.6901
X3.1486 Y1.6511
X3.1488 Y1.5732
X3.1489 Y1.4172
X3.149 Y0.8323
X3.1491 Y0.7933
X3.1483 Y0.7836
X3.1474 Y0.7702
X3.1465 Y0.7552
X3.1457 Y0.738
X3.1448 Y0.718
X3.1439 Y0.6941
X3.143 Y0.6645
X3.1421 Y0.6255
X3.142 Y0.6206
X3.1441 Y0.615
X3.1618 Y0.5803
X3.1743 Y0.5433
X3.1829 Y0.5053
X3.189 Y0.4668
X3.1931 Y0.428
X3.196 Y0.3891
X3.1979 Y0.3502
X3.1993 Y0.3112
X3.2002 Y0.2722
X3.2009 Y0.2333
X3.2013 Y0.1943
X3.2016 Y0.1553
X3.2018 Y0.1163
X3.1965 Y0.0975
X3.1757 Y0.0646
X3.1449 Y0.0407
X3.1098 Y0.0237
X3.0726 Y0.0119
X3.0536 Y0.0077
X3.044 Y0.006
X3.0342 Y0.0059
X3.0246 Y0.0074
X3.0061 Y0.0135
X2.975 Y0.037
X2.9522 Y0.0687
X2.936 Y0.1041
X2.9244 Y0.1414
X2.9163 Y0.1795
X2.9107 Y0.2181
X2.9067 Y0.2569
X2.905 Y0.2958
X2.9085 Y0.3347
X2.9147 Y0.3732
X2.9218 Y0.4115
X2.9262 Y0.4355
X2.929 Y0.4519
X2.9313 Y0.4655
X2.9331 Y0.4774
X2.935 Y0.4901
X2.9369 Y0.5033
X2.9384 Y0.5144
X2.9399 Y0.5265
X2.9415 Y0.5401
X2.9429 Y0.5522
X2.9443 Y0.5653
X2.9457 Y0.58
X2.947 Y0.5941
X2.9483 Y0.6096
X2.9496 Y0.6266
X2.9508 Y0.6442
X2.952 Y0.6644
X2.9531 Y0.686
X2.9543 Y0.7111
X2.9554 Y0.7405
X2.9565 Y0.7755
X2.9575 Y0.8145
X2.9582 Y0.8535
X2.9587 Y0.8924
X2.959 Y0.9314
X2.9593 Y0.9704
X2.9595 Y1.0094
X2.9598 Y1.0874
X2.9599 Y1.2044
X2.9601 Y1.4383
X2.9602 Y1.9939
X2.9607 Y1.9988
G3 X2.9595 Y2.0085 I-0.0249 J0.0017 F30
G1 X2.9582 Y2.0122 Z-0.2497
X2.957 Y2.0158 Z-0.2488
X2.9558 Y2.0192 Z-0.2473
X2.9548 Y2.0224 Z-0.2452
X2.9538 Y2.0252 Z-0.2427
X2.953 Y2.0276 Z-0.2397
X2.9523 Y2.0296 Z-0.2363
X2.9519 Y2.031 Z-0.2327
X2.9516 Y2.0319 Z-0.2289
X2.9515 Y2.0321 Z-0.225
G0 Z0.2
X2.9002 Y0.487
Z-0.2
G1 Z-0.225 F30
X2.9005 Y0.4868 Z-0.2289
X2.9014 Y0.4865 Z-0.2327
X2.9027 Y0.4859 Z-0.2363
X2.9046 Y0.4851 Z-0.2397
X2.907 Y0.4841 Z-0.2427
X2.9097 Y0.4829 Z-0.2452
X2.9128 Y0.4816 Z-0.2473
X2.9161 Y0.4802 Z-0.2488
X2.9196 Y0.4787 Z-0.2497
X2.9232 Y0.4772 Z-0.25
G3 X2.9326 Y0.4743 I0.0179 J0.0419
G1 X2.9386 Y0.4734 F40
X2.9483 Y0.4738
X2.958 Y0.4726
X2.9766 Y0.467
X3.0091 Y0.4453
X3.0332 Y0.4147
X3.0507 Y0.3799
X3.0633 Y0.343
X3.0722 Y0.305
X3.0785 Y0.2665
X3.0787 Y0.2616
X3.0785 Y0.2568
G3 X3.0803 Y0.2472 I0.025 J-0.0001 F30
G1 X3.0818 Y0.2436 Z-0.2497
X3.0833 Y0.2401 Z-0.2488
X3.0846 Y0.2367 Z-0.2473
X3.0859 Y0.2336 Z-0.2452
X3.087 Y0.2308 Z-0.2427
X3.088 Y0.2285 Z-0.2397
X3.0888 Y0.2266 Z-0.2363
X3.0894 Y0.2252 Z-0.2327
X3.0897 Y0.2244 Z-0.2289
X3.0898 Y0.2241 Z-0.225
G0 Z0.6

(2D Adaptive1)
M9
X0.6708 Y2.5357
Z0.6
Z0.2
Z-0.1496
G1 Z-0.1746 F39.37
X0.6707 Y2.5354 Z-0.1785
X0.6705 Y2.5345 Z-0.1823
X0.6701 Y2.533 Z-0.186
X0.6696 Y2.531 Z-0.1893
X0.669 Y2.5286 Z-0.1923
X0.6682 Y2.5257 Z-0.1948
X0.6674 Y2.5225 Z-0.1969
X0.6665 Y2.5189 Z-0.1984
X0.6655 Y2.5152 Z-0.1993
X0.6646 Y2.5115 Z-0.1996
G3 X0.645 Y2.3754 I0.6183 J-0.1584
G1 Y2.3621
X0.6451 Y2.3606
X0.6489 Y2.3558
X0.6539 Y2.3503
X0.6606 Y2.3441
X0.6693 Y2.3373
X0.6804 Y2.3299
X0.6947 Y2.322
X0.7131 Y2.3137
X0.7376 Y2.3049
X0.7714 Y2.2957
X0.8098 Y2.2886
X0.8485 Y2.2838
X0.8873 Y2.2806
X0.9217 Y2.2786
X0.9345 Y2.2794
X0.9467 Y2.2831
X0.9578 Y2.2895
X0.9671 Y2.2983
X0.9741 Y2.309
X0.9785 Y2.321
X0.98 Y2.3338
G3 X0.9575 Y2.3578 I-0.025 J-0.0009
G1 X0.6725 Y2.3861
G3 X0.645 Y2.3621 I-0.0025 J-0.0249
G1 Y2.3289
X0.6453 Y2.3229
X0.6476 Y2.3164
X0.6509 Y2.3091
X0.6554 Y2.301
X0.6608 Y2.2929
X0.6679 Y2.2837
X0.6769 Y2.274
X0.6873 Y2.2644
X0.7009 Y2.2537
X0.7164 Y2.2435
X0.7364 Y2.2324
X0.7604 Y2.2216
X0.7914 Y2.2105
X0.8251 Y2.2014
X0.8501 Y2.1968
X0.871 Y2.1947
X0.8882 Y2.1943
X0.9051 Y2.1953
X0.9195 Y2.1973
X0.9337 Y2.2004
X0.9389 Y2.202
X0.9502 Y2.2069
X0.9603 Y2.214
X0.9686 Y2.2231
X0.9748 Y2.2338
X0.9787 Y2.2455
X0.98 Y2.2577
G3 X0.9611 Y2.2811 I-0.025 J-0.0009
G1 X0.676 Y2.3523
G3 X0.645 Y2.3289 I-0.0061 J-0.0243
G1 Y2.2758
X0.6453 Y2.2698
X0.6464 Y2.2626
X0.6481 Y2.2552
X0.6508 Y2.2467
X0.6545 Y2.2377
X0.6594 Y2.2282
X0.6659 Y2.2176
X0.6735 Y2.2071
X0.6838 Y2.1952
X0.6953 Y2.1839
X0.7103 Y2.1713
X0.7268 Y2.1596
X0.7459 Y2.1482
X0.7667 Y2.1379
X0.7884 Y2.1293
X0.8108 Y2.1225
X0.8332 Y2.1176
X0.8555 Y2.1145
X0.8753 Y2.1134
X0.8936 Y2.1139
X0.9098 Y2.1156
X0.9248 Y2.1184
X0.9384 Y2.1221
X0.9415 Y2.1232
X0.9522 Y2.1284
X0.9616 Y2.1356
X0.9694 Y2.1446
X0.9752 Y2.1549
X0.9788 Y2.1663
X0.98 Y2.1781
Y2.2577
G3 X0.9566 Y2.2818 I-0.025 J-0.0009
G1 X0.6716 Y2.2998
G3 X0.645 Y2.2758 I-0.0016 J-0.025
G1 Y2.2009
X0.6453 Y2.1949
X0.6463 Y2.1874
X0.6482 Y2.1786
X0.6509 Y2.1696
X0.6549 Y2.1594
X0.6599 Y2.1492
X0.6667 Y2.1377
X0.6746 Y2.1266
X0.6846 Y2.1146
X0.6962 Y2.1027
X0.7096 Y2.0911
X0.7255 Y2.0794
X0.743 Y2.0686
X0.762 Y2.0588
X0.7825 Y2.0503
X0.8042 Y2.0433
X0.8263 Y2.0381
X0.8486 Y2.0346
X0.8698 Y2.0331
X0.8888 Y2.0333
X0.9053 Y2.0347
X0.9212 Y2.0374
X0.9349 Y2.0409
X0.9406 Y2.0429
X0.9515 Y2.0479
X0.9611 Y2.0551
X0.9691 Y2.0641
X0.9751 Y2.0746
X0.9788 Y2.0861
X0.98 Y2.0981
Y2.1781
G3 X0.957 Y2.2022 I-0.025 J-0.0009
G1 X0.672 Y2.225
G3 X0.645 Y2.2009 I-0.002 J-0.0249
G1 Y2.1212
X0.6453 Y2.1144
X0.6464 Y2.1066
X0.6482 Y2.0978
X0.651 Y2.0886
X0.6549 Y2.0785
X0.66 Y2.0681
X0.6665 Y2.057
X0.6746 Y2.0455
X0.6841 Y2.034
X0.6959 Y2.0219
X0.709 Y2.0105
X0.7242 Y1.9993
X0.7417 Y1.9884
X0.7608 Y1.9785
X0.7811 Y1.9701
X0.8026 Y1.963
X0.8246 Y1.9577
X0.847 Y1.9543
X0.8681 Y1.9527
X0.8876 Y1.9528
X0.9042 Y1.9542
X0.9203 Y1.9569
X0.9341 Y1.9604
X0.9404 Y1.9625
X0.9514 Y1.9676
X0.9611 Y1.9748
X0.9691 Y1.9838
X0.9751 Y1.9943
X0.9788 Y2.0058
X0.98 Y2.0178
Y2.0981
G3 X0.957 Y2.1221 I-0.025 J-0.0009
G1 X0.672 Y2.1453
G3 X0.645 Y2.1212 I-0.002 J-0.0249
G1 Y2.0415
X0.6454 Y2.0333
X0.6464 Y2.0254
X0.6483 Y2.0168
X0.651 Y2.0076
X0.6549 Y1.9976
X0.66 Y1.9872
X0.6665 Y1.9762
X0.6746 Y1.9646
X0.684 Y1.9533
X0.6957 Y1.9413
X0.7088 Y1.9299
X0.7239 Y1.9187
X0.7413 Y1.9079
X0.7603 Y1.8981
X0.7806 Y1.8896
X0.8021 Y1.8826
X0.8241 Y1.8773
X0.8465 Y1.8738
X0.8677 Y1.8722
X0.8873 Y1.8723
X0.9039 Y1.8738
X0.9202 Y1.8765
X0.934 Y1.88
X0.9404 Y1.8822
X0.9514 Y1.8872
X0.9611 Y1.8944
X0.9691 Y1.9034
X0.9751 Y1.9139
X0.9788 Y1.9254
X0.98 Y1.9374
Y2.0178
G3 X0.9571 Y2.0418 I-0.025 J-0.0009
G1 X0.6721 Y2.0656
G3 X0.645 Y2.0415 I-0.0021 J-0.0249
G1 Y1.9618
X0.6455 Y1.9525
X0.6465 Y1.9446
X0.6483 Y1.936
X0.6511 Y1.9268
X0.655 Y1.9169
X0.66 Y1.9064
X0.6665 Y1.8955
X0.6746 Y1.884
X0.6839 Y1.8727
X0.6956 Y1.8607
X0.7087 Y1.8493
X0.7237 Y1.8382
X0.741 Y1.8274
X0.7601 Y1.8176
X0.7804 Y1.8091
X0.8018 Y1.8021
X0.8238 Y1.7968
X0.8462 Y1.7933
X0.8675 Y1.7918
X0.8871 Y1.7919
X0.9038 Y1.7933
X0.9201 Y1.796
X0.9339 Y1.7995
X0.9404 Y1.8017
X0.9514 Y1.8068
X0.9611 Y1.814
X0.9691 Y1.823
X0.9751 Y1.8335
X0.9788 Y1.845
X0.98 Y1.857
Y1.9374
G3 X0.9572 Y1.9614 I-0.025 J-0.0009
G1 X0.6721 Y1.9859
G3 X0.645 Y1.9618 I-0.0021 J-0.0249
G1 Y1.8821
X0.6455 Y1.8718
X0.6465 Y1.8639
X0.6484 Y1.8554
X0.6511 Y1.8462
X0.655 Y1.8363
X0.6601 Y1.8258
X0.6665 Y1.815
X0.6746 Y1.8034
X0.6839 Y1.7921
X0.6956 Y1.7802
X0.7086 Y1.7688
X0.7236 Y1.7577
X0.7409 Y1.747
X0.76 Y1.7371
X0.7802 Y1.7287
X0.8017 Y1.7217
X0.8237 Y1.7164
X0.8461 Y1.7129
X0.8674 Y1.7113
X0.887 Y1.7114
X0.9038 Y1.7128
X0.9201 Y1.7156
X0.9339 Y1.7191
X0.9404 Y1.7213
X0.9514 Y1.7263
X0.9611 Y1.7335
X0.9691 Y1.7425
X0.9751 Y1.753
X0.9788 Y1.7645
X0.98 Y1.7765
Y1.857
G3 X0.9572 Y1.881 I-0.025 J-0.0009
G1 X0.6722 Y1.9062
G3 X0.645 Y1.8821 I-0.0022 J-0.0249
G1 Y1.8024
X0.6456 Y1.7912
X0.6466 Y1.7834
X0.6484 Y1.7748
X0.6512 Y1.7656
X0.655 Y1.7558
X0.6601 Y1.7453
X0.6665 Y1.7344
X0.6746 Y1.7229
X0.6839 Y1.7116
X0.6956 Y1.6997
X0.7086 Y1.6883
X0.7236 Y1.6773
X0.7409 Y1.6665
X0.7599 Y1.6567
X0.7802 Y1.6482
X0.8016 Y1.6412
X0.8237 Y1.6359
X0.8461 Y1.6324
X0.8674 Y1.6308
X0.887 Y1.6309
X0.9037 Y1.6324
X0.92 Y1.6351
X0.9339 Y1.6386
X0.9404 Y1.6408
X0.9514 Y1.6459
X0.9611 Y1.653
X0.9691 Y1.6621
X0.9751 Y1.6726
X0.9788 Y1.6841
X0.98 Y1.6961
Y1.7765
G3 X0.9573 Y1.8005 I-0.025 J-0.0009
G1 X0.6722 Y1.8265
G3 X0.645 Y1.8024 I-0.0023 J-0.0249
G1 Y1.7179
X0.6453 Y1.7109
X0.6464 Y1.703
X0.6482 Y1.6945
X0.651 Y1.6853
X0.6548 Y1.6754
X0.6599 Y1.6649
X0.6663 Y1.654
X0.6744 Y1.6425
X0.6838 Y1.6312
X0.6954 Y1.6193
X0.7085 Y1.6079
X0.7234 Y1.5968
X0.7408 Y1.586
X0.7598 Y1.5762
X0.7801 Y1.5677
X0.8015 Y1.5607
X0.8236 Y1.5554
X0.846 Y1.5519
X0.8673 Y1.5503
X0.887 Y1.5505
X0.9037 Y1.5519
X0.92 Y1.5546
X0.9339 Y1.5581
X0.9404 Y1.5604
X0.9514 Y1.5654
X0.9611 Y1.5726
X0.9691 Y1.5816
X0.9751 Y1.5921
X0.9788 Y1.6036
X0.98 Y1.6156
Y1.6961
G3 X0.9569 Y1.7201 I-0.025 J-0.0009
G1 X0.6719 Y1.7419
G3 X0.645 Y1.7179 I-0.0019 J-0.0249
G1 Y1.6382
X0.6454 Y1.6303
X0.6464 Y1.6224
X0.6482 Y1.6139
X0.651 Y1.6047
X0.6549 Y1.5948
X0.6599 Y1.5844
X0.6663 Y1.5735
X0.6744 Y1.562
X0.6838 Y1.5507
X0.6954 Y1.5388
X0.7085 Y1.5274
X0.7234 Y1.5163
X0.7407 Y1.5056
X0.7598 Y1.4957
X0.7801 Y1.4873
X0.8015 Y1.4803
X0.8236 Y1.475
X0.846 Y1.4715
X0.8673 Y1.4699
X0.887 Y1.47
X0.9037 Y1.4714
X0.92 Y1.4742
X0.9338 Y1.4777
X0.9404 Y1.4799
X0.9514 Y1.4849
X0.9611 Y1.4921
X0.9691 Y1.5011
X0.9751 Y1.5116
X0.9788 Y1.5231
X0.98 Y1.5351
Y1.6156
G3 X0.957 Y1.6396 I-0.025 J-0.0009
G1 X0.672 Y1.6622
G3 X0.645 Y1.6382 I-0.002 J-0.0249
G1 Y1.5545
X0.6453 Y1.5485
X0.6465 Y1.5403
X0.6485 Y1.5318
X0.6515 Y1.5223
X0.6555 Y1.5124
X0.661 Y1.5016
X0.6676 Y1.4909
X0.6761 Y1.4792
X0.6858 Y1.4679
X0.6976 Y1.4561
X0.7114 Y1.4445
X0.7266 Y1.4336
X0.7442 Y1.4231
X0.7636 Y1.4135
X0.7844 Y1.4052
X0.8061 Y1.3985
X0.8282 Y1.3936
X0.8505 Y1.3905
X0.8711 Y1.3893
X0.8907 Y1.3897
X0.907 Y1.3914
X0.923 Y1.3943
X0.9367 Y1.398
X0.9413 Y1.3997
X0.9521 Y1.4048
X0.9615 Y1.412
X0.9694 Y1.421
X0.9752 Y1.4314
X0.9788 Y1.4428
X0.98 Y1.4546
Y1.5351
G3 X0.9567 Y1.5592 I-0.025 J-0.0009
G1 X0.6717 Y1.5786
G3 X0.645 Y1.5545 I-0.0017 J-0.0249
G1 Y1.4748
X0.6453 Y1.4688
X0.6463 Y1.4611
X0.6483 Y1.4523
X0.651 Y1.4433
X0.655 Y1.4332
X0.66 Y1.423
X0.6666 Y1.4118
X0.6746 Y1.4006
X0.6842 Y1.3891
X0.696 Y1.3772
X0.709 Y1.3659
X0.7243 Y1.3547
X0.7418 Y1.3439
X0.7606 Y1.3343
X0.7808 Y1.326
X0.8024 Y1.319
X0.8246 Y1.3138
X0.847 Y1.3104
X0.8686 Y1.3089
X0.888 Y1.3091
X0.9047 Y1.3106
X0.9208 Y1.3134
X0.9346 Y1.3169
X0.9406 Y1.319
X0.9516 Y1.324
X0.9612 Y1.3312
X0.9692 Y1.3403
X0.9751 Y1.3507
X0.9788 Y1.3622
X0.98 Y1.3741
Y1.4546
G3 X0.9568 Y1.4787 I-0.025 J-0.0009
G1 X0.6718 Y1.4988
G3 X0.645 Y1.4748 I-0.0018 J-0.0249
G1 Y1.3951
X0.6453 Y1.3888
X0.6463 Y1.381
X0.6482 Y1.3724
X0.6509 Y1.3632
X0.6548 Y1.3533
X0.6598 Y1.3429
X0.6663 Y1.332
X0.6743 Y1.3206
X0.6837 Y1.3093
X0.6953 Y1.2973
X0.7083 Y1.286
X0.7233 Y1.2749
X0.7407 Y1.2641
X0.7596 Y1.2543
X0.7799 Y1.2459
X0.8013 Y1.2388
X0.8234 Y1.2335
X0.8459 Y1.23
X0.8674 Y1.2284
X0.887 Y1.2285
X0.9037 Y1.23
X0.92 Y1.2327
X0.9339 Y1.2362
X0.9404 Y1.2384
X0.9514 Y1.2435
X0.9611 Y1.2507
X0.9691 Y1.2597
X0.9751 Y1.2702
X0.9788 Y1.2817
X0.98 Y1.2937
Y1.3741
G3 X0.9568 Y1.3982 I-0.025 J-0.0009
G1 X0.6718 Y1.4191
G3 X0.645 Y1.3951 I-0.0018 J-0.0249
G1 Y1.3154
X0.6454 Y1.3083
X0.6464 Y1.3004
X0.6482 Y1.2919
X0.651 Y1.2827
X0.6548 Y1.2729
X0.6599 Y1.2624
X0.6663 Y1.2516
X0.6744 Y1.24
X0.6837 Y1.2288
X0.6953 Y1.2169
X0.7084 Y1.2055
X0.7233 Y1.1944
X0.7407 Y1.1836
X0.7597 Y1.1738
X0.78 Y1.1653
X0.8014 Y1.1583
X0.8235 Y1.153
X0.846 Y1.1495
X0.8673 Y1.1479
X0.887 Y1.148
X0.9037 Y1.1495
X0.92 Y1.1522
X0.9338 Y1.1557
X0.9404 Y1.1579
X0.9514 Y1.163
X0.9611 Y1.1702
X0.9691 Y1.1792
X0.9751 Y1.1897
X0.9788 Y1.2012
X0.98 Y1.2132
Y1.2937
G3 X0.9569 Y1.3177 I-0.025 J-0.0009
G1 X0.6719 Y1.3394
G3 X0.645 Y1.3154 I-0.0019 J-0.0249
G1 Y1.2357
X0.6454 Y1.2278
X0.6464 Y1.22
X0.6482 Y1.2114
X0.651 Y1.2022
X0.6548 Y1.1924
X0.6599 Y1.1819
X0.6663 Y1.1711
X0.6744 Y1.1596
X0.6837 Y1.1483
X0.6954 Y1.1364
X0.7084 Y1.125
X0.7234 Y1.1139
X0.7407 Y1.1031
X0.7598 Y1.0933
X0.78 Y1.0848
X0.8014 Y1.0778
X0.8235 Y1.0726
X0.846 Y1.069
X0.8673 Y1.0675
X0.887 Y1.0676
X0.9037 Y1.069
X0.92 Y1.0717
X0.9338 Y1.0752
X0.9404 Y1.0775
X0.9514 Y1.0825
X0.9611 Y1.0897
X0.9691 Y1.0987
X0.9751 Y1.1092
X0.9788 Y1.1207
X0.98 Y1.1327
Y1.2132
G3 X0.957 Y1.2372 I-0.025 J-0.0009
G1 X0.672 Y1.2597
G3 X0.645 Y1.2357 I-0.002 J-0.0249
G1 Y1.156
X0.6454 Y1.1473
X0.6465 Y1.1395
X0.6483 Y1.131
X0.651 Y1.1217
X0.6549 Y1.1119
X0.66 Y1.1014
X0.6663 Y1.0906
X0.6744 Y1.0791
X0.6838 Y1.0678
X0.6954 Y1.0559
X0.7085 Y1.0445
X0.7234 Y1.0334
X0.7407 Y1.0227
X0.7598 Y1.0128
X0.78 Y1.0044
X0.8015 Y0.9974
X0.8235 Y0.9921
X0.846 Y0.9886
X0.8673 Y0.987
X0.887 Y0.9871
X0.9037 Y0.9885
X0.92 Y0.9913
X0.9338 Y0.9948
X0.9404 Y0.997
X0.9514 Y1.002
X0.9611 Y1.0092
X0.9691 Y1.0182
X0.9751 Y1.0287
X0.9788 Y1.0402
X0.98 Y1.0522
Y1.1327
G3 X0.9571 Y1.1567 I-0.025 J-0.0009
G1 X0.672 Y1.18
G3 X0.645 Y1.156 I-0.002 J-0.0249
G1 Y1.0763
X0.6455 Y1.0669
X0.6465 Y1.059
X0.6483 Y1.0505
X0.6511 Y1.0413
X0.6549 Y1.0314
X0.66 Y1.0209
X0.6664 Y1.0101
X0.6745 Y0.9986
X0.6838 Y0.9873
X0.6954 Y0.9754
X0.7085 Y0.964
X0.7235 Y0.9529
X0.7408 Y0.9422
X0.7598 Y0.9323
X0.7801 Y0.9239
X0.8015 Y0.9169
X0.8235 Y0.9116
X0.846 Y0.9081
X0.8673 Y0.9065
X0.887 Y0.9066
X0.9037 Y0.9081
X0.92 Y0.9108
X0.9338 Y0.9143
X0.9404 Y0.9165
X0.9514 Y0.9215
X0.9611 Y0.9287
X0.9691 Y0.9378
X0.9751 Y0.9483
X0.9788 Y0.9597
X0.98 Y0.9717
Y1.0522
G3 X0.9571 Y1.0763 I-0.025 J-0.0009
G1 X0.6721 Y1.1003
G3 X0.645 Y1.0763 I-0.0021 J-0.0249
G1 Y0.9966
X0.6455 Y0.9864
X0.6465 Y0.9785
X0.6484 Y0.97
X0.6511 Y0.9608
X0.655 Y0.9509
X0.66 Y0.9405
X0.6664 Y0.9296
X0.6745 Y0.9181
X0.6839 Y0.9068
X0.6955 Y0.8949
X0.7085 Y0.8835
X0.7235 Y0.8725
X0.7408 Y0.8617
X0.7598 Y0.8519
X0.7801 Y0.8434
X0.8015 Y0.8364
X0.8236 Y0.8311
X0.846 Y0.8276
X0.8673 Y0.826
X0.887 Y0.8261
X0.9037 Y0.8276
X0.92 Y0.8303
X0.9339 Y0.8338
X0.9404 Y0.836
X0.9514 Y0.8411
X0.9611 Y0.8483
X0.9691 Y0.8573
X0.9751 Y0.8678
X0.9788 Y0.8793
X0.98 Y0.8913
Y0.9717
G3 X0.9572 Y0.9958 I-0.025 J-0.0009
G1 X0.6722 Y1.0206
G3 X0.645 Y0.9966 I-0.0022 J-0.0249
G1 Y0.9169
X0.6456 Y0.9059
X0.6466 Y0.898
X0.6484 Y0.8895
X0.6512 Y0.8803
X0.655 Y0.8704
X0.6601 Y0.86
X0.6665 Y0.8491
X0.6746 Y0.8376
X0.6839 Y0.8264
X0.6955 Y0.8145
X0.7086 Y0.8031
X0.7235 Y0.792
X0.7408 Y0.7812
X0.7599 Y0.7714
X0.7801 Y0.7629
X0.8015 Y0.7559
X0.8236 Y0.7507
X0.846 Y0.7472
X0.8673 Y0.7456
X0.887 Y0.7457
X0.9037 Y0.7471
X0.92 Y0.7499
X0.9339 Y0.7533
X0.9404 Y0.7556
X0.9514 Y0.7606
X0.9611 Y0.7678
X0.9691 Y0.7768
X0.9751 Y0.7873
X0.9788 Y0.7988
X0.98 Y0.8108
Y0.8913
G3 X0.9573 Y0.9153 I-0.025 J-0.0009
G1 X0.6722 Y0.9409
G3 X0.645 Y0.9169 I-0.0022 J-0.0249
G1 Y0.8323
X0.6453 Y0.8256
X0.6464 Y0.8177
X0.6482 Y0.8092
X0.651 Y0.8
X0.6548 Y0.7901
X0.6599 Y0.7796
X0.6663 Y0.7688
X0.6744 Y0.7572
X0.6837 Y0.7459
X0.6954 Y0.734
X0.7084 Y0.7226
X0.7234 Y0.7115
X0.7407 Y0.7008
X0.7598 Y0.6909
X0.78 Y0.6825
X0.8015 Y0.6755
X0.8235 Y0.6702
X0.846 Y0.6667
X0.8673 Y0.6651
X0.887 Y0.6652
X0.9037 Y0.6666
X0.92 Y0.6694
X0.9338 Y0.6729
X0.9404 Y0.6751
X0.9514 Y0.6801
X0.9611 Y0.6873
X0.9691 Y0.6963
X0.9751 Y0.7068
X0.9788 Y0.7183
X0.98 Y0.7303
Y0.8108
G3 X0.9569 Y0.8349 I-0.025 J-0.0009
G1 X0.6719 Y0.8564
G3 X0.645 Y0.8323 I-0.0019 J-0.0249
G1 Y0.7526
X0.6454 Y0.745
X0.6464 Y0.7371
X0.6482 Y0.7286
X0.651 Y0.7194
X0.6548 Y0.7095
X0.6599 Y0.6991
X0.6663 Y0.6882
X0.6744 Y0.6767
X0.6837 Y0.6654
X0.6954 Y0.6535
X0.7084 Y0.6421
X0.7234 Y0.6311
X0.7407 Y0.6203
X0.7598 Y0.6105
X0.78 Y0.602
X0.8015 Y0.595
X0.8235 Y0.5897
X0.846 Y0.5862
X0.8673 Y0.5846
X0.887 Y0.5847
X0.9037 Y0.5862
X0.92 Y0.5889
X0.9338 Y0.5924
X0.9477 Y0.5971
X0.9505 Y0.5983
X0.956 Y0.601
X0.9612 Y0.6043
X0.966 Y0.6081
X0.9674 Y0.6093
X0.9742 Y0.6158
X0.9762 Y0.6187
X0.9778 Y0.6217
X0.9789 Y0.6247
X0.9795 Y0.6269
X0.9798 Y0.6291
X0.98 Y0.6335
Y0.7303
G3 X0.957 Y0.7544 I-0.025 J-0.0009
G1 X0.6719 Y0.7767
G3 X0.645 Y0.7526 I-0.0019 J-0.0249
G1 Y0.6689
X0.6453 Y0.6629
X0.6465 Y0.6547
X0.6485 Y0.6462
X0.6516 Y0.6366
X0.6557 Y0.6268
X0.6612 Y0.616
X0.6678 Y0.6052
X0.6764 Y0.5935
X0.6861 Y0.5822
X0.6981 Y0.5704
X0.712 Y0.5588
X0.7272 Y0.5479
X0.7448 Y0.5375
X0.7643 Y0.5279
X0.7852 Y0.5196
X0.8068 Y0.513
X0.829 Y0.5082
X0.8513 Y0.5051
X0.8661 Y0.5043
X0.8789 Y0.505
X0.8912 Y0.5085
X0.9025 Y0.5146
X0.9121 Y0.523
X0.9197 Y0.5333
X0.9248 Y0.545
X0.928 Y0.5538
X0.932 Y0.5627
G3 X0.9181 Y0.5954 I-0.0231 J0.0095
G1 X0.6793 Y0.6913
G3 X0.645 Y0.6689 I-0.0093 J-0.0232
G1 Y0.6335
X0.6452 Y0.6291
X0.6455 Y0.6269
X0.6461 Y0.6247
X0.6472 Y0.6217
X0.6488 Y0.6187
X0.6508 Y0.6158
X0.6576 Y0.6093
X0.6603 Y0.607
X0.6665 Y0.6005
X0.6767 Y0.5892
X0.6831 Y0.5804
X0.6884 Y0.5715
X0.693 Y0.5627
X0.697 Y0.5538
X0.7002 Y0.545
X0.7019 Y0.5396
X0.7028 Y0.5361
X0.7044 Y0.5303
X0.7075 Y0.523
X0.7113 Y0.5155
X0.7164 Y0.5073
X0.7226 Y0.4988
X0.7303 Y0.49
X0.7394 Y0.4811
X0.7503 Y0.472
X0.7624 Y0.4635
X0.7757 Y0.4557
X0.7896 Y0.4489
X0.8025 Y0.4439
X0.8156 Y0.4399
X0.8283 Y0.4372
X0.8404 Y0.4356
X0.8529 Y0.4349
X0.8641 Y0.4353
X0.8656 Y0.4354
X0.8774 Y0.438
X0.8885 Y0.443
X0.8983 Y0.4501
X0.9064 Y0.4591
X0.9125 Y0.4696
X0.9163 Y0.4812
X0.9176 Y0.4932
Y0.5007
X0.9178 Y0.5056
G3 X0.898 Y0.5302 I-0.025 J0.0002
G1 X0.7325 Y0.5653
G3 X0.7028 Y0.5361 I-0.0052 J-0.0245
G1 X0.7048 Y0.5273
X0.7063 Y0.5184
X0.707 Y0.5095
X0.7074 Y0.5007
X0.7075 Y0.487
X0.7078 Y0.4803
X0.7086 Y0.4742
X0.7101 Y0.4674
X0.7123 Y0.4601
X0.7153 Y0.4525
X0.7193 Y0.4443
X0.7241 Y0.4362
X0.7302 Y0.4277
X0.7372 Y0.4192
X0.7452 Y0.4111
X0.7543 Y0.4032
X0.7646 Y0.3956
X0.7759 Y0.3887
X0.7871 Y0.3829
X0.7987 Y0.3781
X0.8103 Y0.3744
X0.8215 Y0.3717
X0.8333 Y0.3699
X0.844 Y0.3692
X0.8556 Y0.3693
X0.8661 Y0.3702
X0.869 Y0.3707
X0.8803 Y0.3738
X0.8906 Y0.3791
X0.8998 Y0.3863
X0.9073 Y0.3953
X0.9129 Y0.4055
X0.9163 Y0.4166
X0.9175 Y0.4282
Y0.483
X0.9176 Y0.4932
G3 X0.8916 Y0.5174 I-0.025 J-0.0008
G1 X0.7315 Y0.5112
G3 X0.7075 Y0.487 I0.001 J-0.025
G1 Y0.4653
Y0.421
X0.7079 Y0.4139
X0.7087 Y0.4075
X0.7102 Y0.4007
X0.7124 Y0.3932
X0.7153 Y0.3856
X0.7193 Y0.3775
X0.7241 Y0.3693
X0.7298 Y0.3612
X0.7366 Y0.353
X0.7445 Y0.345
X0.7532 Y0.3373
X0.7629 Y0.3302
X0.7736 Y0.3235
X0.7852 Y0.3175
X0.7965 Y0.3128
X0.8086 Y0.3088
X0.82 Y0.3061
X0.8318 Y0.3043
X0.8431 Y0.3034
X0.8542 Y0.3035
X0.8653 Y0.3045
X0.8688 Y0.305
X0.8801 Y0.3081
X0.8905 Y0.3134
X0.8997 Y0.3206
X0.9072 Y0.3295
X0.9129 Y0.3398
X0.9163 Y0.351
X0.9175 Y0.3626
Y0.4282
G3 X0.8914 Y0.4523 I-0.025 J-0.0009
G1 X0.7314 Y0.4451
G3 X0.7075 Y0.421 I0.0011 J-0.025
G1 Y0.3541
X0.7078 Y0.3474
X0.7087 Y0.341
X0.7101 Y0.3343
X0.7123 Y0.3269
X0.7152 Y0.3195
X0.7191 Y0.3116
X0.7239 Y0.3034
X0.7295 Y0.2953
X0.7362 Y0.2872
X0.7441 Y0.2792
X0.7529 Y0.2716
X0.7625 Y0.2644
X0.7731 Y0.2578
X0.7847 Y0.2518
X0.7961 Y0.2471
X0.8083 Y0.2431
X0.8197 Y0.2404
X0.8315 Y0.2385
X0.8429 Y0.2377
X0.854
X0.8652 Y0.2387
X0.8688 Y0.2393
X0.8801 Y0.2424
X0.8905 Y0.2476
X0.8997 Y0.2549
X0.9072 Y0.2638
X0.9129 Y0.274
X0.9163 Y0.2852
X0.9175 Y0.2968
Y0.3626
G3 X0.8912 Y0.3867 I-0.025 J-0.0009
G1 X0.7312 Y0.3782
G3 X0.7075 Y0.3541 I0.0013 J-0.025
G1 Y0.2882
X0.7078 Y0.2814
X0.7087 Y0.275
X0.7101 Y0.2684
X0.7123 Y0.261
X0.7152 Y0.2536
X0.719 Y0.2457
X0.7238 Y0.2375
X0.7295 Y0.2295
X0.7362 Y0.2214
X0.744 Y0.2134
X0.7528 Y0.2058
X0.7624 Y0.1986
X0.773 Y0.192
X0.7846 Y0.1861
X0.796 Y0.1813
X0.8082 Y0.1773
X0.8196 Y0.1746
X0.8315 Y0.1727
X0.8428 Y0.1719
X0.854
X0.8652 Y0.1729
X0.8688 Y0.1735
X0.8801 Y0.1766
X0.8905 Y0.1819
X0.8997 Y0.1891
X0.9072 Y0.198
X0.9129 Y0.2083
X0.9163 Y0.2194
X0.9175 Y0.231
Y0.2968
G3 X0.8912 Y0.3209 I-0.025 J-0.0009
G1 X0.7311 Y0.3122
G3 X0.7075 Y0.2882 I0.0014 J-0.025
G1 Y0.2213
X0.7078 Y0.2153
X0.7082 Y0.2093
X0.709 Y0.2034
X0.7103 Y0.1975
X0.7119 Y0.1917
X0.714 Y0.1861
X0.7163 Y0.1806
X0.719 Y0.1752
X0.722 Y0.17
X0.7252 Y0.1649
X0.7287 Y0.16
X0.7324 Y0.1553
X0.7363 Y0.1508
X0.7404 Y0.1464
X0.7447 Y0.1422
X0.7492 Y0.1382
X0.7538 Y0.1344
X0.7586 Y0.1308
X0.7635 Y0.1274
X0.7686 Y0.1241
X0.7737 Y0.1211
X0.779 Y0.1183
X0.7844 Y0.1156
X0.7899 Y0.1132
X0.7955 Y0.1109
X0.8011 Y0.1089
X0.8068 Y0.1071
X0.8126 Y0.1055
X0.8185 Y0.1042
X0.8244 Y0.1031
X0.8303 Y0.1022
X0.8363 Y0.1015
X0.8423 Y0.1011
X0.8483 Y0.101
X0.8542 Y0.1011
X0.8602 Y0.1015
X0.8662 Y0.102
X0.8675 Y0.1022
X0.879 Y0.1051
X0.8897 Y0.1103
X0.8991 Y0.1175
X0.9069 Y0.1265
X0.9127 Y0.1368
X0.9163 Y0.1482
X0.9175 Y0.16
Y0.231
G3 X0.891 Y0.2551 I-0.025 J-0.0009
G1 X0.731 Y0.2454
G3 X0.7075 Y0.2213 I0.0015 J-0.025
G1 Y0.1505
X0.7078 Y0.1445
X0.7087 Y0.1381
X0.7102 Y0.1313
X0.7131 Y0.122
X0.7143 Y0.1123
X0.714 Y0.1026
X0.7124 Y0.0947
X0.7109 Y0.0905
X0.709 Y0.0842
X0.7079 Y0.0776
X0.7075 Y0.071
G3 X0.7575 Y0.0728 I0.025 J0.0009
X0.7195 Y0.1555 I-0.118 J-0.0041
X0.7075 Y0.1505 I-0.0049 J-0.0053
G1 Y0.0048
G3 X0.7172 Y-0.0141 I0.025 J0.0009
G1 X0.8772 Y-0.1381
G3 X0.9175 Y-0.1192 I0.0153 J0.0198
G1 Y0.16
X0.917 Y0.1621 Z-0.1994
X0.9166 Y0.1641 Z-0.1986
X0.9162 Y0.1659 Z-0.1975
X0.9159 Y0.1674 Z-0.1959
X0.9157 Y0.1686 Z-0.1941
X0.9154 Y0.1692 Z-0.192
X0.9153 Y0.1695 Z-0.1898
G0 Z0.2
X0.6708 Y2.5357
Z-0.3492
G1 Z-0.3742 F39.37
X0.6707 Y2.5354 Z-0.3781
X0.6705 Y2.5345 Z-0.3819
X0.6701 Y2.533 Z-0.3856
X0.6696 Y2.531 Z-0.3889
X0.669 Y2.5286 Z-0.3919
X0.6682 Y2.5257 Z-0.3944
X0.6674 Y2.5225 Z-0.3965
X0.6665 Y2.5189 Z-0.398
X0.6655 Y2.5152 Z-0.3989
X0.6646 Y2.5115 Z-0.3992
G3 X0.645 Y2.3754 I0.6183 J-0.1584
G1 Y2.3621
X0.6451 Y2.3606
X0.6489 Y2.3558
X0.6539 Y2.3503
X0.6606 Y2.3441
X0.6693 Y2.3373
X0.6804 Y2.3299
X0.6947 Y2.322
X0.7131 Y2.3137
X0.7376 Y2.3049
X0.7714 Y2.2957
X0.8098 Y2.2886
X0.8485 Y2.2838
X0.8873 Y2.2806
X0.9217 Y2.2786
X0.9345 Y2.2794
X0.9467 Y2.2831
X0.9578 Y2.2895
X0.9671 Y2.2983
X0.9741 Y2.309
X0.9785 Y2.321
X0.98 Y2.3338
G3 X0.9575 Y2.3578 I-0.025 J-0.0009
G1 X0.6725 Y2.3861
G3 X0.645 Y2.3621 I-0.0025 J-0.0249
G1 Y2.3289
X0.6453 Y2.3229
X0.6476 Y2.3164
X0.6509 Y2.3091
X0.6554 Y2.301
X0.6608 Y2.2929
X0.6679 Y2.2837
X0.6769 Y2.274
X0.6873 Y2.2644
X0.7009 Y2.2537
X0.7164 Y2.2435
X0.7364 Y2.2324
X0.7604 Y2.2216
X0.7914 Y2.2105
X0.8251 Y2.2014
X0.8501 Y2.1968
X0.871 Y2.1947
X0.8882 Y2.1943
X0.9051 Y2.1953
X0.9195 Y2.1973
X0.9337 Y2.2004
X0.9389 Y2.202
X0.9502 Y2.2069
X0.9603 Y2.214
X0.9686 Y2.2231
X0.9748 Y2.2338
X0.9787 Y2.2455
X0.98 Y2.2577
G3 X0.9611 Y2.2811 I-0.025 J-0.0009
G1 X0.676 Y2.3523
G3 X0.645 Y2.3289 I-0.0061 J-0.0243
G1 Y2.2758
X0.6453 Y2.2698
X0.6464 Y2.2626
X0.6481 Y2.2552
X0.6508 Y2.2467
X0.6545 Y2.2377
X0.6594 Y2.2282
X0.6659 Y2.2176
X0.6735 Y2.2071
X0.6838 Y2.1952
X0.6953 Y2.1839
X0.7103 Y2.1713
X0.7268 Y2.1596
X0.7459 Y2.1482
X0.7667 Y2.1379
X0.7884 Y2.1293
X0.8108 Y2.1225
X0.8332 Y2.1176
X0.8555 Y2.1145
X0.8753 Y2.1134
X0.8936 Y2.1139
X0.9098 Y2.1156
X0.9248 Y2.1184
X0.9384 Y2.1221
X0.9415 Y2.1232
X0.9522 Y2.1284
X0.9616 Y2.1356
X0.9694 Y2.1446
X0.9752 Y2.1549
X0.9788 Y2.1663
X0.98 Y2.1781
Y2.2577
G3 X0.9566 Y2.2818 I-0.025 J-0.0009
G1 X0.6716 Y2.2998
G3 X0.645 Y2.2758 I-0.0016 J-0.025
G1 Y2.2009
X0.6453 Y2.1949
X0.6463 Y2.1874
X0.6482 Y2.1786
X0.6509 Y2.1696
X0.6549 Y2.1594
X0.6599 Y2.1492
X0.6667 Y2.1377
X0.6746 Y2.1266
X0.6846 Y2.1146
X0.6962 Y2.1027
X0.7096 Y2.0911
X0.7255 Y2.0794
X0.743 Y2.0686
X0.762 Y2.0588
X0.7825 Y2.0503
X0.8042 Y2.0433
X0.8263 Y2.0381
X0.8486 Y2.0346
X0.8698 Y2.0331
X0.8888 Y2.0333
X0.9053 Y2.0347
X0.9212 Y2.0374
X0.9349 Y2.0409
X0.9406 Y2.0429
X0.9515 Y2.0479
X0.9611 Y2.0551
X0.9691 Y2.0641
X0.9751 Y2.0746
X0.9788 Y2.0861
X0.98 Y2.0981
Y2.1781
G3 X0.957 Y2.2022 I-0.025 J-0.0009
G1 X0.672 Y2.225
G3 X0.645 Y2.2009 I-0.002 J-0.0249
G1 Y2.1212
X0.6453 Y2.1144
X0.6464 Y2.1066
X0.6482 Y2.0978
X0.651 Y2.0886
X0.6549 Y2.0785
X0.66 Y2.0681
X0.6665 Y2.057
X0.6746 Y2.0455
X0.6841 Y2.034
X0.6959 Y2.0219
X0.709 Y2.0105
X0.7242 Y1.9993
X0.7417 Y1.9884
X0.7608 Y1.9785
X0.7811 Y1.9701
X0.8026 Y1.963
X0.8246 Y1.9577
X0.847 Y1.9543
X0.8681 Y1.9527
X0.8876 Y1.9528
X0.9042 Y1.9542
X0.9203 Y1.9569
X0.9341 Y1.9604
X0.9404 Y1.9625
X0.9514 Y1.9676
X0.9611 Y1.9748
X0.9691 Y1.9838
X0.9751 Y1.9943
X0.9788 Y2.0058
X0.98 Y2.0178
Y2.0981
G3 X0.957 Y2.1221 I-0.025 J-0.0009
G1 X0.672 Y2.1453
G3 X0.645 Y2.1212 I-0.002 J-0.0249
G1 Y2.0415
X0.6454 Y2.0333
X0.6464 Y2.0254
X0.6483 Y2.0168
X0.651 Y2.0076
X0.6549 Y1.9976
X0.66 Y1.9872
X0.6665 Y1.9762
X0.6746 Y1.9646
X0.684 Y1.9533
X0.6957 Y1.9413
X0.7088 Y1.9299
X0.7239 Y1.9187
X0.7413 Y1.9079
X0.7603 Y1.8981
X0.7806 Y1.8896
X0.8021 Y1.8826
X0.8241 Y1.8773
X0.8465 Y1.8738
X0.8677 Y1.8722
X0.8873 Y1.8723
X0.9039 Y1.8738
X0.9202 Y1.8765
X0.934 Y1.88
X0.9404 Y1.8822
X0.9514 Y1.8872
X0.9611 Y1.8944
X0.9691 Y1.9034
X0.9751 Y1.9139
X0.9788 Y1.9254
X0.98 Y1.9374
Y2.0178
G3 X0.9571 Y2.0418 I-0.025 J-0.0009
G1 X0.6721 Y2.0656
G3 X0.645 Y2.0415 I-0.0021 J-0.0249
G1 Y1.9618
X0.6455 Y1.9525
X0.6465 Y1.9446
X0.6483 Y1.936
X0.6511 Y1.9268
X0.655 Y1.9169
X0.66 Y1.9064
X0.6665 Y1.8955
X0.6746 Y1.884
X0.6839 Y1.8727
X0.6956 Y1.8607
X0.7087 Y1.8493
X0.7237 Y1.8382
X0.741 Y1.8274
X0.7601 Y1.8176
X0.7804 Y1.8091
X0.8018 Y1.8021
X0.8238 Y1.7968
X0.8462 Y1.7933
X0.8675 Y1.7918
X0.8871 Y1.7919
X0.9038 Y1.7933
X0.9201 Y1.796
X0.9339 Y1.7995
X0.9404 Y1.8017
X0.9514 Y1.8068
X0.9611 Y1.814
X0.9691 Y1.823
X0.9751 Y1.8335
X0.9788 Y1.845
X0.98 Y1.857
Y1.9374
G3 X0.9572 Y1.9614 I-0.025 J-0.0009
G1 X0.6721 Y1.9859
G3 X0.645 Y1.9618 I-0.0021 J-0.0249
G1 Y1.8821
X0.6455 Y1.8718
X0.6465 Y1.8639
X0.6484 Y1.8554
X0.6511 Y1.8462
X0.655 Y1.8363
X0.6601 Y1.8258
X0.6665 Y1.815
X0.6746 Y1.8034
X0.6839 Y1.7921
X0.6956 Y1.7802
X0.7086 Y1.7688
X0.7236 Y1.7577
X0.7409 Y1.747
X0.76 Y1.7371
X0.7802 Y1.7287
X0.8017 Y1.7217
X0.8237 Y1.7164
X0.8461 Y1.7129
X0.8674 Y1.7113
X0.887 Y1.7114
X0.9038 Y1.7128
X0.9201 Y1.7156
X0.9339 Y1.7191
X0.9404 Y1.7213
X0.9514 Y1.7263
X0.9611 Y1.7335
X0.9691 Y1.7425
X0.9751 Y1.753
X0.9788 Y1.7645
X0.98 Y1.7765
Y1.857
G3 X0.9572 Y1.881 I-0.025 J-0.0009
G1 X0.6722 Y1.9062
G3 X0.645 Y1.8821 I-0.0022 J-0.0249
G1 Y1.8024
X0.6456 Y1.7912
X0.6466 Y1.7834
X0.6484 Y1.7748
X0.6512 Y1.7656
X0.655 Y1.7558
X0.6601 Y1.7453
X0.6665 Y1.7344
X0.6746 Y1.7229
X0.6839 Y1.7116
X0.6956 Y1.6997
X0.7086 Y1.6883
X0.7236 Y1.6773
X0.7409 Y1.6665
X0.7599 Y1.6567
X0.7802 Y1.6482
X0.8016 Y1.6412
X0.8237 Y1.6359
X0.8461 Y1.6324
X0.8674 Y1.6308
X0.887 Y1.6309
X0.9037 Y1.6324
X0.92 Y1.6351
X0.9339 Y1.6386
X0.9404 Y1.6408
X0.9514 Y1.6459
X0.9611 Y1.653
X0.9691 Y1.6621
X0.9751 Y1.6726
X0.9788 Y1.6841
X0.98 Y1.6961
Y1.7765
G3 X0.9573 Y1.8005 I-0.025 J-0.0009
G1 X0.6722 Y1.8265
G3 X0.645 Y1.8024 I-0.0023 J-0.0249
G1 Y1.7179
X0.6453 Y1.7109
X0.6464 Y1.703
X0.6482 Y1.6945
X0.651 Y1.6853
X0.6548 Y1.6754
X0.6599 Y1.6649
X0.6663 Y1.654
X0.6744 Y1.6425
X0.6838 Y1.6312
X0.6954 Y1.6193
X0.7085 Y1.6079
X0.7234 Y1.5968
X0.7408 Y1.586
X0.7598 Y1.5762
X0.7801 Y1.5677
X0.8015 Y1.5607
X0.8236 Y1.5554
X0.846 Y1.5519
X0.8673 Y1.5503
X0.887 Y1.5505
X0.9037 Y1.5519
X0.92 Y1.5546
X0.9339 Y1.5581
X0.9404 Y1.5604
X0.9514 Y1.5654
X0.9611 Y1.5726
X0.9691 Y1.5816
X0.9751 Y1.5921
X0.9788 Y1.6036
X0.98 Y1.6156
Y1.6961
G3 X0.9569 Y1.7201 I-0.025 J-0.0009
G1 X0.6719 Y1.7419
G3 X0.645 Y1.7179 I-0.0019 J-0.0249
G1 Y1.6382
X0.6454 Y1.6303
X0.6464 Y1.6224
X0.6482 Y1.6139
X0.651 Y1.6047
X0.6549 Y1.5948
X0.6599 Y1.5844
X0.6663 Y1.5735
X0.6744 Y1.562
X0.6838 Y1.5507
X0.6954 Y1.5388
X0.7085 Y1.5274
X0.7234 Y1.5163
X0.7407 Y1.5056
X0.7598 Y1.4957
X0.7801 Y1.4873
X0.8015 Y1.4803
X0.8236 Y1.475
X0.846 Y1.4715
X0.8673 Y1.4699
X0.887 Y1.47
X0.9037 Y1.4714
X0.92 Y1.4742
X0.9338 Y1.4777
X0.9404 Y1.4799
X0.9514 Y1.4849
X0.9611 Y1.4921
X0.9691 Y1.5011
X0.9751 Y1.5116
X0.9788 Y1.5231
X0.98 Y1.5351
Y1.6156
G3 X0.957 Y1.6396 I-0.025 J-0.0009
G1 X0.672 Y1.6622
G3 X0.645 Y1.6382 I-0.002 J-0.0249
G1 Y1.5545
X0.6453 Y1.5485
X0.6465 Y1.5403
X0.6485 Y1.5318
X0.6515 Y1.5223
X0.6555 Y1.5124
X0.661 Y1.5016
X0.6676 Y1.4909
X0.6761 Y1.4792
X0.6858 Y1.4679
X0.6976 Y1.4561
X0.7114 Y1.4445
X0.7266 Y1.4336
X0.7442 Y1.4231
X0.7636 Y1.4135
X0.7844 Y1.4052
X0.8061 Y1.3985
X0.8282 Y1.3936
X0.8505 Y1.3905
X0.8711 Y1.3893
X0.8907 Y1.3897
X0.907 Y1.3914
X0.923 Y1.3943
X0.9367 Y1.398
X0.9413 Y1.3997
X0.9521 Y1.4048
X0.9615 Y1.412
X0.9694 Y1.421
X0.9752 Y1.4314
X0.9788 Y1.4428
X0.98 Y1.4546
Y1.5351
G3 X0.9567 Y1.5592 I-0.025 J-0.0009
G1 X0.6717 Y1.5786
G3 X0.645 Y1.5545 I-0.0017 J-0.0249
G1 Y1.4748
X0.6453 Y1.4688
X0.6463 Y1.4611
X0.6483 Y1.4523
X0.651 Y1.4433
X0.655 Y1.4332
X0.66 Y1.423
X0.6666 Y1.4118
X0.6746 Y1.4006
X0.6842 Y1.3891
X0.696 Y1.3772
X0.709 Y1.3659
X0.7243 Y1.3547
X0.7418 Y1.3439
X0.7606 Y1.3343
X0.7808 Y1.326
X0.8024 Y1.319
X0.8246 Y1.3138
X0.847 Y1.3104
X0.8686 Y1.3089
X0.888 Y1.3091
X0.9047 Y1.3106
X0.9208 Y1.3134
X0.9346 Y1.3169
X0.9406 Y1.319
X0.9516 Y1.324
X0.9612 Y1.3312
X0.9692 Y1.3403
X0.9751 Y1.3507
X0.9788 Y1.3622
X0.98 Y1.3741
Y1.4546
G3 X0.9568 Y1.4787 I-0.025 J-0.0009
G1 X0.6718 Y1.4988
G3 X0.645 Y1.4748 I-0.0018 J-0.0249
G1 Y1.3951
X0.6453 Y1.3888
X0.6463 Y1.381
X0.6482 Y1.3724
X0.6509 Y1.3632
X0.6548 Y1.3533
X0.6598 Y1.3429
X0.6663 Y1.332
X0.6743 Y1.3206
X0.6837 Y1.3093
X0.6953 Y1.2973
X0.7083 Y1.286
X0.7233 Y1.2749
X0.7407 Y1.2641
X0.7596 Y1.2543
X0.7799 Y1.2459
X0.8013 Y1.2388
X0.8234 Y1.2335
X0.8459 Y1.23
X0.8674 Y1.2284
X0.887 Y1.2285
X0.9037 Y1.23
X0.92 Y1.2327
X0.9339 Y1.2362
X0.9404 Y1.2384
X0.9514 Y1.2435
X0.9611 Y1.2507
X0.9691 Y1.2597
X0.9751 Y1.2702
X0.9788 Y1.2817
X0.98 Y1.2937
Y1.3741
G3 X0.9568 Y1.3982 I-0.025 J-0.0009
G1 X0.6718 Y1.4191
G3 X0.645 Y1.3951 I-0.0018 J-0.0249
G1 Y1.3154
X0.6454 Y1.3083
X0.6464 Y1.3004
X0.6482 Y1.2919
X0.651 Y1.2827
X0.6548 Y1.2729
X0.6599 Y1.2624
X0.6663 Y1.2516
X0.6744 Y1.24
X0.6837 Y1.2288
X0.6953 Y1.2169
X0.7084 Y1.2055
X0.7233 Y1.1944
X0.7407 Y1.1836
X0.7597 Y1.1738
X0.78 Y1.1653
X0.8014 Y1.1583
X0.8235 Y1.153
X0.846 Y1.1495
X0.8673 Y1.1479
X0.887 Y1.148
X0.9037 Y1.1495
X0.92 Y1.1522
X0.9338 Y1.1557
X0.9404 Y1.1579
X0.9514 Y1.163
X0.9611 Y1.1702
X0.9691 Y1.1792
X0.9751 Y1.1897
X0.9788 Y1.2012
X0.98 Y1.2132
Y1.2937
G3 X0.9569 Y1.3177 I-0.025 J-0.0009
G1 X0.6719 Y1.3394
G3 X0.645 Y1.3154 I-0.0019 J-0.0249
G1 Y1.2357
X0.6454 Y1.2278
X0.6464 Y1.22
X0.6482 Y1.2114
X0.651 Y1.2022
X0.6548 Y1.1924
X0.6599 Y1.1819
X0.6663 Y1.1711
X0.6744 Y1.1596
X0.6837 Y1.1483
X0.6954 Y1.1364
X0.7084 Y1.125
X0.7234 Y1.1139
X0.7407 Y1.1031
X0.7598 Y1.0933
X0.78 Y1.0848
X0.8014 Y1.0778
X0.8235 Y1.0726
X0.846 Y1.069
X0.8673 Y1.0675
X0.887 Y1.0676
X0.9037 Y1.069
X0.92 Y1.0717
X0.9338 Y1.0752
X0.9404 Y1.0775
X0.9514 Y1.0825
X0.9611 Y1.0897
X0.9691 Y1.0987
X0.9751 Y1.1092
X0.9788 Y1.1207
X0.98 Y1.1327
Y1.2132
G3 X0.957 Y1.2372 I-0.025 J-0.0009
G1 X0.672 Y1.2597
G3 X0.645 Y1.2357 I-0.002 J-0.0249
G1 Y1.156
X0.6454 Y1.1473
X0.6465 Y1.1395
X0.6483 Y1.131
X0.651 Y1.1217
X0.6549 Y1.1119
X0.66 Y1.1014
X0.6663 Y1.0906
X0.6744 Y1.0791
X0.6838 Y1.0678
X0.6954 Y1.0559
X0.7085 Y1.0445
X0.7234 Y1.0334
X0.7407 Y1.0227
X0.7598 Y1.0128
X0.78 Y1.0044
X0.8015 Y0.9974
X0.8235 Y0.9921
X0.846 Y0.9886
X0.8673 Y0.987
X0.887 Y0.9871
X0.9037 Y0.9885
X0.92 Y0.9913
X0.9338 Y0.9948
X0.9404 Y0.997
X0.9514 Y1.002
X0.9611 Y1.0092
X0.9691 Y1.0182
X0.9751 Y1.0287
X0.9788 Y1.0402
X0.98 Y1.0522
Y1.1327
G3 X0.9571 Y1.1567 I-0.025 J-0.0009
G1 X0.672 Y1.18
G3 X0.645 Y1.156 I-0.002 J-0.0249
G1 Y1.0763
X0.6455 Y1.0669
X0.6465 Y1.059
X0.6483 Y1.0505
X0.6511 Y1.0413
X0.6549 Y1.0314
X0.66 Y1.0209
X0.6664 Y1.0101
X0.6745 Y0.9986
X0.6838 Y0.9873
X0.6954 Y0.9754
X0.7085 Y0.964
X0.7235 Y0.9529
X0.7408 Y0.9422
X0.7598 Y0.9323
X0.7801 Y0.9239
X0.8015 Y0.9169
X0.8235 Y0.9116
X0.846 Y0.9081
X0.8673 Y0.9065
X0.887 Y0.9066
X0.9037 Y0.9081
X0.92 Y0.9108
X0.9338 Y0.9143
X0.9404 Y0.9165
X0.9514 Y0.9215
X0.9611 Y0.9287
X0.9691 Y0.9378
X0.9751 Y0.9483
X0.9788 Y0.9597
X0.98 Y0.9717
Y1.0522
G3 X0.9571 Y1.0763 I-0.025 J-0.0009
G1 X0.6721 Y1.1003
G3 X0.645 Y1.0763 I-0.0021 J-0.0249
G1 Y0.9966
X0.6455 Y0.9864
X0.6465 Y0.9785
X0.6484 Y0.97
X0.6511 Y0.9608
X0.655 Y0.9509
X0.66 Y0.9405
X0.6664 Y0.9296
X0.6745 Y0.9181
X0.6839 Y0.9068
X0.6955 Y0.8949
X0.7085 Y0.8835
X0.7235 Y0.8725
X0.7408 Y0.8617
X0.7598 Y0.8519
X0.7801 Y0.8434
X0.8015 Y0.8364
X0.8236 Y0.8311
X0.846 Y0.8276
X0.8673 Y0.826
X0.887 Y0.8261
X0.9037 Y0.8276
X0.92 Y0.8303
X0.9339 Y0.8338
X0.9404 Y0.836
X0.9514 Y0.8411
X0.9611 Y0.8483
X0.9691 Y0.8573
X0.9751 Y0.8678
X0.9788 Y0.8793
X0.98 Y0.8913
Y0.9717
G3 X0.9572 Y0.9958 I-0.025 J-0.0009
G1 X0.6722 Y1.0206
G3 X0.645 Y0.9966 I-0.0022 J-0.0249
G1 Y0.9169
X0.6456 Y0.9059
X0.6466 Y0.898
X0.6484 Y0.8895
X0.6512 Y0.8803
X0.655 Y0.8704
X0.6601 Y0.86
X0.6665 Y0.8491
X0.6746 Y0.8376
X0.6839 Y0.8264
X0.6955 Y0.8145
X0.7086 Y0.8031
X0.7235 Y0.792
X0.7408 Y0.7812
X0.7599 Y0.7714
X0.7801 Y0.7629
X0.8015 Y0.7559
X0.8236 Y0.7507
X0.846 Y0.7472
X0.8673 Y0.7456
X0.887 Y0.7457
X0.9037 Y0.7471
X0.92 Y0.7499
X0.9339 Y0.7533
X0.9404 Y0.7556
X0.9514 Y0.7606
X0.9611 Y0.7678
X0.9691 Y0.7768
X0.9751 Y0.7873
X0.9788 Y0.7988
X0.98 Y0.8108
Y0.8913
G3 X0.9573 Y0.9153 I-0.025 J-0.0009
G1 X0.6722 Y0.9409
G3 X0.645 Y0.9169 I-0.0022 J-0.0249
G1 Y0.8323
X0.6453 Y0.8256
X0.6464 Y0.8177
X0.6482 Y0.8092
X0.651 Y0.8
X0.6548 Y0.7901
X0.6599 Y0.7796
X0.6663 Y0.7688
X0.6744 Y0.7572
X0.6837 Y0.7459
X0.6954 Y0.734
X0.7084 Y0.7226
X0.7234 Y0.7115
X0.7407 Y0.7008
X0.7598 Y0.6909
X0.78 Y0.6825
X0.8015 Y0.6755
X0.8235 Y0.6702
X0.846 Y0.6667
X0.8673 Y0.6651
X0.887 Y0.6652
X0.9037 Y0.6666
X0.92 Y0.6694
X0.9338 Y0.6729
X0.9404 Y0.6751
X0.9514 Y0.6801
X0.9611 Y0.6873
X0.9691 Y0.6963
X0.9751 Y0.7068
X0.9788 Y0.7183
X0.98 Y0.7303
Y0.8108
G3 X0.9569 Y0.8349 I-0.025 J-0.0009
G1 X0.6719 Y0.8564
G3 X0.645 Y0.8323 I-0.0019 J-0.0249
G1 Y0.7526
X0.6454 Y0.745
X0.6464 Y0.7371
X0.6482 Y0.7286
X0.651 Y0.7194
X0.6548 Y0.7095
X0.6599 Y0.6991
X0.6663 Y0.6882
X0.6744 Y0.6767
X0.6837 Y0.6654
X0.6954 Y0.6535
X0.7084 Y0.6421
X0.7234 Y0.6311
X0.7407 Y0.6203
X0.7598 Y0.6105
X0.78 Y0.602
X0.8015 Y0.595
X0.8235 Y0.5897
X0.846 Y0.5862
X0.8673 Y0.5846
X0.887 Y0.5847
X0.9037 Y0.5862
X0.92 Y0.5889
X0.9338 Y0.5924
X0.9477 Y0.5971
X0.9505 Y0.5983
X0.956 Y0.601
X0.9612 Y0.6043
X0.966 Y0.6081
X0.9674 Y0.6093
X0.9742 Y0.6158
X0.9762 Y0.6187
X0.9778 Y0.6217
X0.9789 Y0.6247
X0.9795 Y0.6269
X0.9798 Y0.6291
X0.98 Y0.6335
Y0.7303
G3 X0.957 Y0.7544 I-0.025 J-0.0009
G1 X0.6719 Y0.7767
G3 X0.645 Y0.7526 I-0.0019 J-0.0249
G1 Y0.6689
X0.6453 Y0.6629
X0.6465 Y0.6547
X0.6485 Y0.6462
X0.6516 Y0.6366
X0.6557 Y0.6268
X0.6612 Y0.616
X0.6678 Y0.6052
X0.6764 Y0.5935
X0.6861 Y0.5822
X0.6981 Y0.5704
X0.712 Y0.5588
X0.7272 Y0.5479
X0.7448 Y0.5375
X0.7643 Y0.5279
X0.7852 Y0.5196
X0.8068 Y0.513
X0.829 Y0.5082
X0.8513 Y0.5051
X0.8661 Y0.5043
X0.8789 Y0.505
X0.8912 Y0.5085
X0.9025 Y0.5146
X0.9121 Y0.523
X0.9197 Y0.5333
X0.9248 Y0.545
X0.928 Y0.5538
X0.932 Y0.5627
G3 X0.9181 Y0.5954 I-0.0231 J0.0095
G1 X0.6793 Y0.6913
G3 X0.645 Y0.6689 I-0.0093 J-0.0232
G1 Y0.6335
X0.6452 Y0.6291
X0.6455 Y0.6269
X0.6461 Y0.6247
X0.6472 Y0.6217
X0.6488 Y0.6187
X0.6508 Y0.6158
X0.6576 Y0.6093
X0.6603 Y0.607
X0.6665 Y0.6005
X0.6767 Y0.5892
X0.6831 Y0.5804
X0.6884 Y0.5715
X0.693 Y0.5627
X0.697 Y0.5538
X0.7002 Y0.545
X0.7019 Y0.5396
X0.7028 Y0.5361
X0.7044 Y0.5303
X0.7075 Y0.523
X0.7113 Y0.5155
X0.7164 Y0.5073
X0.7226 Y0.4988
X0.7303 Y0.49
X0.7394 Y0.4811
X0.7503 Y0.472
X0.7624 Y0.4635
X0.7757 Y0.4557
X0.7896 Y0.4489
X0.8025 Y0.4439
X0.8156 Y0.4399
X0.8283 Y0.4372
X0.8404 Y0.4356
X0.8529 Y0.4349
X0.8641 Y0.4353
X0.8656 Y0.4354
X0.8774 Y0.438
X0.8885 Y0.443
X0.8983 Y0.4501
X0.9064 Y0.4591
X0.9125 Y0.4696
X0.9163 Y0.4812
X0.9176 Y0.4932
Y0.5007
X0.9178 Y0.5056
G3 X0.898 Y0.5302 I-0.025 J0.0002
G1 X0.7325 Y0.5653
G3 X0.7028 Y0.5361 I-0.0052 J-0.0245
G1 X0.7048 Y0.5273
X0.7063 Y0.5184
X0.707 Y0.5095
X0.7074 Y0.5007
X0.7075 Y0.487
X0.7078 Y0.4803
X0.7086 Y0.4742
X0.7101 Y0.4674
X0.7123 Y0.4601
X0.7153 Y0.4525
X0.7193 Y0.4443
X0.7241 Y0.4362
X0.7302 Y0.4277
X0.7372 Y0.4192
X0.7452 Y0.4111
X0.7543 Y0.4032
X0.7646 Y0.3956
X0.7759 Y0.3887
X0.7871 Y0.3829
X0.7987 Y0.3781
X0.8103 Y0.3744
X0.8215 Y0.3717
X0.8333 Y0.3699
X0.844 Y0.3692
X0.8556 Y0.3693
X0.8661 Y0.3702
X0.869 Y0.3707
X0.8803 Y0.3738
X0.8906 Y0.3791
X0.8998 Y0.3863
X0.9073 Y0.3953
X0.9129 Y0.4055
X0.9163 Y0.4166
X0.9175 Y0.4282
Y0.483
X0.9176 Y0.4932
G3 X0.8916 Y0.5174 I-0.025 J-0.0008
G1 X0.7315 Y0.5112
G3 X0.7075 Y0.487 I0.001 J-0.025
G1 Y0.4653
Y0.421
X0.7079 Y0.4139
X0.7087 Y0.4075
X0.7102 Y0.4007
X0.7124 Y0.3932
X0.7153 Y0.3856
X0.7193 Y0.3775
X0.7241 Y0.3693
X0.7298 Y0.3612
X0.7366 Y0.353
X0.7445 Y0.345
X0.7532 Y0.3373
X0.7629 Y0.3302
X0.7736 Y0.3235
X0.7852 Y0.3175
X0.7965 Y0.3128
X0.8086 Y0.3088
X0.82 Y0.3061
X0.8318 Y0.3043
X0.8431 Y0.3034
X0.8542 Y0.3035
X0.8653 Y0.3045
X0.8688 Y0.305
X0.8801 Y0.3081
X0.8905 Y0.3134
X0.8997 Y0.3206
X0.9072 Y0.3295
X0.9129 Y0.3398
X0.9163 Y0.351
X0.9175 Y0.3626
Y0.4282
G3 X0.8914 Y0.4523 I-0.025 J-0.0009
G1 X0.7314 Y0.4451
G3 X0.7075 Y0.421 I0.0011 J-0.025
G1 Y0.3541
X0.7078 Y0.3474
X0.7087 Y0.341
X0.7101 Y0.3343
X0.7123 Y0.3269
X0.7152 Y0.3195
X0.7191 Y0.3116
X0.7239 Y0.3034
X0.7295 Y0.2953
X0.7362 Y0.2872
X0.7441 Y0.2792
X0.7529 Y0.2716
X0.7625 Y0.2644
X0.7731 Y0.2578
X0.7847 Y0.2518
X0.7961 Y0.2471
X0.8083 Y0.2431
X0.8197 Y0.2404
X0.8315 Y0.2385
X0.8429 Y0.2377
X0.854
X0.8652 Y0.2387
X0.8688 Y0.2393
X0.8801 Y0.2424
X0.8905 Y0.2476
X0.8997 Y0.2549
X0.9072 Y0.2638
X0.9129 Y0.274
X0.9163 Y0.2852
X0.9175 Y0.2968
Y0.3626
G3 X0.8912 Y0.3867 I-0.025 J-0.0009
G1 X0.7312 Y0.3782
G3 X0.7075 Y0.3541 I0.0013 J-0.025
G1 Y0.2882
X0.7078 Y0.2814
X0.7087 Y0.275
X0.7101 Y0.2684
X0.7123 Y0.261
X0.7152 Y0.2536
X0.719 Y0.2457
X0.7238 Y0.2375
X0.7295 Y0.2295
X0.7362 Y0.2214
X0.744 Y0.2134
X0.7528 Y0.2058
X0.7624 Y0.1986
X0.773 Y0.192
X0.7846 Y0.1861
X0.796 Y0.1813
X0.8082 Y0.1773
X0.8196 Y0.1746
X0.8315 Y0.1727
X0.8428 Y0.1719
X0.854
X0.8652 Y0.1729
X0.8688 Y0.1735
X0.8801 Y0.1766
X0.8905 Y0.1819
X0.8997 Y0.1891
X0.9072 Y0.198
X0.9129 Y0.2083
X0.9163 Y0.2194
X0.9175 Y0.231
Y0.2968
G3 X0.8912 Y0.3209 I-0.025 J-0.0009
G1 X0.7311 Y0.3122
G3 X0.7075 Y0.2882 I0.0014 J-0.025
G1 Y0.2213
X0.7078 Y0.2153
X0.7082 Y0.2093
X0.709 Y0.2034
X0.7103 Y0.1975
X0.7119 Y0.1917
X0.714 Y0.1861
X0.7163 Y0.1806
X0.719 Y0.1752
X0.722 Y0.17
X0.7252 Y0.1649
X0.7287 Y0.16
X0.7324 Y0.1553
X0.7363 Y0.1508
X0.7404 Y0.1464
X0.7447 Y0.1422
X0.7492 Y0.1382
X0.7538 Y0.1344
X0.7586 Y0.1308
X0.7635 Y0.1274
X0.7686 Y0.1241
X0.7737 Y0.1211
X0.779 Y0.1183
X0.7844 Y0.1156
X0.7899 Y0.1132
X0.7955 Y0.1109
X0.8011 Y0.1089
X0.8068 Y0.1071
X0.8126 Y0.1055
X0.8185 Y0.1042
X0.8244 Y0.1031
X0.8303 Y0.1022
X0.8363 Y0.1015
X0.8423 Y0.1011
X0.8483 Y0.101
X0.8542 Y0.1011
X0.8602 Y0.1015
X0.8662 Y0.102
X0.8675 Y0.1022
X0.879 Y0.1051
X0.8897 Y0.1103
X0.8991 Y0.1175
X0.9069 Y0.1265
X0.9127 Y0.1368
X0.9163 Y0.1482
X0.9175 Y0.16
Y0.231
G3 X0.891 Y0.2551 I-0.025 J-0.0009
G1 X0.731 Y0.2454
G3 X0.7075 Y0.2213 I0.0015 J-0.025
G1 Y0.1505
X0.7078 Y0.1445
X0.7087 Y0.1381
X0.7102 Y0.1313
X0.7131 Y0.122
X0.7143 Y0.1123
X0.714 Y0.1026
X0.7124 Y0.0947
X0.7109 Y0.0905
X0.709 Y0.0842
X0.7079 Y0.0776
X0.7075 Y0.071
G3 X0.7575 Y0.0728 I0.025 J0.0009
X0.7195 Y0.1555 I-0.118 J-0.0041
X0.7075 Y0.1505 I-0.0049 J-0.0053
G1 Y0.0048
G3 X0.7172 Y-0.0141 I0.025 J0.0009
G1 X0.8772 Y-0.1381
G3 X0.9175 Y-0.1192 I0.0153 J0.0198
G1 Y0.16
X0.917 Y0.1621 Z-0.399
X0.9166 Y0.1641 Z-0.3982
X0.9162 Y0.1659 Z-0.3971
X0.9159 Y0.1674 Z-0.3955
X0.9157 Y0.1686 Z-0.3937
X0.9154 Y0.1692 Z-0.3916
X0.9153 Y0.1695 Z-0.3894
G0 Z0.2
X0.6708 Y2.5357
Z-0.45
G1 Z-0.475 F39.37
X0.6707 Y2.5354 Z-0.4789
X0.6705 Y2.5345 Z-0.4827
X0.6701 Y2.533 Z-0.4863
X0.6696 Y2.531 Z-0.4897
X0.669 Y2.5286 Z-0.4927
X0.6682 Y2.5257 Z-0.4952
X0.6674 Y2.5225 Z-0.4973
X0.6665 Y2.5189 Z-0.4988
X0.6655 Y2.5152 Z-0.4997
X0.6646 Y2.5115 Z-0.5
G3 X0.645 Y2.3754 I0.6183 J-0.1584
G1 Y2.3621
X0.6451 Y2.3606
X0.6489 Y2.3558
X0.6539 Y2.3503
X0.6606 Y2.3441
X0.6693 Y2.3373
X0.6804 Y2.3299
X0.6947 Y2.322
X0.7131 Y2.3137
X0.7376 Y2.3049
X0.7714 Y2.2957
X0.8098 Y2.2886
X0.8485 Y2.2838
X0.8873 Y2.2806
X0.9217 Y2.2786
X0.9345 Y2.2794
X0.9467 Y2.2831
X0.9578 Y2.2895
X0.9671 Y2.2983
X0.9741 Y2.309
X0.9785 Y2.321
X0.98 Y2.3338
G3 X0.9575 Y2.3578 I-0.025 J-0.0009
G1 X0.6725 Y2.3861
G3 X0.645 Y2.3621 I-0.0025 J-0.0249
G1 Y2.3289
X0.6453 Y2.3229
X0.6476 Y2.3164
X0.6509 Y2.3091
X0.6554 Y2.301
X0.6608 Y2.2929
X0.6679 Y2.2837
X0.6769 Y2.274
X0.6873 Y2.2644
X0.7009 Y2.2537
X0.7164 Y2.2435
X0.7364 Y2.2324
X0.7604 Y2.2216
X0.7914 Y2.2105
X0.8251 Y2.2014
X0.8501 Y2.1968
X0.871 Y2.1947
X0.8882 Y2.1943
X0.9051 Y2.1953
X0.9195 Y2.1973
X0.9337 Y2.2004
X0.9389 Y2.202
X0.9502 Y2.2069
X0.9603 Y2.214
X0.9686 Y2.2231
X0.9748 Y2.2338
X0.9787 Y2.2455
X0.98 Y2.2577
G3 X0.9611 Y2.2811 I-0.025 J-0.0009
G1 X0.676 Y2.3523
G3 X0.645 Y2.3289 I-0.0061 J-0.0243
G1 Y2.2758
X0.6453 Y2.2698
X0.6464 Y2.2626
X0.6481 Y2.2552
X0.6508 Y2.2467
X0.6545 Y2.2377
X0.6594 Y2.2282
X0.6659 Y2.2176
X0.6735 Y2.2071
X0.6838 Y2.1952
X0.6953 Y2.1839
X0.7103 Y2.1713
X0.7268 Y2.1596
X0.7459 Y2.1482
X0.7667 Y2.1379
X0.7884 Y2.1293
X0.8108 Y2.1225
X0.8332 Y2.1176
X0.8555 Y2.1145
X0.8753 Y2.1134
X0.8936 Y2.1139
X0.9098 Y2.1156
X0.9248 Y2.1184
X0.9384 Y2.1221
X0.9415 Y2.1232
X0.9522 Y2.1284
X0.9616 Y2.1356
X0.9694 Y2.1446
X0.9752 Y2.1549
X0.9788 Y2.1663
X0.98 Y2.1781
Y2.2577
G3 X0.9566 Y2.2818 I-0.025 J-0.0009
G1 X0.6716 Y2.2998
G3 X0.645 Y2.2758 I-0.0016 J-0.025
G1 Y2.2009
X0.6453 Y2.1949
X0.6463 Y2.1874
X0.6482 Y2.1786
X0.6509 Y2.1696
X0.6549 Y2.1594
X0.6599 Y2.1492
X0.6667 Y2.1377
X0.6746 Y2.1266
X0.6846 Y2.1146
X0.6962 Y2.1027
X0.7096 Y2.0911
X0.7255 Y2.0794
X0.743 Y2.0686
X0.762 Y2.0588
X0.7825 Y2.0503
X0.8042 Y2.0433
X0.8263 Y2.0381
X0.8486 Y2.0346
X0.8698 Y2.0331
X0.8888 Y2.0333
X0.9053 Y2.0347
X0.9212 Y2.0374
X0.9349 Y2.0409
X0.9406 Y2.0429
X0.9515 Y2.0479
X0.9611 Y2.0551
X0.9691 Y2.0641
X0.9751 Y2.0746
X0.9788 Y2.0861
X0.98 Y2.0981
Y2.1781
G3 X0.957 Y2.2022 I-0.025 J-0.0009
G1 X0.672 Y2.225
G3 X0.645 Y2.2009 I-0.002 J-0.0249
G1 Y2.1212
X0.6453 Y2.1144
X0.6464 Y2.1066
X0.6482 Y2.0978
X0.651 Y2.0886
X0.6549 Y2.0785
X0.66 Y2.0681
X0.6665 Y2.057
X0.6746 Y2.0455
X0.6841 Y2.034
X0.6959 Y2.0219
X0.709 Y2.0105
X0.7242 Y1.9993
X0.7417 Y1.9884
X0.7608 Y1.9785
X0.7811 Y1.9701
X0.8026 Y1.963
X0.8246 Y1.9577
X0.847 Y1.9543
X0.8681 Y1.9527
X0.8876 Y1.9528
X0.9042 Y1.9542
X0.9203 Y1.9569
X0.9341 Y1.9604
X0.9404 Y1.9625
X0.9514 Y1.9676
X0.9611 Y1.9748
X0.9691 Y1.9838
X0.9751 Y1.9943
X0.9788 Y2.0058
X0.98 Y2.0178
Y2.0981
G3 X0.957 Y2.1221 I-0.025 J-0.0009
G1 X0.672 Y2.1453
G3 X0.645 Y2.1212 I-0.002 J-0.0249
G1 Y2.0415
X0.6454 Y2.0333
X0.6464 Y2.0254
X0.6483 Y2.0168
X0.651 Y2.0076
X0.6549 Y1.9976
X0.66 Y1.9872
X0.6665 Y1.9762
X0.6746 Y1.9646
X0.684 Y1.9533
X0.6957 Y1.9413
X0.7088 Y1.9299
X0.7239 Y1.9187
X0.7413 Y1.9079
X0.7603 Y1.8981
X0.7806 Y1.8896
X0.8021 Y1.8826
X0.8241 Y1.8773
X0.8465 Y1.8738
X0.8677 Y1.8722
X0.8873 Y1.8723
X0.9039 Y1.8738
X0.9202 Y1.8765
X0.934 Y1.88
X0.9404 Y1.8822
X0.9514 Y1.8872
X0.9611 Y1.8944
X0.9691 Y1.9034
X0.9751 Y1.9139
X0.9788 Y1.9254
X0.98 Y1.9374
Y2.0178
G3 X0.9571 Y2.0418 I-0.025 J-0.0009
G1 X0.6721 Y2.0656
G3 X0.645 Y2.0415 I-0.0021 J-0.0249
G1 Y1.9618
X0.6455 Y1.9525
X0.6465 Y1.9446
X0.6483 Y1.936
X0.6511 Y1.9268
X0.655 Y1.9169
X0.66 Y1.9064
X0.6665 Y1.8955
X0.6746 Y1.884
X0.6839 Y1.8727
X0.6956 Y1.8607
X0.7087 Y1.8493
X0.7237 Y1.8382
X0.741 Y1.8274
X0.7601 Y1.8176
X0.7804 Y1.8091
X0.8018 Y1.8021
X0.8238 Y1.7968
X0.8462 Y1.7933
X0.8675 Y1.7918
X0.8871 Y1.7919
X0.9038 Y1.7933
X0.9201 Y1.796
X0.9339 Y1.7995
X0.9404 Y1.8017
X0.9514 Y1.8068
X0.9611 Y1.814
X0.9691 Y1.823
X0.9751 Y1.8335
X0.9788 Y1.845
X0.98 Y1.857
Y1.9374
G3 X0.9572 Y1.9614 I-0.025 J-0.0009
G1 X0.6721 Y1.9859
G3 X0.645 Y1.9618 I-0.0021 J-0.0249
G1 Y1.8821
X0.6455 Y1.8718
X0.6465 Y1.8639
X0.6484 Y1.8554
X0.6511 Y1.8462
X0.655 Y1.8363
X0.6601 Y1.8258
X0.6665 Y1.815
X0.6746 Y1.8034
X0.6839 Y1.7921
X0.6956 Y1.7802
X0.7086 Y1.7688
X0.7236 Y1.7577
X0.7409 Y1.747
X0.76 Y1.7371
X0.7802 Y1.7287
X0.8017 Y1.7217
X0.8237 Y1.7164
X0.8461 Y1.7129
X0.8674 Y1.7113
X0.887 Y1.7114
X0.9038 Y1.7128
X0.9201 Y1.7156
X0.9339 Y1.7191
X0.9404 Y1.7213
X0.9514 Y1.7263
X0.9611 Y1.7335
X0.9691 Y1.7425
X0.9751 Y1.753
X0.9788 Y1.7645
X0.98 Y1.7765
Y1.857
G3 X0.9572 Y1.881 I-0.025 J-0.0009
G1 X0.6722 Y1.9062
G3 X0.645 Y1.8821 I-0.0022 J-0.0249
G1 Y1.8024
X0.6456 Y1.7912
X0.6466 Y1.7834
X0.6484 Y1.7748
X0.6512 Y1.7656
X0.655 Y1.7558
X0.6601 Y1.7453
X0.6665 Y1.7344
X0.6746 Y1.7229
X0.6839 Y1.7116
X0.6956 Y1.6997
X0.7086 Y1.6883
X0.7236 Y1.6773
X0.7409 Y1.6665
X0.7599 Y1.6567
X0.7802 Y1.6482
X0.8016 Y1.6412
X0.8237 Y1.6359
X0.8461 Y1.6324
X0.8674 Y1.6308
X0.887 Y1.6309
X0.9037 Y1.6324
X0.92 Y1.6351
X0.9339 Y1.6386
X0.9404 Y1.6408
X0.9514 Y1.6459
X0.9611 Y1.653
X0.9691 Y1.6621
X0.9751 Y1.6726
X0.9788 Y1.6841
X0.98 Y1.6961
Y1.7765
G3 X0.9573 Y1.8005 I-0.025 J-0.0009
G1 X0.6722 Y1.8265
G3 X0.645 Y1.8024 I-0.0023 J-0.0249
G1 Y1.7179
X0.6453 Y1.7109
X0.6464 Y1.703
X0.6482 Y1.6945
X0.651 Y1.6853
X0.6548 Y1.6754
X0.6599 Y1.6649
X0.6663 Y1.654
X0.6744 Y1.6425
X0.6838 Y1.6312
X0.6954 Y1.6193
X0.7085 Y1.6079
X0.7234 Y1.5968
X0.7408 Y1.586
X0.7598 Y1.5762
X0.7801 Y1.5677
X0.8015 Y1.5607
X0.8236 Y1.5554
X0.846 Y1.5519
X0.8673 Y1.5503
X0.887 Y1.5505
X0.9037 Y1.5519
X0.92 Y1.5546
X0.9339 Y1.5581
X0.9404 Y1.5604
X0.9514 Y1.5654
X0.9611 Y1.5726
X0.9691 Y1.5816
X0.9751 Y1.5921
X0.9788 Y1.6036
X0.98 Y1.6156
Y1.6961
G3 X0.9569 Y1.7201 I-0.025 J-0.0009
G1 X0.6719 Y1.7419
G3 X0.645 Y1.7179 I-0.0019 J-0.0249
G1 Y1.6382
X0.6454 Y1.6303
X0.6464 Y1.6224
X0.6482 Y1.6139
X0.651 Y1.6047
X0.6549 Y1.5948
X0.6599 Y1.5844
X0.6663 Y1.5735
X0.6744 Y1.562
X0.6838 Y1.5507
X0.6954 Y1.5388
X0.7085 Y1.5274
X0.7234 Y1.5163
X0.7407 Y1.5056
X0.7598 Y1.4957
X0.7801 Y1.4873
X0.8015 Y1.4803
X0.8236 Y1.475
X0.846 Y1.4715
X0.8673 Y1.4699
X0.887 Y1.47
X0.9037 Y1.4714
X0.92 Y1.4742
X0.9338 Y1.4777
X0.9404 Y1.4799
X0.9514 Y1.4849
X0.9611 Y1.4921
X0.9691 Y1.5011
X0.9751 Y1.5116
X0.9788 Y1.5231
X0.98 Y1.5351
Y1.6156
G3 X0.957 Y1.6396 I-0.025 J-0.0009
G1 X0.672 Y1.6622
G3 X0.645 Y1.6382 I-0.002 J-0.0249
G1 Y1.5545
X0.6453 Y1.5485
X0.6465 Y1.5403
X0.6485 Y1.5318
X0.6515 Y1.5223
X0.6555 Y1.5124
X0.661 Y1.5016
X0.6676 Y1.4909
X0.6761 Y1.4792
X0.6858 Y1.4679
X0.6976 Y1.4561
X0.7114 Y1.4445
X0.7266 Y1.4336
X0.7442 Y1.4231
X0.7636 Y1.4135
X0.7844 Y1.4052
X0.8061 Y1.3985
X0.8282 Y1.3936
X0.8505 Y1.3905
X0.8711 Y1.3893
X0.8907 Y1.3897
X0.907 Y1.3914
X0.923 Y1.3943
X0.9367 Y1.398
X0.9413 Y1.3997
X0.9521 Y1.4048
X0.9615 Y1.412
X0.9694 Y1.421
X0.9752 Y1.4314
X0.9788 Y1.4428
X0.98 Y1.4546
Y1.5351
G3 X0.9567 Y1.5592 I-0.025 J-0.0009
G1 X0.6717 Y1.5786
G3 X0.645 Y1.5545 I-0.0017 J-0.0249
G1 Y1.4748
X0.6453 Y1.4688
X0.6463 Y1.4611
X0.6483 Y1.4523
X0.651 Y1.4433
X0.655 Y1.4332
X0.66 Y1.423
X0.6666 Y1.4118
X0.6746 Y1.4006
X0.6842 Y1.3891
X0.696 Y1.3772
X0.709 Y1.3659
X0.7243 Y1.3547
X0.7418 Y1.3439
X0.7606 Y1.3343
X0.7808 Y1.326
X0.8024 Y1.319
X0.8246 Y1.3138
X0.847 Y1.3104
X0.8686 Y1.3089
X0.888 Y1.3091
X0.9047 Y1.3106
X0.9208 Y1.3134
X0.9346 Y1.3169
X0.9406 Y1.319
X0.9516 Y1.324
X0.9612 Y1.3312
X0.9692 Y1.3403
X0.9751 Y1.3507
X0.9788 Y1.3622
X0.98 Y1.3741
Y1.4546
G3 X0.9568 Y1.4787 I-0.025 J-0.0009
G1 X0.6718 Y1.4988
G3 X0.645 Y1.4748 I-0.0018 J-0.0249
G1 Y1.3951
X0.6453 Y1.3888
X0.6463 Y1.381
X0.6482 Y1.3724
X0.6509 Y1.3632
X0.6548 Y1.3533
X0.6598 Y1.3429
X0.6663 Y1.332
X0.6743 Y1.3206
X0.6837 Y1.3093
X0.6953 Y1.2973
X0.7083 Y1.286
X0.7233 Y1.2749
X0.7407 Y1.2641
X0.7596 Y1.2543
X0.7799 Y1.2459
X0.8013 Y1.2388
X0.8234 Y1.2335
X0.8459 Y1.23
X0.8674 Y1.2284
X0.887 Y1.2285
X0.9037 Y1.23
X0.92 Y1.2327
X0.9339 Y1.2362
X0.9404 Y1.2384
X0.9514 Y1.2435
X0.9611 Y1.2507
X0.9691 Y1.2597
X0.9751 Y1.2702
X0.9788 Y1.2817
X0.98 Y1.2937
Y1.3741
G3 X0.9568 Y1.3982 I-0.025 J-0.0009
G1 X0.6718 Y1.4191
G3 X0.645 Y1.3951 I-0.0018 J-0.0249
G1 Y1.3154
X0.6454 Y1.3083
X0.6464 Y1.3004
X0.6482 Y1.2919
X0.651 Y1.2827
X0.6548 Y1.2729
X0.6599 Y1.2624
X0.6663 Y1.2516
X0.6744 Y1.24
X0.6837 Y1.2288
X0.6953 Y1.2169
X0.7084 Y1.2055
X0.7233 Y1.1944
X0.7407 Y1.1836
X0.7597 Y1.1738
X0.78 Y1.1653
X0.8014 Y1.1583
X0.8235 Y1.153
X0.846 Y1.1495
X0.8673 Y1.1479
X0.887 Y1.148
X0.9037 Y1.1495
X0.92 Y1.1522
X0.9338 Y1.1557
X0.9404 Y1.1579
X0.9514 Y1.163
X0.9611 Y1.1702
X0.9691 Y1.1792
X0.9751 Y1.1897
X0.9788 Y1.2012
X0.98 Y1.2132
Y1.2937
G3 X0.9569 Y1.3177 I-0.025 J-0.0009
G1 X0.6719 Y1.3394
G3 X0.645 Y1.3154 I-0.0019 J-0.0249
G1 Y1.2357
X0.6454 Y1.2278
X0.6464 Y1.22
X0.6482 Y1.2114
X0.651 Y1.2022
X0.6548 Y1.1924
X0.6599 Y1.1819
X0.6663 Y1.1711
X0.6744 Y1.1596
X0.6837 Y1.1483
X0.6954 Y1.1364
X0.7084 Y1.125
X0.7234 Y1.1139
X0.7407 Y1.1031
X0.7598 Y1.0933
X0.78 Y1.0848
X0.8014 Y1.0778
X0.8235 Y1.0726
X0.846 Y1.069
X0.8673 Y1.0675
X0.887 Y1.0676
X0.9037 Y1.069
X0.92 Y1.0717
X0.9338 Y1.0752
X0.9404 Y1.0775
X0.9514 Y1.0825
X0.9611 Y1.0897
X0.9691 Y1.0987
X0.9751 Y1.1092
X0.9788 Y1.1207
X0.98 Y1.1327
Y1.2132
G3 X0.957 Y1.2372 I-0.025 J-0.0009
G1 X0.672 Y1.2597
G3 X0.645 Y1.2357 I-0.002 J-0.0249
G1 Y1.156
X0.6454 Y1.1473
X0.6465 Y1.1395
X0.6483 Y1.131
X0.651 Y1.1217
X0.6549 Y1.1119
X0.66 Y1.1014
X0.6663 Y1.0906
X0.6744 Y1.0791
X0.6838 Y1.0678
X0.6954 Y1.0559
X0.7085 Y1.0445
X0.7234 Y1.0334
X0.7407 Y1.0227
X0.7598 Y1.0128
X0.78 Y1.0044
X0.8015 Y0.9974
X0.8235 Y0.9921
X0.846 Y0.9886
X0.8673 Y0.987
X0.887 Y0.9871
X0.9037 Y0.9885
X0.92 Y0.9913
X0.9338 Y0.9948
X0.9404 Y0.997
X0.9514 Y1.002
X0.9611 Y1.0092
X0.9691 Y1.0182
X0.9751 Y1.0287
X0.9788 Y1.0402
X0.98 Y1.0522
Y1.1327
G3 X0.9571 Y1.1567 I-0.025 J-0.0009
G1 X0.672 Y1.18
G3 X0.645 Y1.156 I-0.002 J-0.0249
G1 Y1.0763
X0.6455 Y1.0669
X0.6465 Y1.059
X0.6483 Y1.0505
X0.6511 Y1.0413
X0.6549 Y1.0314
X0.66 Y1.0209
X0.6664 Y1.0101
X0.6745 Y0.9986
X0.6838 Y0.9873
X0.6954 Y0.9754
X0.7085 Y0.964
X0.7235 Y0.9529
X0.7408 Y0.9422
X0.7598 Y0.9323
X0.7801 Y0.9239
X0.8015 Y0.9169
X0.8235 Y0.9116
X0.846 Y0.9081
X0.8673 Y0.9065
X0.887 Y0.9066
X0.9037 Y0.9081
X0.92 Y0.9108
X0.9338 Y0.9143
X0.9404 Y0.9165
X0.9514 Y0.9215
X0.9611 Y0.9287
X0.9691 Y0.9378
X0.9751 Y0.9483
X0.9788 Y0.9597
X0.98 Y0.9717
Y1.0522
G3 X0.9571 Y1.0763 I-0.025 J-0.0009
G1 X0.6721 Y1.1003
G3 X0.645 Y1.0763 I-0.0021 J-0.0249
G1 Y0.9966
X0.6455 Y0.9864
X0.6465 Y0.9785
X0.6484 Y0.97
X0.6511 Y0.9608
X0.655 Y0.9509
X0.66 Y0.9405
X0.6664 Y0.9296
X0.6745 Y0.9181
X0.6839 Y0.9068
X0.6955 Y0.8949
X0.7085 Y0.8835
X0.7235 Y0.8725
X0.7408 Y0.8617
X0.7598 Y0.8519
X0.7801 Y0.8434
X0.8015 Y0.8364
X0.8236 Y0.8311
X0.846 Y0.8276
X0.8673 Y0.826
X0.887 Y0.8261
X0.9037 Y0.8276
X0.92 Y0.8303
X0.9339 Y0.8338
X0.9404 Y0.836
X0.9514 Y0.8411
X0.9611 Y0.8483
X0.9691 Y0.8573
X0.9751 Y0.8678
X0.9788 Y0.8793
X0.98 Y0.8913
Y0.9717
G3 X0.9572 Y0.9958 I-0.025 J-0.0009
G1 X0.6722 Y1.0206
G3 X0.645 Y0.9966 I-0.0022 J-0.0249
G1 Y0.9169
X0.6456 Y0.9059
X0.6466 Y0.898
X0.6484 Y0.8895
X0.6512 Y0.8803
X0.655 Y0.8704
X0.6601 Y0.86
X0.6665 Y0.8491
X0.6746 Y0.8376
X0.6839 Y0.8264
X0.6955 Y0.8145
X0.7086 Y0.8031
X0.7235 Y0.792
X0.7408 Y0.7812
X0.7599 Y0.7714
X0.7801 Y0.7629
X0.8015 Y0.7559
X0.8236 Y0.7507
X0.846 Y0.7472
X0.8673 Y0.7456
X0.887 Y0.7457
X0.9037 Y0.7471
X0.92 Y0.7499
X0.9339 Y0.7533
X0.9404 Y0.7556
X0.9514 Y0.7606
X0.9611 Y0.7678
X0.9691 Y0.7768
X0.9751 Y0.7873
X0.9788 Y0.7988
X0.98 Y0.8108
Y0.8913
G3 X0.9573 Y0.9153 I-0.025 J-0.0009
G1 X0.6722 Y0.9409
G3 X0.645 Y0.9169 I-0.0022 J-0.0249
G1 Y0.8323
X0.6453 Y0.8256
X0.6464 Y0.8177
X0.6482 Y0.8092
X0.651 Y0.8
X0.6548 Y0.7901
X0.6599 Y0.7796
X0.6663 Y0.7688
X0.6744 Y0.7572
X0.6837 Y0.7459
X0.6954 Y0.734
X0.7084 Y0.7226
X0.7234 Y0.7115
X0.7407 Y0.7008
X0.7598 Y0.6909
X0.78 Y0.6825
X0.8015 Y0.6755
X0.8235 Y0.6702
X0.846 Y0.6667
X0.8673 Y0.6651
X0.887 Y0.6652
X0.9037 Y0.6666
X0.92 Y0.6694
X0.9338 Y0.6729
X0.9404 Y0.6751
X0.9514 Y0.6801
X0.9611 Y0.6873
X0.9691 Y0.6963
X0.9751 Y0.7068
X0.9788 Y0.7183
X0.98 Y0.7303
Y0.8108
G3 X0.9569 Y0.8349 I-0.025 J-0.0009
G1 X0.6719 Y0.8564
G3 X0.645 Y0.8323 I-0.0019 J-0.0249
G1 Y0.7526
X0.6454 Y0.745
X0.6464 Y0.7371
X0.6482 Y0.7286
X0.651 Y0.7194
X0.6548 Y0.7095
X0.6599 Y0.6991
X0.6663 Y0.6882
X0.6744 Y0.6767
X0.6837 Y0.6654
X0.6954 Y0.6535
X0.7084 Y0.6421
X0.7234 Y0.6311
X0.7407 Y0.6203
X0.7598 Y0.6105
X0.78 Y0.602
X0.8015 Y0.595
X0.8235 Y0.5897
X0.846 Y0.5862
X0.8673 Y0.5846
X0.887 Y0.5847
X0.9037 Y0.5862
X0.92 Y0.5889
X0.9338 Y0.5924
X0.9477 Y0.5971
X0.9505 Y0.5983
X0.956 Y0.601
X0.9612 Y0.6043
X0.966 Y0.6081
X0.9674 Y0.6093
X0.9742 Y0.6158
X0.9762 Y0.6187
X0.9778 Y0.6217
X0.9789 Y0.6247
X0.9795 Y0.6269
X0.9798 Y0.6291
X0.98 Y0.6335
Y0.7303
G3 X0.957 Y0.7544 I-0.025 J-0.0009
G1 X0.6719 Y0.7767
G3 X0.645 Y0.7526 I-0.0019 J-0.0249
G1 Y0.6689
X0.6453 Y0.6629
X0.6465 Y0.6547
X0.6485 Y0.6462
X0.6516 Y0.6366
X0.6557 Y0.6268
X0.6612 Y0.616
X0.6678 Y0.6052
X0.6764 Y0.5935
X0.6861 Y0.5822
X0.6981 Y0.5704
X0.712 Y0.5588
X0.7272 Y0.5479
X0.7448 Y0.5375
X0.7643 Y0.5279
X0.7852 Y0.5196
X0.8068 Y0.513
X0.829 Y0.5082
X0.8513 Y0.5051
X0.8661 Y0.5043
X0.8789 Y0.505
X0.8912 Y0.5085
X0.9025 Y0.5146
X0.9121 Y0.523
X0.9197 Y0.5333
X0.9248 Y0.545
X0.928 Y0.5538
X0.932 Y0.5627
G3 X0.9181 Y0.5954 I-0.0231 J0.0095
G1 X0.6793 Y0.6913
G3 X0.645 Y0.6689 I-0.0093 J-0.0232
G1 Y0.6335
X0.6452 Y0.6291
X0.6455 Y0.6269
X0.6461 Y0.6247
X0.6472 Y0.6217
X0.6488 Y0.6187
X0.6508 Y0.6158
X0.6576 Y0.6093
X0.6603 Y0.607
X0.6665 Y0.6005
X0.6767 Y0.5892
X0.6831 Y0.5804
X0.6884 Y0.5715
X0.693 Y0.5627
X0.697 Y0.5538
X0.7002 Y0.545
X0.7019 Y0.5396
X0.7028 Y0.5361
X0.7044 Y0.5303
X0.7075 Y0.523
X0.7113 Y0.5155
X0.7164 Y0.5073
X0.7226 Y0.4988
X0.7303 Y0.49
X0.7394 Y0.4811
X0.7503 Y0.472
X0.7624 Y0.4635
X0.7757 Y0.4557
X0.7896 Y0.4489
X0.8025 Y0.4439
X0.8156 Y0.4399
X0.8283 Y0.4372
X0.8404 Y0.4356
X0.8529 Y0.4349
X0.8641 Y0.4353
X0.8656 Y0.4354
X0.8774 Y0.438
X0.8885 Y0.443
X0.8983 Y0.4501
X0.9064 Y0.4591
X0.9125 Y0.4696
X0.9163 Y0.4812
X0.9176 Y0.4932
Y0.5007
X0.9178 Y0.5056
G3 X0.898 Y0.5302 I-0.025 J0.0002
G1 X0.7325 Y0.5653
G3 X0.7028 Y0.5361 I-0.0052 J-0.0245
G1 X0.7048 Y0.5273
X0.7063 Y0.5184
X0.707 Y0.5095
X0.7074 Y0.5007
X0.7075 Y0.487
X0.7078 Y0.4803
X0.7086 Y0.4742
X0.7101 Y0.4674
X0.7123 Y0.4601
X0.7153 Y0.4525
X0.7193 Y0.4443
X0.7241 Y0.4362
X0.7302 Y0.4277
X0.7372 Y0.4192
X0.7452 Y0.4111
X0.7543 Y0.4032
X0.7646 Y0.3956
X0.7759 Y0.3887
X0.7871 Y0.3829
X0.7987 Y0.3781
X0.8103 Y0.3744
X0.8215 Y0.3717
X0.8333 Y0.3699
X0.844 Y0.3692
X0.8556 Y0.3693
X0.8661 Y0.3702
X0.869 Y0.3707
X0.8803 Y0.3738
X0.8906 Y0.3791
X0.8998 Y0.3863
X0.9073 Y0.3953
X0.9129 Y0.4055
X0.9163 Y0.4166
X0.9175 Y0.4282
Y0.483
X0.9176 Y0.4932
G3 X0.8916 Y0.5174 I-0.025 J-0.0008
G1 X0.7315 Y0.5112
G3 X0.7075 Y0.487 I0.001 J-0.025
G1 Y0.4653
Y0.421
X0.7079 Y0.4139
X0.7087 Y0.4075
X0.7102 Y0.4007
X0.7124 Y0.3932
X0.7153 Y0.3856
X0.7193 Y0.3775
X0.7241 Y0.3693
X0.7298 Y0.3612
X0.7366 Y0.353
X0.7445 Y0.345
X0.7532 Y0.3373
X0.7629 Y0.3302
X0.7736 Y0.3235
X0.7852 Y0.3175
X0.7965 Y0.3128
X0.8086 Y0.3088
X0.82 Y0.3061
X0.8318 Y0.3043
X0.8431 Y0.3034
X0.8542 Y0.3035
X0.8653 Y0.3045
X0.8688 Y0.305
X0.8801 Y0.3081
X0.8905 Y0.3134
X0.8997 Y0.3206
X0.9072 Y0.3295
X0.9129 Y0.3398
X0.9163 Y0.351
X0.9175 Y0.3626
Y0.4282
G3 X0.8914 Y0.4523 I-0.025 J-0.0009
G1 X0.7314 Y0.4451
G3 X0.7075 Y0.421 I0.0011 J-0.025
G1 Y0.3541
X0.7078 Y0.3474
X0.7087 Y0.341
X0.7101 Y0.3343
X0.7123 Y0.3269
X0.7152 Y0.3195
X0.7191 Y0.3116
X0.7239 Y0.3034
X0.7295 Y0.2953
X0.7362 Y0.2872
X0.7441 Y0.2792
X0.7529 Y0.2716
X0.7625 Y0.2644
X0.7731 Y0.2578
X0.7847 Y0.2518
X0.7961 Y0.2471
X0.8083 Y0.2431
X0.8197 Y0.2404
X0.8315 Y0.2385
X0.8429 Y0.2377
X0.854
X0.8652 Y0.2387
X0.8688 Y0.2393
X0.8801 Y0.2424
X0.8905 Y0.2476
X0.8997 Y0.2549
X0.9072 Y0.2638
X0.9129 Y0.274
X0.9163 Y0.2852
X0.9175 Y0.2968
Y0.3626
G3 X0.8912 Y0.3867 I-0.025 J-0.0009
G1 X0.7312 Y0.3782
G3 X0.7075 Y0.3541 I0.0013 J-0.025
G1 Y0.2882
X0.7078 Y0.2814
X0.7087 Y0.275
X0.7101 Y0.2684
X0.7123 Y0.261
X0.7152 Y0.2536
X0.719 Y0.2457
X0.7238 Y0.2375
X0.7295 Y0.2295
X0.7362 Y0.2214
X0.744 Y0.2134
X0.7528 Y0.2058
X0.7624 Y0.1986
X0.773 Y0.192
X0.7846 Y0.1861
X0.796 Y0.1813
X0.8082 Y0.1773
X0.8196 Y0.1746
X0.8315 Y0.1727
X0.8428 Y0.1719
X0.854
X0.8652 Y0.1729
X0.8688 Y0.1735
X0.8801 Y0.1766
X0.8905 Y0.1819
X0.8997 Y0.1891
X0.9072 Y0.198
X0.9129 Y0.2083
X0.9163 Y0.2194
X0.9175 Y0.231
Y0.2968
G3 X0.8912 Y0.3209 I-0.025 J-0.0009
G1 X0.7311 Y0.3122
G3 X0.7075 Y0.2882 I0.0014 J-0.025
G1 Y0.2213
X0.7078 Y0.2153
X0.7082 Y0.2093
X0.709 Y0.2034
X0.7103 Y0.1975
X0.7119 Y0.1917
X0.714 Y0.1861
X0.7163 Y0.1806
X0.719 Y0.1752
X0.722 Y0.17
X0.7252 Y0.1649
X0.7287 Y0.16
X0.7324 Y0.1553
X0.7363 Y0.1508
X0.7404 Y0.1464
X0.7447 Y0.1422
X0.7492 Y0.1382
X0.7538 Y0.1344
X0.7586 Y0.1308
X0.7635 Y0.1274
X0.7686 Y0.1241
X0.7737 Y0.1211
X0.779 Y0.1183
X0.7844 Y0.1156
X0.7899 Y0.1132
X0.7955 Y0.1109
X0.8011 Y0.1089
X0.8068 Y0.1071
X0.8126 Y0.1055
X0.8185 Y0.1042
X0.8244 Y0.1031
X0.8303 Y0.1022
X0.8363 Y0.1015
X0.8423 Y0.1011
X0.8483 Y0.101
X0.8542 Y0.1011
X0.8602 Y0.1015
X0.8662 Y0.102
X0.8675 Y0.1022
X0.879 Y0.1051
X0.8897 Y0.1103
X0.8991 Y0.1175
X0.9069 Y0.1265
X0.9127 Y0.1368
X0.9163 Y0.1482
X0.9175 Y0.16
Y0.231
G3 X0.891 Y0.2551 I-0.025 J-0.0009
G1 X0.731 Y0.2454
G3 X0.7075 Y0.2213 I0.0015 J-0.025
G1 Y0.1505
X0.7078 Y0.1445
X0.7087 Y0.1381
X0.7102 Y0.1313
X0.7131 Y0.122
X0.7143 Y0.1123
X0.714 Y0.1026
X0.7124 Y0.0947
X0.7109 Y0.0905
X0.709 Y0.0842
X0.7079 Y0.0776
X0.7075 Y0.071
G3 X0.7575 Y0.0728 I0.025 J0.0009
X0.7195 Y0.1555 I-0.118 J-0.0041
X0.7075 Y0.1505 I-0.0049 J-0.0053
G1 Y0.0048
G3 X0.7172 Y-0.0141 I0.025 J0.0009
G1 X0.8772 Y-0.1381
G3 X0.9175 Y-0.1192 I0.0153 J0.0198
G1 Y0.16
G3 X0.9153 Y0.1695 I-0.025 J-0.0009
G1 X0.9136 Y0.173 Z-0.4997
X0.9121 Y0.1765 Z-0.4988
X0.9106 Y0.1798 Z-0.4973
X0.9092 Y0.1828 Z-0.4952
X0.9079 Y0.1856 Z-0.4927
X0.9069 Y0.1879 Z-0.4897
X0.906 Y0.1897 Z-0.4863
X0.9054 Y0.1911 Z-0.4827
X0.905 Y0.1919 Z-0.4789
X0.9049 Y0.1922 Z-0.475
G0 Z0.6
X1.5458 Y2.5357
Z0.2
Z-0.1496
G1 Z-0.1746 F39.37
X1.5457 Y2.5354 Z-0.1785
X1.5455 Y2.5345 Z-0.1823
X1.5451 Y2.533 Z-0.186
X1.5446 Y2.531 Z-0.1893
X1.544 Y2.5286 Z-0.1923
X1.5432 Y2.5257 Z-0.1948
X1.5424 Y2.5225 Z-0.1969
X1.5415 Y2.5189 Z-0.1984
X1.5405 Y2.5152 Z-0.1993
X1.5396 Y2.5115 Z-0.1996
G3 X1.52 Y2.3754 I0.6183 J-0.1584
G1 Y2.3621
X1.5201 Y2.3606
X1.5239 Y2.3558
X1.5289 Y2.3503
X1.5356 Y2.3441
X1.5443 Y2.3373
X1.5554 Y2.3299
X1.5697 Y2.322
X1.5881 Y2.3137
X1.6126 Y2.3049
X1.6464 Y2.2957
X1.6848 Y2.2886
X1.7235 Y2.2838
X1.7623 Y2.2806
X1.7967 Y2.2786
X1.8095 Y2.2794
X1.8217 Y2.2831
X1.8328 Y2.2895
X1.8421 Y2.2983
X1.8491 Y2.309
X1.8535 Y2.321
X1.855 Y2.3338
G3 X1.8325 Y2.3578 I-0.025 J-0.0009
G1 X1.5475 Y2.3861
G3 X1.52 Y2.3621 I-0.0025 J-0.0249
G1 Y2.3289
X1.5203 Y2.3229
X1.5226 Y2.3164
X1.5259 Y2.3091
X1.5304 Y2.301
X1.5358 Y2.2929
X1.5429 Y2.2837
X1.5519 Y2.274
X1.5623 Y2.2644
X1.5759 Y2.2537
X1.5914 Y2.2435
X1.6114 Y2.2324
X1.6354 Y2.2216
X1.6664 Y2.2105
X1.7001 Y2.2014
X1.7251 Y2.1968
X1.746 Y2.1947
X1.7632 Y2.1943
X1.7801 Y2.1953
X1.7945 Y2.1973
X1.8087 Y2.2004
X1.8139 Y2.202
X1.8252 Y2.2069
X1.8353 Y2.214
X1.8436 Y2.2231
X1.8498 Y2.2338
X1.8537 Y2.2455
X1.855 Y2.2577
G3 X1.8361 Y2.2811 I-0.025 J-0.0009
G1 X1.551 Y2.3523
G3 X1.52 Y2.3289 I-0.0061 J-0.0243
G1 Y2.2758
X1.5203 Y2.2698
X1.5214 Y2.2626
X1.5231 Y2.2552
X1.5258 Y2.2467
X1.5295 Y2.2377
X1.5344 Y2.2282
X1.5409 Y2.2176
X1.5485 Y2.2071
X1.5588 Y2.1952
X1.5703 Y2.1839
X1.5853 Y2.1713
X1.6018 Y2.1596
X1.6209 Y2.1482
X1.6417 Y2.1379
X1.6634 Y2.1293
X1.6858 Y2.1225
X1.7082 Y2.1176
X1.7305 Y2.1145
X1.7503 Y2.1134
X1.7686 Y2.1139
X1.7848 Y2.1156
X1.7998 Y2.1184
X1.8134 Y2.1221
X1.8165 Y2.1232
X1.8272 Y2.1284
X1.8366 Y2.1356
X1.8444 Y2.1446
X1.8502 Y2.1549
X1.8538 Y2.1663
X1.855 Y2.1781
Y2.2577
G3 X1.8316 Y2.2818 I-0.025 J-0.0009
G1 X1.5466 Y2.2998
G3 X1.52 Y2.2758 I-0.0016 J-0.025
G1 Y2.2009
X1.5203 Y2.1949
X1.5213 Y2.1874
X1.5232 Y2.1786
X1.5259 Y2.1696
X1.5299 Y2.1594
X1.5349 Y2.1492
X1.5417 Y2.1377
X1.5496 Y2.1266
X1.5596 Y2.1146
X1.5712 Y2.1027
X1.5846 Y2.0911
X1.6005 Y2.0794
X1.618 Y2.0686
X1.637 Y2.0588
X1.6575 Y2.0503
X1.6792 Y2.0433
X1.7013 Y2.0381
X1.7236 Y2.0346
X1.7448 Y2.0331
X1.7638 Y2.0333
X1.7803 Y2.0347
X1.7962 Y2.0374
X1.8099 Y2.0409
X1.8156 Y2.0429
X1.8265 Y2.0479
X1.8361 Y2.0551
X1.8441 Y2.0641
X1.8501 Y2.0746
X1.8538 Y2.0861
X1.855 Y2.0981
Y2.1781
G3 X1.832 Y2.2022 I-0.025 J-0.0009
G1 X1.547 Y2.225
G3 X1.52 Y2.2009 I-0.002 J-0.0249
G1 Y2.1212
X1.5203 Y2.1144
X1.5214 Y2.1066
X1.5232 Y2.0978
X1.526 Y2.0886
X1.5299 Y2.0785
X1.535 Y2.0681
X1.5415 Y2.057
X1.5496 Y2.0455
X1.5591 Y2.034
X1.5709 Y2.0219
X1.584 Y2.0105
X1.5992 Y1.9993
X1.6167 Y1.9884
X1.6358 Y1.9785
X1.6561 Y1.9701
X1.6776 Y1.963
X1.6996 Y1.9577
X1.722 Y1.9543
X1.7431 Y1.9527
X1.7626 Y1.9528
X1.7792 Y1.9542
X1.7953 Y1.9569
X1.8091 Y1.9604
X1.8154 Y1.9625
X1.8264 Y1.9676
X1.8361 Y1.9748
X1.8441 Y1.9838
X1.8501 Y1.9943
X1.8538 Y2.0058
X1.855 Y2.0178
Y2.0981
G3 X1.832 Y2.1221 I-0.025 J-0.0009
G1 X1.547 Y2.1453
G3 X1.52 Y2.1212 I-0.002 J-0.0249
G1 Y2.0415
X1.5204 Y2.0333
X1.5214 Y2.0254
X1.5233 Y2.0168
X1.526 Y2.0076
X1.5299 Y1.9976
X1.535 Y1.9872
X1.5415 Y1.9762
X1.5496 Y1.9646
X1.559 Y1.9533
X1.5707 Y1.9413
X1.5838 Y1.9299
X1.5989 Y1.9187
X1.6163 Y1.9079
X1.6353 Y1.8981
X1.6556 Y1.8896
X1.6771 Y1.8826
X1.6991 Y1.8773
X1.7215 Y1.8738
X1.7427 Y1.8722
X1.7623 Y1.8723
X1.7789 Y1.8738
X1.7952 Y1.8765
X1.809 Y1.88
X1.8154 Y1.8822
X1.8264 Y1.8872
X1.8361 Y1.8944
X1.8441 Y1.9034
X1.8501 Y1.9139
X1.8538 Y1.9254
X1.855 Y1.9374
Y2.0178
G3 X1.8321 Y2.0418 I-0.025 J-0.0009
G1 X1.5471 Y2.0656
G3 X1.52 Y2.0415 I-0.0021 J-0.0249
G1 Y1.9618
X1.5205 Y1.9525
X1.5215 Y1.9446
X1.5233 Y1.936
X1.5261 Y1.9268
X1.53 Y1.9169
X1.535 Y1.9064
X1.5415 Y1.8955
X1.5496 Y1.884
X1.5589 Y1.8727
X1.5706 Y1.8607
X1.5837 Y1.8493
X1.5987 Y1.8382
X1.616 Y1.8274
X1.6351 Y1.8176
X1.6554 Y1.8091
X1.6768 Y1.8021
X1.6988 Y1.7968
X1.7212 Y1.7933
X1.7425 Y1.7918
X1.7621 Y1.7919
X1.7788 Y1.7933
X1.7951 Y1.796
X1.8089 Y1.7995
X1.8154 Y1.8017
X1.8264 Y1.8068
X1.8361 Y1.814
X1.8441 Y1.823
X1.8501 Y1.8335
X1.8538 Y1.845
X1.855 Y1.857
Y1.9374
G3 X1.8322 Y1.9614 I-0.025 J-0.0009
G1 X1.5471 Y1.9859
G3 X1.52 Y1.9618 I-0.0021 J-0.0249
G1 Y1.8821
X1.5205 Y1.8718
X1.5215 Y1.8639
X1.5234 Y1.8554
X1.5261 Y1.8462
X1.53 Y1.8363
X1.5351 Y1.8258
X1.5415 Y1.815
X1.5496 Y1.8034
X1.5589 Y1.7921
X1.5706 Y1.7802
X1.5836 Y1.7688
X1.5986 Y1.7577
X1.6159 Y1.747
X1.635 Y1.7371
X1.6552 Y1.7287
X1.6767 Y1.7217
X1.6987 Y1.7164
X1.7211 Y1.7129
X1.7424 Y1.7113
X1.762 Y1.7114
X1.7788 Y1.7128
X1.7951 Y1.7156
X1.8089 Y1.7191
X1.8154 Y1.7213
X1.8264 Y1.7263
X1.8361 Y1.7335
X1.8441 Y1.7425
X1.8501 Y1.753
X1.8538 Y1.7645
X1.855 Y1.7765
Y1.857
G3 X1.8322 Y1.881 I-0.025 J-0.0009
G1 X1.5472 Y1.9062
G3 X1.52 Y1.8821 I-0.0022 J-0.0249
G1 Y1.8024
X1.5206 Y1.7912
X1.5216 Y1.7834
X1.5234 Y1.7748
X1.5262 Y1.7656
X1.53 Y1.7558
X1.5351 Y1.7453
X1.5415 Y1.7344
X1.5496 Y1.7229
X1.5589 Y1.7116
X1.5706 Y1.6997
X1.5836 Y1.6883
X1.5986 Y1.6773
X1.6159 Y1.6665
X1.6349 Y1.6567
X1.6552 Y1.6482
X1.6766 Y1.6412
X1.6987 Y1.6359
X1.7211 Y1.6324
X1.7424 Y1.6308
X1.762 Y1.6309
X1.7787 Y1.6324
X1.795 Y1.6351
X1.8089 Y1.6386
X1.8154 Y1.6408
X1.8264 Y1.6459
X1.8361 Y1.653
X1.8441 Y1.6621
X1.8501 Y1.6726
X1.8538 Y1.6841
X1.855 Y1.6961
Y1.7765
G3 X1.8323 Y1.8005 I-0.025 J-0.0009
G1 X1.5472 Y1.8265
G3 X1.52 Y1.8024 I-0.0023 J-0.0249
G1 Y1.7179
X1.5203 Y1.7109
X1.5214 Y1.703
X1.5232 Y1.6945
X1.526 Y1.6853
X1.5298 Y1.6754
X1.5349 Y1.6649
X1.5413 Y1.654
X1.5494 Y1.6425
X1.5588 Y1.6312
X1.5704 Y1.6193
X1.5835 Y1.6079
X1.5984 Y1.5968
X1.6158 Y1.586
X1.6348 Y1.5762
X1.6551 Y1.5677
X1.6765 Y1.5607
X1.6986 Y1.5554
X1.721 Y1.5519
X1.7423 Y1.5503
X1.762 Y1.5505
X1.7787 Y1.5519
X1.795 Y1.5546
X1.8089 Y1.5581
X1.8154 Y1.5604
X1.8264 Y1.5654
X1.8361 Y1.5726
X1.8441 Y1.5816
X1.8501 Y1.5921
X1.8538 Y1.6036
X1.855 Y1.6156
Y1.6961
G3 X1.8319 Y1.7201 I-0.025 J-0.0009
G1 X1.5469 Y1.7419
G3 X1.52 Y1.7179 I-0.0019 J-0.0249
G1 Y1.6382
X1.5204 Y1.6303
X1.5214 Y1.6224
X1.5232 Y1.6139
X1.526 Y1.6047
X1.5299 Y1.5948
X1.5349 Y1.5844
X1.5413 Y1.5735
X1.5494 Y1.562
X1.5588 Y1.5507
X1.5704 Y1.5388
X1.5835 Y1.5274
X1.5984 Y1.5163
X1.6157 Y1.5056
X1.6348 Y1.4957
X1.6551 Y1.4873
X1.6765 Y1.4803
X1.6986 Y1.475
X1.721 Y1.4715
X1.7423 Y1.4699
X1.762 Y1.47
X1.7787 Y1.4714
X1.795 Y1.4742
X1.8088 Y1.4777
X1.8154 Y1.4799
X1.8264 Y1.4849
X1.8361 Y1.4921
X1.8441 Y1.5011
X1.8501 Y1.5116
X1.8538 Y1.5231
X1.855 Y1.5351
Y1.6156
G3 X1.832 Y1.6396 I-0.025 J-0.0009
G1 X1.547 Y1.6622
G3 X1.52 Y1.6382 I-0.002 J-0.0249
G1 Y1.5545
X1.5203 Y1.5485
X1.5215 Y1.5403
X1.5235 Y1.5318
X1.5265 Y1.5223
X1.5305 Y1.5124
X1.536 Y1.5016
X1.5426 Y1.4909
X1.5511 Y1.4792
X1.5608 Y1.4679
X1.5726 Y1.4561
X1.5864 Y1.4445
X1.6016 Y1.4336
X1.6192 Y1.4231
X1.6386 Y1.4135
X1.6594 Y1.4052
X1.6811 Y1.3985
X1.7032 Y1.3936
X1.7255 Y1.3905
X1.7461 Y1.3893
X1.7657 Y1.3897
X1.782 Y1.3914
X1.798 Y1.3943
X1.8117 Y1.398
X1.8163 Y1.3997
X1.8271 Y1.4048
X1.8365 Y1.412
X1.8444 Y1.421
X1.8502 Y1.4314
X1.8538 Y1.4428
X1.855 Y1.4546
Y1.5351
G3 X1.8317 Y1.5592 I-0.025 J-0.0009
G1 X1.5467 Y1.5786
G3 X1.52 Y1.5545 I-0.0017 J-0.0249
G1 Y1.4748
X1.5203 Y1.4688
X1.5213 Y1.4611
X1.5233 Y1.4523
X1.526 Y1.4433
X1.53 Y1.4332
X1.535 Y1.423
X1.5416 Y1.4118
X1.5496 Y1.4006
X1.5592 Y1.3891
X1.571 Y1.3772
X1.584 Y1.3659
X1.5993 Y1.3547
X1.6168 Y1.3439
X1.6356 Y1.3343
X1.6558 Y1.326
X1.6774 Y1.319
X1.6996 Y1.3138
X1.722 Y1.3104
X1.7436 Y1.3089
X1.763 Y1.3091
X1.7797 Y1.3106
X1.7958 Y1.3134
X1.8096 Y1.3169
X1.8156 Y1.319
X1.8266 Y1.324
X1.8362 Y1.3312
X1.8442 Y1.3403
X1.8501 Y1.3507
X1.8538 Y1.3622
X1.855 Y1.3741
Y1.4546
G3 X1.8318 Y1.4787 I-0.025 J-0.0009
G1 X1.5468 Y1.4988
G3 X1.52 Y1.4748 I-0.0018 J-0.0249
G1 Y1.3951
X1.5203 Y1.3888
X1.5213 Y1.381
X1.5232 Y1.3724
X1.5259 Y1.3632
X1.5298 Y1.3533
X1.5348 Y1.3429
X1.5413 Y1.332
X1.5493 Y1.3206
X1.5587 Y1.3093
X1.5703 Y1.2973
X1.5833 Y1.286
X1.5983 Y1.2749
X1.6157 Y1.2641
X1.6346 Y1.2543
X1.6549 Y1.2459
X1.6763 Y1.2388
X1.6984 Y1.2335
X1.7209 Y1.23
X1.7424 Y1.2284
X1.762 Y1.2285
X1.7787 Y1.23
X1.795 Y1.2327
X1.8089 Y1.2362
X1.8154 Y1.2384
X1.8264 Y1.2435
X1.8361 Y1.2507
X1.8441 Y1.2597
X1.8501 Y1.2702
X1.8538 Y1.2817
X1.855 Y1.2937
Y1.3741
G3 X1.8318 Y1.3982 I-0.025 J-0.0009
G1 X1.5468 Y1.4191
G3 X1.52 Y1.3951 I-0.0018 J-0.0249
G1 Y1.3154
X1.5204 Y1.3083
X1.5214 Y1.3004
X1.5232 Y1.2919
X1.526 Y1.2827
X1.5298 Y1.2729
X1.5349 Y1.2624
X1.5413 Y1.2516
X1.5494 Y1.24
X1.5587 Y1.2288
X1.5703 Y1.2169
X1.5834 Y1.2055
X1.5983 Y1.1944
X1.6157 Y1.1836
X1.6347 Y1.1738
X1.655 Y1.1653
X1.6764 Y1.1583
X1.6985 Y1.153
X1.721 Y1.1495
X1.7423 Y1.1479
X1.762 Y1.148
X1.7787 Y1.1495
X1.795 Y1.1522
X1.8088 Y1.1557
X1.8154 Y1.1579
X1.8264 Y1.163
X1.8361 Y1.1702
X1.8441 Y1.1792
X1.8501 Y1.1897
X1.8538 Y1.2012
X1.855 Y1.2132
Y1.2937
G3 X1.8319 Y1.3177 I-0.025 J-0.0009
G1 X1.5469 Y1.3394
G3 X1.52 Y1.3154 I-0.0019 J-0.0249
G1 Y1.2357
X1.5204 Y1.2278
X1.5214 Y1.22
X1.5232 Y1.2114
X1.526 Y1.2022
X1.5298 Y1.1924
X1.5349 Y1.1819
X1.5413 Y1.1711
X1.5494 Y1.1596
X1.5587 Y1.1483
X1.5704 Y1.1364
X1.5834 Y1.125
X1.5984 Y1.1139
X1.6157 Y1.1031
X1.6348 Y1.0933
X1.655 Y1.0848
X1.6764 Y1.0778
X1.6985 Y1.0726
X1.721 Y1.069
X1.7423 Y1.0675
X1.762 Y1.0676
X1.7787 Y1.069
X1.795 Y1.0717
X1.8088 Y1.0752
X1.8154 Y1.0775
X1.8264 Y1.0825
X1.8361 Y1.0897
X1.8441 Y1.0987
X1.8501 Y1.1092
X1.8538 Y1.1207
X1.855 Y1.1327
Y1.2132
G3 X1.832 Y1.2372 I-0.025 J-0.0009
G1 X1.547 Y1.2597
G3 X1.52 Y1.2357 I-0.002 J-0.0249
G1 Y1.156
X1.5204 Y1.1473
X1.5215 Y1.1395
X1.5233 Y1.131
X1.526 Y1.1217
X1.5299 Y1.1119
X1.535 Y1.1014
X1.5413 Y1.0906
X1.5494 Y1.0791
X1.5588 Y1.0678
X1.5704 Y1.0559
X1.5835 Y1.0445
X1.5984 Y1.0334
X1.6157 Y1.0227
X1.6348 Y1.0128
X1.655 Y1.0044
X1.6765 Y0.9974
X1.6985 Y0.9921
X1.721 Y0.9886
X1.7423 Y0.987
X1.762 Y0.9871
X1.7787 Y0.9885
X1.795 Y0.9913
X1.8088 Y0.9948
X1.8154 Y0.997
X1.8264 Y1.002
X1.8361 Y1.0092
X1.8441 Y1.0182
X1.8501 Y1.0287
X1.8538 Y1.0402
X1.855 Y1.0522
Y1.1327
G3 X1.8321 Y1.1567 I-0.025 J-0.0009
G1 X1.547 Y1.18
G3 X1.52 Y1.156 I-0.002 J-0.0249
G1 Y1.0763
X1.5205 Y1.0669
X1.5215 Y1.059
X1.5233 Y1.0505
X1.5261 Y1.0413
X1.5299 Y1.0314
X1.535 Y1.0209
X1.5414 Y1.0101
X1.5495 Y0.9986
X1.5588 Y0.9873
X1.5704 Y0.9754
X1.5835 Y0.964
X1.5985 Y0.9529
X1.6158 Y0.9422
X1.6348 Y0.9323
X1.6551 Y0.9239
X1.6765 Y0.9169
X1.6985 Y0.9116
X1.721 Y0.9081
X1.7423 Y0.9065
X1.762 Y0.9066
X1.7787 Y0.9081
X1.795 Y0.9108
X1.8088 Y0.9143
X1.8154 Y0.9165
X1.8264 Y0.9215
X1.8361 Y0.9287
X1.8441 Y0.9378
X1.8501 Y0.9483
X1.8538 Y0.9597
X1.855 Y0.9717
Y1.0522
G3 X1.8321 Y1.0763 I-0.025 J-0.0009
G1 X1.5471 Y1.1003
G3 X1.52 Y1.0763 I-0.0021 J-0.0249
G1 Y0.9966
X1.5205 Y0.9864
X1.5215 Y0.9785
X1.5234 Y0.97
X1.5261 Y0.9608
X1.53 Y0.9509
X1.535 Y0.9405
X1.5414 Y0.9296
X1.5495 Y0.9181
X1.5589 Y0.9068
X1.5705 Y0.8949
X1.5835 Y0.8835
X1.5985 Y0.8725
X1.6158 Y0.8617
X1.6348 Y0.8519
X1.6551 Y0.8434
X1.6765 Y0.8364
X1.6986 Y0.8311
X1.721 Y0.8276
X1.7423 Y0.826
X1.762 Y0.8261
X1.7787 Y0.8276
X1.795 Y0.8303
X1.8089 Y0.8338
X1.8154 Y0.836
X1.8264 Y0.8411
X1.8361 Y0.8483
X1.8441 Y0.8573
X1.8501 Y0.8678
X1.8538 Y0.8793
X1.855 Y0.8913
Y0.9717
G3 X1.8322 Y0.9958 I-0.025 J-0.0009
G1 X1.5472 Y1.0206
G3 X1.52 Y0.9966 I-0.0022 J-0.0249
G1 Y0.9169
X1.5206 Y0.9059
X1.5216 Y0.898
X1.5234 Y0.8895
X1.5262 Y0.8803
X1.53 Y0.8704
X1.5351 Y0.86
X1.5415 Y0.8491
X1.5496 Y0.8376
X1.5589 Y0.8264
X1.5705 Y0.8145
X1.5836 Y0.8031
X1.5985 Y0.792
X1.6158 Y0.7812
X1.6349 Y0.7714
X1.6551 Y0.7629
X1.6765 Y0.7559
X1.6986 Y0.7507
X1.721 Y0.7472
X1.7423 Y0.7456
X1.762 Y0.7457
X1.7787 Y0.7471
X1.795 Y0.7499
X1.8089 Y0.7533
X1.8154 Y0.7556
X1.8264 Y0.7606
X1.8361 Y0.7678
X1.8441 Y0.7768
X1.8501 Y0.7873
X1.8538 Y0.7988
X1.855 Y0.8108
Y0.8913
G3 X1.8323 Y0.9153 I-0.025 J-0.0009
G1 X1.5472 Y0.9409
G3 X1.52 Y0.9169 I-0.0022 J-0.0249
G1 Y0.8323
X1.5203 Y0.8256
X1.5214 Y0.8177
X1.5232 Y0.8092
X1.526 Y0.8
X1.5298 Y0.7901
X1.5349 Y0.7796
X1.5413 Y0.7688
X1.5494 Y0.7572
X1.5587 Y0.7459
X1.5704 Y0.734
X1.5834 Y0.7226
X1.5984 Y0.7115
X1.6157 Y0.7008
X1.6348 Y0.6909
X1.655 Y0.6825
X1.6765 Y0.6755
X1.6985 Y0.6702
X1.721 Y0.6667
X1.7423 Y0.6651
X1.762 Y0.6652
X1.7787 Y0.6666
X1.795 Y0.6694
X1.8088 Y0.6729
X1.8154 Y0.6751
X1.8264 Y0.6801
X1.8361 Y0.6873
X1.8441 Y0.6963
X1.8501 Y0.7068
X1.8538 Y0.7183
X1.855 Y0.7303
Y0.8108
G3 X1.8319 Y0.8349 I-0.025 J-0.0009
G1 X1.5469 Y0.8564
G3 X1.52 Y0.8323 I-0.0019 J-0.0249
G1 Y0.7526
X1.5204 Y0.745
X1.5214 Y0.7371
X1.5232 Y0.7286
X1.526 Y0.7194
X1.5298 Y0.7095
X1.5349 Y0.6991
X1.5413 Y0.6882
X1.5494 Y0.6767
X1.5587 Y0.6654
X1.5704 Y0.6535
X1.5834 Y0.6421
X1.5984 Y0.6311
X1.6157 Y0.6203
X1.6348 Y0.6105
X1.655 Y0.602
X1.6765 Y0.595
X1.6985 Y0.5897
X1.721 Y0.5862
X1.7423 Y0.5846
X1.762 Y0.5847
X1.7787 Y0.5862
X1.795 Y0.5889
X1.8088 Y0.5924
X1.8227 Y0.5971
X1.8255 Y0.5983
X1.831 Y0.601
X1.8362 Y0.6043
X1.841 Y0.6081
X1.8424 Y0.6093
X1.8492 Y0.6158
X1.8512 Y0.6187
X1.8528 Y0.6217
X1.8539 Y0.6247
X1.8545 Y0.6269
X1.8548 Y0.6291
X1.855 Y0.6335
Y0.7303
G3 X1.832 Y0.7544 I-0.025 J-0.0009
G1 X1.5469 Y0.7767
G3 X1.52 Y0.7526 I-0.0019 J-0.0249
G1 Y0.6689
X1.5203 Y0.6629
X1.5215 Y0.6547
X1.5235 Y0.6462
X1.5266 Y0.6366
X1.5307 Y0.6268
X1.5362 Y0.616
X1.5428 Y0.6052
X1.5514 Y0.5935
X1.5611 Y0.5822
X1.5731 Y0.5704
X1.587 Y0.5588
X1.6022 Y0.5479
X1.6198 Y0.5375
X1.6393 Y0.5279
X1.6602 Y0.5196
X1.6818 Y0.513
X1.704 Y0.5082
X1.7263 Y0.5051
X1.7411 Y0.5043
X1.7539 Y0.505
X1.7662 Y0.5085
X1.7775 Y0.5146
X1.7871 Y0.523
X1.7947 Y0.5333
X1.7998 Y0.545
X1.803 Y0.5538
X1.807 Y0.5627
G3 X1.7931 Y0.5954 I-0.0231 J0.0095
G1 X1.5543 Y0.6913
G3 X1.52 Y0.6689 I-0.0093 J-0.0232
G1 Y0.6335
X1.5202 Y0.6291
X1.5205 Y0.6269
X1.5211 Y0.6247
X1.5222 Y0.6217
X1.5238 Y0.6187
X1.5258 Y0.6158
X1.5326 Y0.6093
X1.5353 Y0.607
X1.5415 Y0.6005
X1.5517 Y0.5892
X1.5581 Y0.5804
X1.5634 Y0.5715
X1.568 Y0.5627
X1.572 Y0.5538
X1.5752 Y0.545
X1.5769 Y0.5396
X1.5778 Y0.5361
X1.5794 Y0.5303
X1.5825 Y0.523
X1.5863 Y0.5155
X1.5914 Y0.5073
X1.5976 Y0.4988
X1.6053 Y0.49
X1.6144 Y0.4811
X1.6253 Y0.472
X1.6374 Y0.4635
X1.6507 Y0.4557
X1.6646 Y0.4489
X1.6775 Y0.4439
X1.6906 Y0.4399
X1.7033 Y0.4372
X1.7154 Y0.4356
X1.7279 Y0.4349
X1.7391 Y0.4353
X1.7406 Y0.4354
X1.7524 Y0.438
X1.7635 Y0.443
X1.7733 Y0.4501
X1.7814 Y0.4591
X1.7875 Y0.4696
X1.7913 Y0.4812
X1.7926 Y0.4932
Y0.5007
X1.7928 Y0.5056
G3 X1.773 Y0.5302 I-0.025 J0.0002
G1 X1.6075 Y0.5653
G3 X1.5778 Y0.5361 I-0.0052 J-0.0245
G1 X1.5798 Y0.5273
X1.5813 Y0.5184
X1.582 Y0.5095
X1.5824 Y0.5007
X1.5825 Y0.487
X1.5828 Y0.4803
X1.5836 Y0.4742
X1.5851 Y0.4674
X1.5873 Y0.4601
X1.5903 Y0.4525
X1.5943 Y0.4443
X1.5991 Y0.4362
X1.6052 Y0.4277
X1.6122 Y0.4192
X1.6202 Y0.4111
X1.6293 Y0.4032
X1.6396 Y0.3956
X1.6509 Y0.3887
X1.6621 Y0.3829
X1.6737 Y0.3781
X1.6853 Y0.3744
X1.6965 Y0.3717
X1.7083 Y0.3699
X1.719 Y0.3692
X1.7306 Y0.3693
X1.7411 Y0.3702
X1.744 Y0.3707
X1.7553 Y0.3738
X1.7656 Y0.3791
X1.7748 Y0.3863
X1.7823 Y0.3953
X1.7879 Y0.4055
X1.7913 Y0.4166
X1.7925 Y0.4282
Y0.483
X1.7926 Y0.4932
G3 X1.7666 Y0.5174 I-0.025 J-0.0008
G1 X1.6065 Y0.5112
G3 X1.5825 Y0.487 I0.001 J-0.025
G1 Y0.4653
Y0.421
X1.5829 Y0.4139
X1.5837 Y0.4075
X1.5852 Y0.4007
X1.5874 Y0.3932
X1.5903 Y0.3856
X1.5943 Y0.3775
X1.5991 Y0.3693
X1.6048 Y0.3612
X1.6116 Y0.353
X1.6195 Y0.345
X1.6282 Y0.3373
X1.6379 Y0.3302
X1.6486 Y0.3235
X1.6602 Y0.3175
X1.6715 Y0.3128
X1.6836 Y0.3088
X1.695 Y0.3061
X1.7068 Y0.3043
X1.7181 Y0.3034
X1.7292 Y0.3035
X1.7403 Y0.3045
X1.7438 Y0.305
X1.7551 Y0.3081
X1.7655 Y0.3134
X1.7747 Y0.3206
X1.7822 Y0.3295
X1.7879 Y0.3398
X1.7913 Y0.351
X1.7925 Y0.3626
Y0.4282
G3 X1.7664 Y0.4523 I-0.025 J-0.0009
G1 X1.6064 Y0.4451
G3 X1.5825 Y0.421 I0.0011 J-0.025
G1 Y0.3541
X1.5828 Y0.3474
X1.5837 Y0.341
X1.5851 Y0.3343
X1.5873 Y0.3269
X1.5902 Y0.3195
X1.5941 Y0.3116
X1.5989 Y0.3034
X1.6045 Y0.2953
X1.6112 Y0.2872
X1.6191 Y0.2792
X1.6279 Y0.2716
X1.6375 Y0.2644
X1.6481 Y0.2578
X1.6597 Y0.2518
X1.6711 Y0.2471
X1.6833 Y0.2431
X1.6947 Y0.2404
X1.7065 Y0.2385
X1.7179 Y0.2377
X1.729
X1.7402 Y0.2387
X1.7438 Y0.2393
X1.7551 Y0.2424
X1.7655 Y0.2476
X1.7747 Y0.2549
X1.7822 Y0.2638
X1.7879 Y0.274
X1.7913 Y0.2852
X1.7925 Y0.2968
Y0.3626
G3 X1.7662 Y0.3867 I-0.025 J-0.0009
G1 X1.6062 Y0.3782
G3 X1.5825 Y0.3541 I0.0013 J-0.025
G1 Y0.2882
X1.5828 Y0.2814
X1.5837 Y0.275
X1.5851 Y0.2684
X1.5873 Y0.261
X1.5902 Y0.2536
X1.594 Y0.2457
X1.5988 Y0.2375
X1.6045 Y0.2295
X1.6112 Y0.2214
X1.619 Y0.2134
X1.6278 Y0.2058
X1.6374 Y0.1986
X1.648 Y0.192
X1.6596 Y0.1861
X1.671 Y0.1813
X1.6832 Y0.1773
X1.6946 Y0.1746
X1.7065 Y0.1727
X1.7178 Y0.1719
X1.729
X1.7402 Y0.1729
X1.7438 Y0.1735
X1.7551 Y0.1766
X1.7655 Y0.1819
X1.7747 Y0.1891
X1.7822 Y0.198
X1.7879 Y0.2083
X1.7913 Y0.2194
X1.7925 Y0.231
Y0.2968
G3 X1.7662 Y0.3209 I-0.025 J-0.0009
G1 X1.6061 Y0.3122
G3 X1.5825 Y0.2882 I0.0014 J-0.025
G1 Y0.2213
X1.5828 Y0.2153
X1.5832 Y0.2093
X1.584 Y0.2034
X1.5853 Y0.1975
X1.5869 Y0.1917
X1.589 Y0.1861
X1.5913 Y0.1806
X1.594 Y0.1752
X1.597 Y0.17
X1.6002 Y0.1649
X1.6037 Y0.16
X1.6074 Y0.1553
X1.6113 Y0.1508
X1.6154 Y0.1464
X1.6197 Y0.1422
X1.6242 Y0.1382
X1.6288 Y0.1344
X1.6336 Y0.1308
X1.6385 Y0.1274
X1.6436 Y0.1241
X1.6487 Y0.1211
X1.654 Y0.1183
X1.6594 Y0.1156
X1.6649 Y0.1132
X1.6705 Y0.1109
X1.6761 Y0.1089
X1.6818 Y0.1071
X1.6876 Y0.1055
X1.6935 Y0.1042
X1.6994 Y0.1031
X1.7053 Y0.1022
X1.7113 Y0.1015
X1.7173 Y0.1011
X1.7233 Y0.101
X1.7292 Y0.1011
X1.7352 Y0.1015
X1.7412 Y0.102
X1.7425 Y0.1022
X1.754 Y0.1051
X1.7647 Y0.1103
X1.7741 Y0.1175
X1.7819 Y0.1265
X1.7877 Y0.1368
X1.7913 Y0.1482
X1.7925 Y0.16
Y0.231
G3 X1.766 Y0.2551 I-0.025 J-0.0009
G1 X1.606 Y0.2454
G3 X1.5825 Y0.2213 I0.0015 J-0.025
G1 Y0.1505
X1.5828 Y0.1445
X1.5837 Y0.1381
X1.5852 Y0.1313
X1.5881 Y0.122
X1.5893 Y0.1123
X1.589 Y0.1026
X1.5874 Y0.0947
X1.5859 Y0.0905
X1.584 Y0.0842
X1.5829 Y0.0776
X1.5825 Y0.071
G3 X1.6325 Y0.0728 I0.025 J0.0009
X1.5945 Y0.1555 I-0.118 J-0.0041
X1.5825 Y0.1505 I-0.0049 J-0.0053
G1 Y0.0048
G3 X1.5922 Y-0.0141 I0.025 J0.0009
G1 X1.7522 Y-0.1381
G3 X1.7925 Y-0.1192 I0.0153 J0.0198
G1 Y0.16
X1.792 Y0.1621 Z-0.1994
X1.7916 Y0.1641 Z-0.1986
X1.7912 Y0.1659 Z-0.1975
X1.7909 Y0.1674 Z-0.1959
X1.7907 Y0.1686 Z-0.1941
X1.7904 Y0.1692 Z-0.192
X1.7903 Y0.1695 Z-0.1898
G0 Z0.2
X1.5458 Y2.5357
Z-0.3492
G1 Z-0.3742 F39.37
X1.5457 Y2.5354 Z-0.3781
X1.5455 Y2.5345 Z-0.3819
X1.5451 Y2.533 Z-0.3856
X1.5446 Y2.531 Z-0.3889
X1.544 Y2.5286 Z-0.3919
X1.5432 Y2.5257 Z-0.3944
X1.5424 Y2.5225 Z-0.3965
X1.5415 Y2.5189 Z-0.398
X1.5405 Y2.5152 Z-0.3989
X1.5396 Y2.5115 Z-0.3992
G3 X1.52 Y2.3754 I0.6183 J-0.1584
G1 Y2.3621
X1.5201 Y2.3606
X1.5239 Y2.3558
X1.5289 Y2.3503
X1.5356 Y2.3441
X1.5443 Y2.3373
X1.5554 Y2.3299
X1.5697 Y2.322
X1.5881 Y2.3137
X1.6126 Y2.3049
X1.6464 Y2.2957
X1.6848 Y2.2886
X1.7235 Y2.2838
X1.7623 Y2.2806
X1.7967 Y2.2786
X1.8095 Y2.2794
X1.8217 Y2.2831
X1.8328 Y2.2895
X1.8421 Y2.2983
X1.8491 Y2.309
X1.8535 Y2.321
X1.855 Y2.3338
G3 X1.8325 Y2.3578 I-0.025 J-0.0009
G1 X1.5475 Y2.3861
G3 X1.52 Y2.3621 I-0.0025 J-0.0249
G1 Y2.3289
X1.5203 Y2.3229
X1.5226 Y2.3164
X1.5259 Y2.3091
X1.5304 Y2.301
X1.5358 Y2.2929
X1.5429 Y2.2837
X1.5519 Y2.274
X1.5623 Y2.2644
X1.5759 Y2.2537
X1.5914 Y2.2435
X1.6114 Y2.2324
X1.6354 Y2.2216
X1.6664 Y2.2105
X1.7001 Y2.2014
X1.7251 Y2.1968
X1.746 Y2.1947
X1.7632 Y2.1943
X1.7801 Y2.1953
X1.7945 Y2.1973
X1.8087 Y2.2004
X1.8139 Y2.202
X1.8252 Y2.2069
X1.8353 Y2.214
X1.8436 Y2.2231
X1.8498 Y2.2338
X1.8537 Y2.2455
X1.855 Y2.2577
G3 X1.8361 Y2.2811 I-0.025 J-0.0009
G1 X1.551 Y2.3523
G3 X1.52 Y2.3289 I-0.0061 J-0.0243
G1 Y2.2758
X1.5203 Y2.2698
X1.5214 Y2.2626
X1.5231 Y2.2552
X1.5258 Y2.2467
X1.5295 Y2.2377
X1.5344 Y2.2282
X1.5409 Y2.2176
X1.5485 Y2.2071
X1.5588 Y2.1952
X1.5703 Y2.1839
X1.5853 Y2.1713
X1.6018 Y2.1596
X1.6209 Y2.1482
X1.6417 Y2.1379
X1.6634 Y2.1293
X1.6858 Y2.1225
X1.7082 Y2.1176
X1.7305 Y2.1145
X1.7503 Y2.1134
X1.7686 Y2.1139
X1.7848 Y2.1156
X1.7998 Y2.1184
X1.8134 Y2.1221
X1.8165 Y2.1232
X1.8272 Y2.1284
X1.8366 Y2.1356
X1.8444 Y2.1446
X1.8502 Y2.1549
X1.8538 Y2.1663
X1.855 Y2.1781
Y2.2577
G3 X1.8316 Y2.2818 I-0.025 J-0.0009
G1 X1.5466 Y2.2998
G3 X1.52 Y2.2758 I-0.0016 J-0.025
G1 Y2.2009
X1.5203 Y2.1949
X1.5213 Y2.1874
X1.5232 Y2.1786
X1.5259 Y2.1696
X1.5299 Y2.1594
X1.5349 Y2.1492
X1.5417 Y2.1377
X1.5496 Y2.1266
X1.5596 Y2.1146
X1.5712 Y2.1027
X1.5846 Y2.0911
X1.6005 Y2.0794
X1.618 Y2.0686
X1.637 Y2.0588
X1.6575 Y2.0503
X1.6792 Y2.0433
X1.7013 Y2.0381
X1.7236 Y2.0346
X1.7448 Y2.0331
X1.7638 Y2.0333
X1.7803 Y2.0347
X1.7962 Y2.0374
X1.8099 Y2.0409
X1.8156 Y2.0429
X1.8265 Y2.0479
X1.8361 Y2.0551
X1.8441 Y2.0641
X1.8501 Y2.0746
X1.8538 Y2.0861
X1.855 Y2.0981
Y2.1781
G3 X1.832 Y2.2022 I-0.025 J-0.0009
G1 X1.547 Y2.225
G3 X1.52 Y2.2009 I-0.002 J-0.0249
G1 Y2.1212
X1.5203 Y2.1144
X1.5214 Y2.1066
X1.5232 Y2.0978
X1.526 Y2.0886
X1.5299 Y2.0785
X1.535 Y2.0681
X1.5415 Y2.057
X1.5496 Y2.0455
X1.5591 Y2.034
X1.5709 Y2.0219
X1.584 Y2.0105
X1.5992 Y1.9993
X1.6167 Y1.9884
X1.6358 Y1.9785
X1.6561 Y1.9701
X1.6776 Y1.963
X1.6996 Y1.9577
X1.722 Y1.9543
X1.7431 Y1.9527
X1.7626 Y1.9528
X1.7792 Y1.9542
X1.7953 Y1.9569
X1.8091 Y1.9604
X1.8154 Y1.9625
X1.8264 Y1.9676
X1.8361 Y1.9748
X1.8441 Y1.9838
X1.8501 Y1.9943
X1.8538 Y2.0058
X1.855 Y2.0178
Y2.0981
G3 X1.832 Y2.1221 I-0.025 J-0.0009
G1 X1.547 Y2.1453
G3 X1.52 Y2.1212 I-0.002 J-0.0249
G1 Y2.0415
X1.5204 Y2.0333
X1.5214 Y2.0254
X1.5233 Y2.0168
X1.526 Y2.0076
X1.5299 Y1.9976
X1.535 Y1.9872
X1.5415 Y1.9762
X1.5496 Y1.9646
X1.559 Y1.9533
X1.5707 Y1.9413
X1.5838 Y1.9299
X1.5989 Y1.9187
X1.6163 Y1.9079
X1.6353 Y1.8981
X1.6556 Y1.8896
X1.6771 Y1.8826
X1.6991 Y1.8773
X1.7215 Y1.8738
X1.7427 Y1.8722
X1.7623 Y1.8723
X1.7789 Y1.8738
X1.7952 Y1.8765
X1.809 Y1.88
X1.8154 Y1.8822
X1.8264 Y1.8872
X1.8361 Y1.8944
X1.8441 Y1.9034
X1.8501 Y1.9139
X1.8538 Y1.9254
X1.855 Y1.9374
Y2.0178
G3 X1.8321 Y2.0418 I-0.025 J-0.0009
G1 X1.5471 Y2.0656
G3 X1.52 Y2.0415 I-0.0021 J-0.0249
G1 Y1.9618
X1.5205 Y1.9525
X1.5215 Y1.9446
X1.5233 Y1.936
X1.5261 Y1.9268
X1.53 Y1.9169
X1.535 Y1.9064
X1.5415 Y1.8955
X1.5496 Y1.884
X1.5589 Y1.8727
X1.5706 Y1.8607
X1.5837 Y1.8493
X1.5987 Y1.8382
X1.616 Y1.8274
X1.6351 Y1.8176
X1.6554 Y1.8091
X1.6768 Y1.8021
X1.6988 Y1.7968
X1.7212 Y1.7933
X1.7425 Y1.7918
X1.7621 Y1.7919
X1.7788 Y1.7933
X1.7951 Y1.796
X1.8089 Y1.7995
X1.8154 Y1.8017
X1.8264 Y1.8068
X1.8361 Y1.814
X1.8441 Y1.823
X1.8501 Y1.8335
X1.8538 Y1.845
X1.855 Y1.857
Y1.9374
G3 X1.8322 Y1.9614 I-0.025 J-0.0009
G1 X1.5471 Y1.9859
G3 X1.52 Y1.9618 I-0.0021 J-0.0249
G1 Y1.8821
X1.5205 Y1.8718
X1.5215 Y1.8639
X1.5234 Y1.8554
X1.5261 Y1.8462
X1.53 Y1.8363
X1.5351 Y1.8258
X1.5415 Y1.815
X1.5496 Y1.8034
X1.5589 Y1.7921
X1.5706 Y1.7802
X1.5836 Y1.7688
X1.5986 Y1.7577
X1.6159 Y1.747
X1.635 Y1.7371
X1.6552 Y1.7287
X1.6767 Y1.7217
X1.6987 Y1.7164
X1.7211 Y1.7129
X1.7424 Y1.7113
X1.762 Y1.7114
X1.7788 Y1.7128
X1.7951 Y1.7156
X1.8089 Y1.7191
X1.8154 Y1.7213
X1.8264 Y1.7263
X1.8361 Y1.7335
X1.8441 Y1.7425
X1.8501 Y1.753
X1.8538 Y1.7645
X1.855 Y1.7765
Y1.857
G3 X1.8322 Y1.881 I-0.025 J-0.0009
G1 X1.5472 Y1.9062
G3 X1.52 Y1.8821 I-0.0022 J-0.0249
G1 Y1.8024
X1.5206 Y1.7912
X1.5216 Y1.7834
X1.5234 Y1.7748
X1.5262 Y1.7656
X1.53 Y1.7558
X1.5351 Y1.7453
X1.5415 Y1.7344
X1.5496 Y1.7229
X1.5589 Y1.7116
X1.5706 Y1.6997
X1.5836 Y1.6883
X1.5986 Y1.6773
X1.6159 Y1.6665
X1.6349 Y1.6567
X1.6552 Y1.6482
X1.6766 Y1.6412
X1.6987 Y1.6359
X1.7211 Y1.6324
X1.7424 Y1.6308
X1.762 Y1.6309
X1.7787 Y1.6324
X1.795 Y1.6351
X1.8089 Y1.6386
X1.8154 Y1.6408
X1.8264 Y1.6459
X1.8361 Y1.653
X1.8441 Y1.6621
X1.8501 Y1.6726
X1.8538 Y1.6841
X1.855 Y1.6961
Y1.7765
G3 X1.8323 Y1.8005 I-0.025 J-0.0009
G1 X1.5472 Y1.8265
G3 X1.52 Y1.8024 I-0.0023 J-0.0249
G1 Y1.7179
X1.5203 Y1.7109
X1.5214 Y1.703
X1.5232 Y1.6945
X1.526 Y1.6853
X1.5298 Y1.6754
X1.5349 Y1.6649
X1.5413 Y1.654
X1.5494 Y1.6425
X1.5588 Y1.6312
X1.5704 Y1.6193
X1.5835 Y1.6079
X1.5984 Y1.5968
X1.6158 Y1.586
X1.6348 Y1.5762
X1.6551 Y1.5677
X1.6765 Y1.5607
X1.6986 Y1.5554
X1.721 Y1.5519
X1.7423 Y1.5503
X1.762 Y1.5505
X1.7787 Y1.5519
X1.795 Y1.5546
X1.8089 Y1.5581
X1.8154 Y1.5604
X1.8264 Y1.5654
X1.8361 Y1.5726
X1.8441 Y1.5816
X1.8501 Y1.5921
X1.8538 Y1.6036
X1.855 Y1.6156
Y1.6961
G3 X1.8319 Y1.7201 I-0.025 J-0.0009
G1 X1.5469 Y1.7419
G3 X1.52 Y1.7179 I-0.0019 J-0.0249
G1 Y1.6382
X1.5204 Y1.6303
X1.5214 Y1.6224
X1.5232 Y1.6139
X1.526 Y1.6047
X1.5299 Y1.5948
X1.5349 Y1.5844
X1.5413 Y1.5735
X1.5494 Y1.562
X1.5588 Y1.5507
X1.5704 Y1.5388
X1.5835 Y1.5274
X1.5984 Y1.5163
X1.6157 Y1.5056
X1.6348 Y1.4957
X1.6551 Y1.4873
X1.6765 Y1.4803
X1.6986 Y1.475
X1.721 Y1.4715
X1.7423 Y1.4699
X1.762 Y1.47
X1.7787 Y1.4714
X1.795 Y1.4742
X1.8088 Y1.4777
X1.8154 Y1.4799
X1.8264 Y1.4849
X1.8361 Y1.4921
X1.8441 Y1.5011
X1.8501 Y1.5116
X1.8538 Y1.5231
X1.855 Y1.5351
Y1.6156
G3 X1.832 Y1.6396 I-0.025 J-0.0009
G1 X1.547 Y1.6622
G3 X1.52 Y1.6382 I-0.002 J-0.0249
G1 Y1.5545
X1.5203 Y1.5485
X1.5215 Y1.5403
X1.5235 Y1.5318
X1.5265 Y1.5223
X1.5305 Y1.5124
X1.536 Y1.5016
X1.5426 Y1.4909
X1.5511 Y1.4792
X1.5608 Y1.4679
X1.5726 Y1.4561
X1.5864 Y1.4445
X1.6016 Y1.4336
X1.6192 Y1.4231
X1.6386 Y1.4135
X1.6594 Y1.4052
X1.6811 Y1.3985
X1.7032 Y1.3936
X1.7255 Y1.3905
X1.7461 Y1.3893
X1.7657 Y1.3897
X1.782 Y1.3914
X1.798 Y1.3943
X1.8117 Y1.398
X1.8163 Y1.3997
X1.8271 Y1.4048
X1.8365 Y1.412
X1.8444 Y1.421
X1.8502 Y1.4314
X1.8538 Y1.4428
X1.855 Y1.4546
Y1.5351
G3 X1.8317 Y1.5592 I-0.025 J-0.0009
G1 X1.5467 Y1.5786
G3 X1.52 Y1.5545 I-0.0017 J-0.0249
G1 Y1.4748
X1.5203 Y1.4688
X1.5213 Y1.4611
X1.5233 Y1.4523
X1.526 Y1.4433
X1.53 Y1.4332
X1.535 Y1.423
X1.5416 Y1.4118
X1.5496 Y1.4006
X1.5592 Y1.3891
X1.571 Y1.3772
X1.584 Y1.3659
X1.5993 Y1.3547
X1.6168 Y1.3439
X1.6356 Y1.3343
X1.6558 Y1.326
X1.6774 Y1.319
X1.6996 Y1.3138
X1.722 Y1.3104
X1.7436 Y1.3089
X1.763 Y1.3091
X1.7797 Y1.3106
X1.7958 Y1.3134
X1.8096 Y1.3169
X1.8156 Y1.319
X1.8266 Y1.324
X1.8362 Y1.3312
X1.8442 Y1.3403
X1.8501 Y1.3507
X1.8538 Y1.3622
X1.855 Y1.3741
Y1.4546
G3 X1.8318 Y1.4787 I-0.025 J-0.0009
G1 X1.5468 Y1.4988
G3 X1.52 Y1.4748 I-0.0018 J-0.0249
G1 Y1.3951
X1.5203 Y1.3888
X1.5213 Y1.381
X1.5232 Y1.3724
X1.5259 Y1.3632
X1.5298 Y1.3533
X1.5348 Y1.3429
X1.5413 Y1.332
X1.5493 Y1.3206
X1.5587 Y1.3093
X1.5703 Y1.2973
X1.5833 Y1.286
X1.5983 Y1.2749
X1.6157 Y1.2641
X1.6346 Y1.2543
X1.6549 Y1.2459
X1.6763 Y1.2388
X1.6984 Y1.2335
X1.7209 Y1.23
X1.7424 Y1.2284
X1.762 Y1.2285
X1.7787 Y1.23
X1.795 Y1.2327
X1.8089 Y1.2362
X1.8154 Y1.2384
X1.8264 Y1.2435
X1.8361 Y1.2507
X1.8441 Y1.2597
X1.8501 Y1.2702
X1.8538 Y1.2817
X1.855 Y1.2937
Y1.3741
G3 X1.8318 Y1.3982 I-0.025 J-0.0009
G1 X1.5468 Y1.4191
G3 X1.52 Y1.3951 I-0.0018 J-0.0249
G1 Y1.3154
X1.5204 Y1.3083
X1.5214 Y1.3004
X1.5232 Y1.2919
X1.526 Y1.2827
X1.5298 Y1.2729
X1.5349 Y1.2624
X1.5413 Y1.2516
X1.5494 Y1.24
X1.5587 Y1.2288
X1.5703 Y1.2169
X1.5834 Y1.2055
X1.5983 Y1.1944
X1.6157 Y1.1836
X1.6347 Y1.1738
X1.655 Y1.1653
X1.6764 Y1.1583
X1.6985 Y1.153
X1.721 Y1.1495
X1.7423 Y1.1479
X1.762 Y1.148
X1.7787 Y1.1495
X1.795 Y1.1522
X1.8088 Y1.1557
X1.8154 Y1.1579
X1.8264 Y1.163
X1.8361 Y1.1702
X1.8441 Y1.1792
X1.8501 Y1.1897
X1.8538 Y1.2012
X1.855 Y1.2132
Y1.2937
G3 X1.8319 Y1.3177 I-0.025 J-0.0009
G1 X1.5469 Y1.3394
G3 X1.52 Y1.3154 I-0.0019 J-0.0249
G1 Y1.2357
X1.5204 Y1.2278
X1.5214 Y1.22
X1.5232 Y1.2114
X1.526 Y1.2022
X1.5298 Y1.1924
X1.5349 Y1.1819
X1.5413 Y1.1711
X1.5494 Y1.1596
X1.5587 Y1.1483
X1.5704 Y1.1364
X1.5834 Y1.125
X1.5984 Y1.1139
X1.6157 Y1.1031
X1.6348 Y1.0933
X1.655 Y1.0848
X1.6764 Y1.0778
X1.6985 Y1.0726
X1.721 Y1.069
X1.7423 Y1.0675
X1.762 Y1.0676
X1.7787 Y1.069
X1.795 Y1.0717
X1.8088 Y1.0752
X1.8154 Y1.0775
X1.8264 Y1.0825
X1.8361 Y1.0897
X1.8441 Y1.0987
X1.8501 Y1.1092
X1.8538 Y1.1207
X1.855 Y1.1327
Y1.2132
G3 X1.832 Y1.2372 I-0.025 J-0.0009
G1 X1.547 Y1.2597
G3 X1.52 Y1.2357 I-0.002 J-0.0249
G1 Y1.156
X1.5204 Y1.1473
X1.5215 Y1.1395
X1.5233 Y1.131
X1.526 Y1.1217
X1.5299 Y1.1119
X1.535 Y1.1014
X1.5413 Y1.0906
X1.5494 Y1.0791
X1.5588 Y1.0678
X1.5704 Y1.0559
X1.5835 Y1.0445
X1.5984 Y1.0334
X1.6157 Y1.0227
X1.6348 Y1.0128
X1.655 Y1.0044
X1.6765 Y0.9974
X1.6985 Y0.9921
X1.721 Y0.9886
X1.7423 Y0.987
X1.762 Y0.9871
X1.7787 Y0.9885
X1.795 Y0.9913
X1.8088 Y0.9948
X1.8154 Y0.997
X1.8264 Y1.002
X1.8361 Y1.0092
X1.8441 Y1.0182
X1.8501 Y1.0287
X1.8538 Y1.0402
X1.855 Y1.0522
Y1.1327
G3 X1.8321 Y1.1567 I-0.025 J-0.0009
G1 X1.547 Y1.18
G3 X1.52 Y1.156 I-0.002 J-0.0249
G1 Y1.0763
X1.5205 Y1.0669
X1.5215 Y1.059
X1.5233 Y1.0505
X1.5261 Y1.0413
X1.5299 Y1.0314
X1.535 Y1.0209
X1.5414 Y1.0101
X1.5495 Y0.9986
X1.5588 Y0.9873
X1.5704 Y0.9754
X1.5835 Y0.964
X1.5985 Y0.9529
X1.6158 Y0.9422
X1.6348 Y0.9323
X1.6551 Y0.9239
X1.6765 Y0.9169
X1.6985 Y0.9116
X1.721 Y0.9081
X1.7423 Y0.9065
X1.762 Y0.9066
X1.7787 Y0.9081
X1.795 Y0.9108
X1.8088 Y0.9143
X1.8154 Y0.9165
X1.8264 Y0.9215
X1.8361 Y0.9287
X1.8441 Y0.9378
X1.8501 Y0.9483
X1.8538 Y0.9597
X1.855 Y0.9717
Y1.0522
G3 X1.8321 Y1.0763 I-0.025 J-0.0009
G1 X1.5471 Y1.1003
G3 X1.52 Y1.0763 I-0.0021 J-0.0249
G1 Y0.9966
X1.5205 Y0.9864
X1.5215 Y0.9785
X1.5234 Y0.97
X1.5261 Y0.9608
X1.53 Y0.9509
X1.535 Y0.9405
X1.5414 Y0.9296
X1.5495 Y0.9181
X1.5589 Y0.9068
X1.5705 Y0.8949
X1.5835 Y0.8835
X1.5985 Y0.8725
X1.6158 Y0.8617
X1.6348 Y0.8519
X1.6551 Y0.8434
X1.6765 Y0.8364
X1.6986 Y0.8311
X1.721 Y0.8276
X1.7423 Y0.826
X1.762 Y0.8261
X1.7787 Y0.8276
X1.795 Y0.8303
X1.8089 Y0.8338
X1.8154 Y0.836
X1.8264 Y0.8411
X1.8361 Y0.8483
X1.8441 Y0.8573
X1.8501 Y0.8678
X1.8538 Y0.8793
X1.855 Y0.8913
Y0.9717
G3 X1.8322 Y0.9958 I-0.025 J-0.0009
G1 X1.5472 Y1.0206
G3 X1.52 Y0.9966 I-0.0022 J-0.0249
G1 Y0.9169
X1.5206 Y0.9059
X1.5216 Y0.898
X1.5234 Y0.8895
X1.5262 Y0.8803
X1.53 Y0.8704
X1.5351 Y0.86
X1.5415 Y0.8491
X1.5496 Y0.8376
X1.5589 Y0.8264
X1.5705 Y0.8145
X1.5836 Y0.8031
X1.5985 Y0.792
X1.6158 Y0.7812
X1.6349 Y0.7714
X1.6551 Y0.7629
X1.6765 Y0.7559
X1.6986 Y0.7507
X1.721 Y0.7472
X1.7423 Y0.7456
X1.762 Y0.7457
X1.7787 Y0.7471
X1.795 Y0.7499
X1.8089 Y0.7533
X1.8154 Y0.7556
X1.8264 Y0.7606
X1.8361 Y0.7678
X1.8441 Y0.7768
X1.8501 Y0.7873
X1.8538 Y0.7988
X1.855 Y0.8108
Y0.8913
G3 X1.8323 Y0.9153 I-0.025 J-0.0009
G1 X1.5472 Y0.9409
G3 X1.52 Y0.9169 I-0.0022 J-0.0249
G1 Y0.8323
X1.5203 Y0.8256
X1.5214 Y0.8177
X1.5232 Y0.8092
X1.526 Y0.8
X1.5298 Y0.7901
X1.5349 Y0.7796
X1.5413 Y0.7688
X1.5494 Y0.7572
X1.5587 Y0.7459
X1.5704 Y0.734
X1.5834 Y0.7226
X1.5984 Y0.7115
X1.6157 Y0.7008
X1.6348 Y0.6909
X1.655 Y0.6825
X1.6765 Y0.6755
X1.6985 Y0.6702
X1.721 Y0.6667
X1.7423 Y0.6651
X1.762 Y0.6652
X1.7787 Y0.6666
X1.795 Y0.6694
X1.8088 Y0.6729
X1.8154 Y0.6751
X1.8264 Y0.6801
X1.8361 Y0.6873
X1.8441 Y0.6963
X1.8501 Y0.7068
X1.8538 Y0.7183
X1.855 Y0.7303
Y0.8108
G3 X1.8319 Y0.8349 I-0.025 J-0.0009
G1 X1.5469 Y0.8564
G3 X1.52 Y0.8323 I-0.0019 J-0.0249
G1 Y0.7526
X1.5204 Y0.745
X1.5214 Y0.7371
X1.5232 Y0.7286
X1.526 Y0.7194
X1.5298 Y0.7095
X1.5349 Y0.6991
X1.5413 Y0.6882
X1.5494 Y0.6767
X1.5587 Y0.6654
X1.5704 Y0.6535
X1.5834 Y0.6421
X1.5984 Y0.6311
X1.6157 Y0.6203
X1.6348 Y0.6105
X1.655 Y0.602
X1.6765 Y0.595
X1.6985 Y0.5897
X1.721 Y0.5862
X1.7423 Y0.5846
X1.762 Y0.5847
X1.7787 Y0.5862
X1.795 Y0.5889
X1.8088 Y0.5924
X1.8227 Y0.5971
X1.8255 Y0.5983
