%
(CClampHolderRight)
(T1  D=0.25 CR=0 - ZMIN=-0.5 - flat end mill)
G90
G17
G20
G28 G91 Z0
G90

(2D Adaptive2)
M9
T1 M6
S1800 M3
G54
M9
G0 X1.2667 Y-0.2842
Z0.6
Z0.2
Z-0.1496
G1 Z-0.1746 F30
X1.2668 Y-0.2839 Z-0.1785
X1.267 Y-0.283 Z-0.1823
X1.2674 Y-0.2816 Z-0.186
X1.2679 Y-0.2796 Z-0.1893
X1.2685 Y-0.2771 Z-0.1923
X1.2693 Y-0.2743 Z-0.1948
X1.2701 Y-0.271 Z-0.1969
X1.271 Y-0.2675 Z-0.1984
X1.272 Y-0.2638 Z-0.1993
X1.2729 Y-0.26 Z-0.1996
G3 X1.2925 Y-0.1239 I-0.6183 J0.1584
G1 Y-0.1111 F40
X1.2924 Y-0.1096
X1.2884 Y-0.1046
X1.2829 Y-0.0989
X1.2758 Y-0.0926
X1.2667 Y-0.0856
X1.2549 Y-0.0781
X1.2398 Y-0.0701
X1.2201 Y-0.0617
X1.1939 Y-0.0528
X1.1571 Y-0.0436
X1.1187 Y-0.0372
X1.0799 Y-0.0328
X1.041 Y-0.0299
X1.0021 Y-0.0279
X0.9631 Y-0.0266
X0.9241 Y-0.0257
X0.8918 Y-0.0252
X0.8786 Y-0.0265
X0.8661 Y-0.0307
X0.8549 Y-0.0376
X0.8455 Y-0.0468
X0.8384 Y-0.058
X0.834 Y-0.0704
X0.8325 Y-0.0835
G3 X0.8347 Y-0.093 I0.025 J0.0009 F30
X0.8558 Y-0.1076 I0.0227 J0.0104 F40
G1 X1.2658 Y-0.1351
G3 X1.2903 Y-0.1206 I0.0017 J0.0249
X1.2925 Y-0.1111 I-0.0227 J0.0104 F30
G1 Y-0.0796 F40
X1.2922 Y-0.0736
X1.2899 Y-0.0668
X1.2869 Y-0.06
X1.2827 Y-0.0521
X1.2773 Y-0.0437
X1.2707 Y-0.0351
X1.2619 Y-0.0253
X1.2516 Y-0.0156
X1.2391 Y-0.0055
X1.2234 Y0.0052
X1.2047 Y0.0158
X1.1813 Y0.0267
X1.1514 Y0.0379
X1.1138 Y0.0485
X1.0756 Y0.0562
X1.037 Y0.0618
X0.9983 Y0.0659
X0.9609 Y0.0684
X0.9353 Y0.0681
X0.9156 Y0.0662
X0.8973 Y0.063
X0.8818 Y0.059
X0.8717 Y0.0555
X0.8608 Y0.0504
X0.8512 Y0.0432
X0.8433 Y0.0342
X0.8374 Y0.0237
X0.8337 Y0.0123
X0.8325 Y0.0004
G3 X0.8347 Y-0.0091 I0.025 J0.0009 F30
X0.8527 Y-0.0233 I0.0227 J0.0104 F40
G1 X1.2627 Y-0.1033
G3 X1.2903 Y-0.0891 I0.0048 J0.0245
X1.2925 Y-0.0796 I-0.0227 J0.0104 F30
G1 Y-0.0264 F40
X1.2922 Y-0.0205
X1.2912 Y-0.0133
X1.2896 Y-0.006
X1.2869 Y0.0025
X1.2835 Y0.0112
X1.2786 Y0.0208
X1.2725 Y0.031
X1.2649 Y0.0417
X1.255 Y0.0534
X1.2437 Y0.0647
X1.2287 Y0.0776
X1.2122 Y0.0896
X1.1908 Y0.1026
X1.1658 Y0.1152
X1.1344 Y0.128
X1.0972 Y0.1397
X1.0593 Y0.1487
X1.0208 Y0.155
X0.9865 Y0.1579
X0.9554 Y0.1581
X0.9291 Y0.1561
X0.9083 Y0.1528
X0.8895 Y0.1483
X0.8741 Y0.1433
X0.8683 Y0.1408
X0.8583 Y0.1354
X0.8495 Y0.1282
X0.8423 Y0.1194
X0.8369 Y0.1093
X0.8336 Y0.0984
X0.8325 Y0.087
Y0.0004
G3 X0.8347 Y-0.0091 I0.025 J0.0009 F30
X0.8559 Y-0.0237 I0.0227 J0.0104 F40
G1 X1.2659 Y-0.0505
G3 X1.2903 Y-0.0359 I0.0016 J0.0249
X1.2925 Y-0.0264 I-0.0227 J0.0104 F30
G1 Y0.0484 F40
X1.2922 Y0.0548
X1.2912 Y0.0625
X1.2893 Y0.0713
X1.2866 Y0.0803
X1.2825 Y0.0907
X1.2775 Y0.1011
X1.2705 Y0.113
X1.2623 Y0.1247
X1.2515 Y0.1377
X1.2388 Y0.1507
X1.2229 Y0.1646
X1.2042 Y0.1784
X1.1809 Y0.1929
X1.155 Y0.2063
X1.1243 Y0.2191
X1.0906 Y0.2301
X1.0554 Y0.2385
X1.0204 Y0.244
X0.9869 Y0.2465
X0.9554 Y0.2463
X0.9294 Y0.2441
X0.9071 Y0.2403
X0.8887 Y0.2357
X0.873 Y0.2304
X0.8677 Y0.2281
X0.8578 Y0.2226
X0.8492 Y0.2154
X0.8421 Y0.2066
X0.8368 Y0.1966
X0.8336 Y0.1858
X0.8325 Y0.1745
Y0.087
G3 X0.8347 Y0.0775 I0.025 J0.0009 F30
X0.8551 Y0.063 I0.0227 J0.0104 F40
G1 X1.2652 Y0.0244
G3 X1.2903 Y0.0389 I0.0023 J0.0249
X1.2925 Y0.0484 I-0.0227 J0.0104 F30
G1 Y0.1282 F40
X1.292 Y0.1376
X1.291 Y0.1456
X1.289 Y0.155
X1.2861 Y0.1646
X1.2819 Y0.1755
X1.2762 Y0.1871
X1.2691 Y0.1993
X1.2598 Y0.2124
X1.2488 Y0.2257
X1.2349 Y0.2399
X1.2186 Y0.2542
X1.1993 Y0.2684
X1.1758 Y0.283
X1.1507 Y0.296
X1.1217 Y0.3081
X1.0896 Y0.3186
X1.0557 Y0.3267
X1.0216 Y0.3321
X0.9884 Y0.3345
X0.957 Y0.3344
X0.9302 Y0.332
X0.9076 Y0.3283
X0.8892 Y0.3236
X0.8732 Y0.3182
X0.8677 Y0.3158
X0.8578 Y0.3104
X0.8492 Y0.3031
X0.8421 Y0.2943
X0.8368 Y0.2843
X0.8336 Y0.2735
X0.8325 Y0.2623
Y0.1745
G3 X0.8347 Y0.165 I0.025 J0.0009 F30
X0.8547 Y0.1506 I0.0227 J0.0104 F40
G1 X1.2647 Y0.1042
G3 X1.2903 Y0.1187 I0.0028 J0.0248
X1.2925 Y0.1282 I-0.0227 J0.0104 F30
G1 Y0.2168 F40
X1.2922 Y0.2234
X1.2911 Y0.2319
X1.289 Y0.2413
X1.2859 Y0.2517
X1.2817 Y0.2625
X1.2757 Y0.2748
X1.2686 Y0.287
X1.259 Y0.3006
X1.2479 Y0.314
X1.2338 Y0.3284
X1.2175 Y0.3427
X1.1982 Y0.3569
X1.1749 Y0.3714
X1.1498 Y0.3844
X1.1213 Y0.3963
X1.0897 Y0.4066
X1.0561 Y0.4147
X1.0221 Y0.42
X0.9889 Y0.4225
X0.9575 Y0.4223
X0.9305 Y0.42
X0.9078 Y0.4161
X0.8893 Y0.4115
X0.8734 Y0.4061
X0.8677 Y0.4036
X0.8578 Y0.3982
X0.8492 Y0.3909
X0.8421 Y0.3821
X0.8368 Y0.3721
X0.8336 Y0.3613
X0.8325 Y0.3501
Y0.2623
G3 X0.8347 Y0.2528 I0.025 J0.0009 F30
X0.8547 Y0.2383 I0.0227 J0.0104 F40
G1 X1.2648 Y0.1928
G3 X1.2903 Y0.2073 I0.0028 J0.0248
X1.2925 Y0.2168 I-0.0227 J0.0104 F30
G1 Y0.3054 F40
X1.2922 Y0.3114
X1.291 Y0.32
X1.289 Y0.3295
X1.2858 Y0.3401
X1.2814 Y0.351
X1.2754 Y0.3634
X1.2681 Y0.3757
X1.2584 Y0.3894
X1.2471 Y0.4028
X1.2329 Y0.4172
X1.2163 Y0.4316
X1.1971 Y0.4457
X1.1737 Y0.4601
X1.1483 Y0.4731
X1.1199 Y0.4848
X1.0884 Y0.495
X1.0548 Y0.5029
X1.0207 Y0.5081
X0.9875 Y0.5104
X0.9561 Y0.5101
X0.9295 Y0.5077
X0.907 Y0.5038
X0.8885 Y0.4991
X0.8727 Y0.4936
X0.8675 Y0.4914
X0.8577 Y0.4859
X0.8491 Y0.4786
X0.842 Y0.4699
X0.8368 Y0.4599
X0.8336 Y0.4491
X0.8325 Y0.4379
Y0.3501
G3 X0.8347 Y0.3406 I0.025 J0.0009 F30
X0.8548 Y0.3261 I0.0227 J0.0104 F40
G1 X1.2648 Y0.2814
G3 X1.2903 Y0.2959 I0.0027 J0.0249
X1.2925 Y0.3054 I-0.0227 J0.0104 F30
G1 Y0.39 F40
X1.292 Y0.399
X1.2909 Y0.4078
X1.2889 Y0.4171
X1.2857 Y0.4277
X1.2815 Y0.4385
X1.2755 Y0.4509
X1.2683 Y0.4631
X1.2587 Y0.4768
X1.2476 Y0.4901
X1.2335 Y0.5047
X1.2173 Y0.5188
X1.198 Y0.533
X1.1748 Y0.5474
X1.15 Y0.5603
X1.1216 Y0.5721
X1.09 Y0.5824
X1.0565 Y0.5905
X1.0226 Y0.5958
X0.9894 Y0.5983
X0.958 Y0.5981
X0.9307 Y0.5957
X0.908 Y0.5919
X0.8895 Y0.5872
X0.8734 Y0.5818
X0.8677 Y0.5793
X0.8578 Y0.5739
X0.8492 Y0.5666
X0.8421 Y0.5578
X0.8368 Y0.5478
X0.8336 Y0.537
X0.8325 Y0.5258
Y0.4379
G3 X0.8347 Y0.4284 I0.025 J0.0009 F30
X0.8546 Y0.414 I0.0227 J0.0104 F40
G1 X1.2646 Y0.366
G3 X1.2903 Y0.3805 I0.0029 J0.0248
X1.2925 Y0.39 I-0.0227 J0.0104 F30
G1 Y0.4786 F40
X1.2921 Y0.487
X1.2909 Y0.4956
X1.2889 Y0.505
X1.2858 Y0.5156
X1.2815 Y0.5264
X1.2755 Y0.5388
X1.2683 Y0.551
X1.2587 Y0.5647
X1.2477 Y0.5781
X1.2336 Y0.5925
X1.2172 Y0.6067
X1.1981 Y0.6209
X1.1749 Y0.6353
X1.1499 Y0.6483
X1.1216 Y0.6601
X1.0902 Y0.6703
X1.0567 Y0.6784
X1.0227 Y0.6837
X0.9895 Y0.6862
X0.958 Y0.686
X0.9308 Y0.6836
X0.908 Y0.6798
X0.8895 Y0.6751
X0.8734 Y0.6697
X0.8677 Y0.6672
X0.8578 Y0.6618
X0.8492 Y0.6545
X0.8421 Y0.6457
X0.8368 Y0.6357
X0.8336 Y0.6249
X0.8325 Y0.6137
Y0.5258
G3 X0.8347 Y0.5163 I0.025 J0.0009 F30
X0.8546 Y0.5018 I0.0227 J0.0104 F40
G1 X1.2647 Y0.4546
G3 X1.2903 Y0.4691 I0.0029 J0.0248
X1.2925 Y0.4786 I-0.0227 J0.0104 F30
G1 Y0.5672 F40
X1.2921 Y0.5749
X1.291 Y0.5836
X1.289 Y0.593
X1.2858 Y0.6035
X1.2816 Y0.6144
X1.2756 Y0.6267
X1.2684 Y0.6389
X1.2588 Y0.6527
X1.2477 Y0.666
X1.2336 Y0.6804
X1.2173 Y0.6947
X1.1982 Y0.7088
X1.175 Y0.7232
X1.15 Y0.7361
X1.1217 Y0.748
X1.0903 Y0.7582
X1.0568 Y0.7663
X1.0228 Y0.7716
X0.9895 Y0.774
X0.958 Y0.7739
X0.9309 Y0.7715
X0.9081 Y0.7677
X0.8895 Y0.763
X0.8735 Y0.7576
X0.8677 Y0.7551
X0.8578 Y0.7496
X0.8492 Y0.7424
X0.8421 Y0.7336
X0.8368 Y0.7236
X0.8336 Y0.7128
X0.8325 Y0.7015
Y0.6137
G3 X0.8347 Y0.6042 I0.025 J0.0009 F30
X0.8547 Y0.5897 I0.0227 J0.0104 F40
G1 X1.2647 Y0.5432
G3 X1.2903 Y0.5577 I0.0028 J0.0248
X1.2925 Y0.5672 I-0.0227 J0.0104 F30
G1 Y0.651 F40
X1.2919 Y0.663
X1.2908 Y0.6717
X1.2888 Y0.6811
X1.2856 Y0.6916
X1.2814 Y0.7024
X1.2754 Y0.7148
X1.2682 Y0.727
X1.2586 Y0.7406
X1.2475 Y0.754
X1.2335 Y0.7684
X1.2171 Y0.7826
X1.1981 Y0.7967
X1.1749 Y0.8111
X1.1499 Y0.8241
X1.1217 Y0.8359
X1.0903 Y0.8461
X1.0568 Y0.8541
X1.0228 Y0.8595
X0.9895 Y0.8619
X0.958 Y0.8618
X0.9309 Y0.8594
X0.9081 Y0.8556
X0.8895 Y0.8509
X0.8735 Y0.8455
X0.8677 Y0.843
X0.8578 Y0.8375
X0.8492 Y0.8303
X0.8421 Y0.8215
X0.8368 Y0.8115
X0.8336 Y0.8007
X0.8325 Y0.7894
Y0.7015
G3 X0.8347 Y0.692 I0.025 J0.0009 F30
X0.8544 Y0.6776 I0.0227 J0.0104 F40
G1 X1.2645 Y0.627
G3 X1.2903 Y0.6415 I0.0031 J0.0248
X1.2925 Y0.651 I-0.0227 J0.0104 F30
G1 Y0.7396 F40
X1.2919 Y0.7508
X1.2908 Y0.7595
X1.2888 Y0.7689
X1.2856 Y0.7795
X1.2814 Y0.7903
X1.2754 Y0.8026
X1.2682 Y0.8148
X1.2586 Y0.8285
X1.2475 Y0.8419
X1.2335 Y0.8563
X1.2171 Y0.8705
X1.1981 Y0.8846
X1.175 Y0.899
X1.1499 Y0.912
X1.1217 Y0.9237
X1.0903 Y0.934
X1.0568 Y0.942
X1.0228 Y0.9473
X0.9895 Y0.9498
X0.958 Y0.9497
X0.9309 Y0.9473
X0.9081 Y0.9435
X0.8895 Y0.9388
X0.8735 Y0.9334
X0.8677 Y0.9309
X0.8578 Y0.9254
X0.8492 Y0.9182
X0.8421 Y0.9094
X0.8368 Y0.8994
X0.8336 Y0.8886
X0.8325 Y0.8773
Y0.7894
G3 X0.8347 Y0.7799 I0.025 J0.0009 F30
X0.8545 Y0.7655 I0.0227 J0.0104 F40
G1 X1.2645 Y0.7156
G3 X1.2903 Y0.7301 I0.003 J0.0248
X1.2925 Y0.7396 I-0.0227 J0.0104 F30
G1 Y0.8282 F40
X1.292 Y0.8387
X1.2908 Y0.8474
X1.2888 Y0.8568
X1.2857 Y0.8673
X1.2814 Y0.8782
X1.2755 Y0.8905
X1.2683 Y0.9027
X1.2586 Y0.9164
X1.2476 Y0.9298
X1.2335 Y0.9441
X1.2172 Y0.9584
X1.1981 Y0.9725
X1.175 Y0.9869
X1.1499 Y0.9998
X1.1217 Y1.0116
X1.0903 Y1.0219
X1.0568 Y1.0299
X1.0228 Y1.0352
X0.9896 Y1.0377
X0.958 Y1.0375
X0.9309 Y1.0352
X0.9081 Y1.0314
X0.8895 Y1.0267
X0.8735 Y1.0212
X0.8677 Y1.0188
X0.8578 Y1.0133
X0.8492 Y1.0061
X0.8421 Y0.9973
X0.8368 Y0.9873
X0.8336 Y0.9765
X0.8325 Y0.9652
Y0.8773
G3 X0.8347 Y0.8678 I0.025 J0.0009 F30
X0.8545 Y0.8534 I0.0227 J0.0104 F40
G1 X1.2645 Y0.8042
G3 X1.2903 Y0.8187 I0.003 J0.0248
X1.2925 Y0.8282 I-0.0227 J0.0104 F30
G1 Y0.9168 F40
X1.292 Y0.9266
X1.2909 Y0.9353
X1.2889 Y0.9447
X1.2857 Y0.9552
X1.2815 Y0.966
X1.2755 Y0.9784
X1.2683 Y0.9906
X1.2587 Y1.0043
X1.2476 Y1.0177
X1.2336 Y1.032
X1.2172 Y1.0463
X1.1981 Y1.0604
X1.175 Y1.0748
X1.15 Y1.0877
X1.1217 Y1.0995
X1.0903 Y1.1098
X1.0568 Y1.1178
X1.0228 Y1.1231
X0.9896 Y1.1256
X0.958 Y1.1254
X0.9309 Y1.1231
X0.9081 Y1.1193
X0.8895 Y1.1146
X0.8735 Y1.1091
X0.8585 Y1.1027
X0.8567 Y1.1017
X0.8462 Y1.0946
X0.8375 Y1.0854
X0.831 Y1.0745
X0.827 Y1.0625
X0.8257 Y1.0499
X0.8271 Y1.0373
X0.8312 Y1.0192
X0.8323 Y0.9965
X0.8325 Y0.9877
Y0.9652
G3 X0.8347 Y0.9557 I0.025 J0.0009 F30
X0.8546 Y0.9413 I0.0227 J0.0104 F40
G1 X1.2646 Y0.8928
G3 X1.2903 Y0.9073 I0.0029 J0.0248
X1.2925 Y0.9168 I-0.0227 J0.0104 F30
G1 Y0.9877 F40
X1.2927 Y0.9965
X1.293 Y1.0014
X1.2929 Y1.0091
X1.2922 Y1.0176
X1.2908 Y1.0263
X1.2883 Y1.0364
X1.2848 Y1.0469
X1.2798 Y1.0585
X1.2734 Y1.0708
X1.2652 Y1.0837
X1.255 Y1.0972
X1.2425 Y1.1114
X1.2279 Y1.1253
X1.2097 Y1.1402
X1.1898 Y1.154
X1.166 Y1.1677
X1.1385 Y1.1808
X1.1088 Y1.1921
X1.0772 Y1.2013
X1.0433 Y1.2083
X1.0091 Y1.2125
X0.9764 Y1.2139
X0.9465 Y1.2127
X0.9187 Y1.2094
X0.8967 Y1.205
X0.8784 Y1.1997
X0.8617 Y1.1934
X0.8478 Y1.1869
X0.8345 Y1.1793
X0.8233 Y1.1716
X0.8126 Y1.163
X0.812 Y1.1624
X0.8042 Y1.1532
X0.7984 Y1.1426
X0.7948 Y1.1311
X0.7937 Y1.1191
X0.795 Y1.1071
X0.7988 Y1.0956
X0.8048 Y1.0851
G3 X0.8121 Y1.0787 I0.0198 J0.0153 F30
X0.8192 Y1.076 I0.0124 J0.0217 F40
G1 X1.2627 Y0.979
G3 X1.2903 Y0.992 I0.0053 J0.0244
X1.293 Y1.0014 I-0.0222 J0.0114 F30
G1 X1.2938 Y1.0192 F40
X1.2987 Y1.0408
X1.301 Y1.0485
X1.3015 Y1.0497
X1.3036 Y1.0559
X1.3051 Y1.0618
X1.3061 Y1.0681
X1.3068 Y1.0757
Y1.0837
X1.3061 Y1.093
X1.3046 Y1.1026
X1.302 Y1.1137
X1.2983 Y1.125
X1.293 Y1.1377
X1.2864 Y1.1504
X1.2776 Y1.1647
X1.2673 Y1.1785
X1.2539 Y1.1939
X1.2387 Y1.2087
X1.2205 Y1.2239
X1.1985 Y1.2393
X1.1748 Y1.2533
X1.1475 Y1.2666
X1.1166 Y1.2786
X1.0833 Y1.2886
X1.0487 Y1.296
X1.0138 Y1.3006
X0.9799 Y1.3023
X0.948 Y1.3013
X0.9181 Y1.298
X0.891 Y1.2927
X0.8663 Y1.2859
X0.8436 Y1.2775
X0.8252 Y1.2691
X0.8098 Y1.2604
X0.7959 Y1.251
X0.7844 Y1.2419
X0.7736 Y1.2317
X0.7647 Y1.222
X0.7565 Y1.2113
X0.7498 Y1.201
X0.748 Y1.1977
X0.7433 Y1.1862
X0.7411 Y1.1739
X0.7415 Y1.1614
X0.7446 Y1.1493
X0.7502 Y1.1382
X0.758 Y1.1284
X0.7677 Y1.1206
G3 X0.7765 Y1.1174 I0.0128 J0.0215 F30
G1 X0.7769 Y1.1173
X1.2745 Y1.035 F40
G3 X1.2959 Y1.0417 I0.0041 J0.0247
X1.3015 Y1.0497 I-0.0173 J0.018 F30
G1 X1.305 Y1.0585 F40
X1.3099 Y1.0687
X1.3187 Y1.083
X1.3202 Y1.0851
X1.3223 Y1.0878
X1.3258 Y1.0927
X1.3288 Y1.0979
X1.3313 Y1.1036
X1.3335 Y1.1097
X1.3355 Y1.1171
X1.3369 Y1.1249
X1.3378 Y1.134
X1.338 Y1.1435
X1.3374 Y1.1546
X1.3358 Y1.1659
X1.3329 Y1.1788
X1.3289 Y1.1918
X1.3231 Y1.2062
X1.3157 Y1.2211
X1.3063 Y1.2368
X1.2944 Y1.2535
X1.2808 Y1.2696
X1.2639 Y1.2866
X1.2437 Y1.3039
X1.2216 Y1.3199
X1.1954 Y1.3359
X1.1655 Y1.351
X1.1326 Y1.3644
X1.098 Y1.3753
X1.0617 Y1.3837
X1.0244 Y1.3892
X0.987 Y1.3916
X0.9508 Y1.3911
X0.9162 Y1.3878
X0.8839 Y1.3821
X0.854 Y1.3743
X0.8266 Y1.3647
X0.8022 Y1.3539
X0.7804 Y1.3421
X0.7603 Y1.329
X0.7425 Y1.3153
X0.7281 Y1.3021
X0.7162 Y1.2895
X0.7061 Y1.2767
X0.6979 Y1.2645
X0.6909 Y1.252
X0.6853 Y1.2399
X0.6808 Y1.2278
X0.6775 Y1.2156
X0.6762 Y1.209
X0.6752 Y1.1965
X0.6768 Y1.1841
X0.6811 Y1.1723
X0.6878 Y1.1617
X0.6965 Y1.1528
X0.707 Y1.146
X0.7187 Y1.1415
X0.7268 Y1.1394
G3 X0.7297 Y1.139 I0.0055 J0.0244 F30
G1 X0.7365 Y1.1382
X1.3006 Y1.0791 F40
G3 X1.3147 Y1.0817 I0.0026 J0.0249
X1.3223 Y1.0878 I-0.0115 J0.0222 F30
G1 X1.3272 Y1.094 F40
X1.3364 Y1.1031
X1.3452 Y1.1117
X1.3501 Y1.1154
X1.3546 Y1.1193
X1.3589 Y1.1236
X1.3627 Y1.1282
X1.3662 Y1.1334
X1.3696 Y1.1394
X1.3729 Y1.1462
X1.3758 Y1.154
X1.3783 Y1.1628
X1.3802 Y1.1723
X1.3816 Y1.1833
X1.382 Y1.1946
X1.3815 Y1.2077
X1.3798 Y1.2212
X1.3768 Y1.2359
X1.3722 Y1.2518
X1.366 Y1.268
X1.3575 Y1.2859
X1.3472 Y1.3038
X1.3345 Y1.3222
X1.3185 Y1.3418
X1.3001 Y1.3609
X1.2787 Y1.3799
X1.2532 Y1.3991
X1.2239 Y1.4177
X1.1922 Y1.4344
X1.1579 Y1.4491
X1.1209 Y1.4615
X1.0831 Y1.471
X1.0446 Y1.4776
X1.0058 Y1.4813
X0.9669 Y1.4822
X0.9279 Y1.4801
X0.8893 Y1.475
X0.8526 Y1.4672
X0.8182 Y1.4569
X0.7861 Y1.4443
X0.7569 Y1.4302
X0.7311 Y1.415
X0.7079 Y1.3987
X0.6873 Y1.3815
X0.6692 Y1.3638
X0.6594 Y1.3526
X0.6532 Y1.3441
X0.6487 Y1.3347
X0.6459 Y1.3246
X0.645 Y1.3142
Y1.1737
Y1.1693
X0.6452 Y1.1671
X0.6456 Y1.1649
X0.6463 Y1.1624
X0.6473 Y1.16
X0.6483 Y1.158
X0.6496 Y1.156
X0.6511 Y1.1541
X0.6529 Y1.1522
X0.6561 Y1.1496
X0.6583 Y1.1482
X0.6604 Y1.1472
X0.6627 Y1.1463
X0.665 Y1.1456
X0.6672 Y1.1452
X0.6694 Y1.145
X0.6738
X0.6826 Y1.1449
X0.7003 Y1.1443
X0.7091 Y1.1432
X0.718 Y1.1417
X0.7187 Y1.1415
G3 X0.723 Y1.141 I0.0055 J0.0244 F30
G1 X0.7285 Y1.1407
X1.3344 Y1.1109 F40
G3 X1.3411 Y1.1114 I0.0012 J0.025
X1.3501 Y1.1154 I-0.0056 J0.0244 F30
G1 X1.354 Y1.1185 F40
X1.3573 Y1.1206
X1.3629 Y1.124
X1.3717 Y1.1291
X1.3805 Y1.1332
X1.3832 Y1.1342
X1.3887 Y1.1367
X1.3938 Y1.1398
X1.3986 Y1.1433
X1.4034 Y1.1476
X1.4079 Y1.1524
X1.4127 Y1.1582
X1.4172 Y1.1648
X1.4215 Y1.1724
X1.4256 Y1.1811
X1.4292 Y1.1907
X1.4324 Y1.2017
X1.4347 Y1.2133
X1.4363 Y1.2267
X1.4368 Y1.2408
X1.4362 Y1.256
X1.4341 Y1.273
X1.4306 Y1.2901
X1.4251 Y1.3089
X1.4174 Y1.3291
X1.4079 Y1.3491
X1.3956 Y1.3704
X1.38 Y1.3929
X1.3621 Y1.4148
X1.3407 Y1.4371
X1.3154 Y1.4596
X1.2861 Y1.4815
X1.2536 Y1.5021
X1.219 Y1.5203
X1.1832 Y1.5356
X1.1463 Y1.5483
X1.1087 Y1.5584
X1.0704 Y1.566
X1.0317 Y1.571
X0.9928 Y1.5736
X0.9539
X0.915 Y1.5709
X0.8763 Y1.5656
X0.8382 Y1.5576
X0.8007 Y1.5469
X0.7641 Y1.5335
X0.7287 Y1.5173
X0.6961 Y1.4991
X0.6684 Y1.4806
X0.6671 Y1.4796
X0.6578 Y1.4703
X0.6508 Y1.4592
X0.6465 Y1.4469
X0.645 Y1.4338
Y1.3142
G3 X0.6472 Y1.3047 I0.025 J0.0009 F30
X0.6645 Y1.2907 I0.0227 J0.0104 F40
G1 X1.3697 Y1.1335
G3 X1.3735 Y1.133 I0.0054 J0.0244
X1.3832 Y1.1342 I0.0016 J0.0249 F30
G1 X1.3894 Y1.1366 F40
X1.3941 Y1.1383
X1.3982 Y1.1394
X1.407 Y1.1417
X1.4159 Y1.1432
X1.4185 Y1.1436
X1.4245 Y1.1446
X1.4302 Y1.1463
X1.4358 Y1.1485
X1.4412 Y1.1513
X1.4466 Y1.1547
X1.4525 Y1.1591
X1.4583 Y1.1642
X1.4642 Y1.1702
X1.4666 Y1.1731
X1.4723 Y1.1813
X1.4765 Y1.1905
X1.4791 Y1.2002
X1.48 Y1.2103
G3 X1.4778 Y1.2198 I-0.025 J-0.0009 F30
X1.4368 Y1.2266 I-0.0227 J-0.0104 F40
G1 X1.3982 Y1.1856
G3 X1.4088 Y1.1446 I0.0182 J-0.0172
X1.4185 Y1.1436 I0.0075 J0.0238 F30
G1 X1.4247 Y1.1443 F40
X1.4424 Y1.1449
X1.4512 Y1.145
X1.4556
X1.4578 Y1.1452
X1.46 Y1.1456
X1.4623 Y1.1463
X1.4646 Y1.1472
X1.4667 Y1.1482
X1.4689 Y1.1496
X1.4721 Y1.1522
X1.4739 Y1.1541
X1.4754 Y1.156
X1.4767 Y1.158
X1.4777 Y1.16
X1.4787 Y1.1624
X1.4794 Y1.1649
X1.4798 Y1.1671
X1.48 Y1.1693
Y1.1826
Y1.3155
X1.4792 Y1.3318
X1.477 Y1.3482
X1.4733 Y1.3655
X1.4677 Y1.3841
X1.4597 Y1.4047
X1.4498 Y1.4252
X1.4364 Y1.4479
X1.4198 Y1.4715
X1.4006 Y1.4947
X1.3768 Y1.5191
X1.3487 Y1.5436
X1.3174 Y1.5668
X1.2843 Y1.5874
X1.2498 Y1.6055
X1.214 Y1.6211
X1.1773 Y1.6343
X1.1399 Y1.6452
X1.1019 Y1.6538
X1.0634 Y1.6602
X1.0246 Y1.6644
X0.9857 Y1.6663
X0.9467 Y1.6659
X0.9078 Y1.6631
X0.8692 Y1.658
X0.8309 Y1.6506
X0.7931 Y1.6409
X0.756 Y1.6289
X0.7198 Y1.6146
X0.689 Y1.5998
X0.674 Y1.5911
X0.6642 Y1.5839
X0.6561 Y1.5749
X0.65 Y1.5643
X0.6463 Y1.5528
X0.645 Y1.5407
Y1.4338
G3 X0.6472 Y1.4243 I0.025 J0.0009 F30
X0.6663 Y1.41 I0.0227 J0.0104 F40
G1 X1.4513 Y1.2917
G3 X1.4778 Y1.306 I0.0037 J0.0247
X1.48 Y1.3155 I-0.0227 J0.0104 F30
G1 Y1.4484 F40
X1.4795 Y1.4591
X1.478 Y1.4706
X1.475 Y1.4843
X1.4709 Y1.4982
X1.4646 Y1.5143
X1.4564 Y1.5312
X1.4454 Y1.55
X1.4317 Y1.5694
X1.4138 Y1.5909
X1.3936 Y1.6117
X1.3684 Y1.6337
X1.3382 Y1.656
X1.3051 Y1.6766
X1.2705 Y1.6947
X1.2348 Y1.7104
X1.1982 Y1.7238
X1.1609 Y1.735
X1.1229 Y1.744
X1.0846 Y1.7509
X1.0459 Y1.7558
X1.007 Y1.7587
X0.968 Y1.7595
X0.929 Y1.7582
X0.8902 Y1.755
X0.8516 Y1.7496
X0.8133 Y1.7422
X0.7755 Y1.7327
X0.7382 Y1.7211
X0.7038 Y1.7081
X0.6817 Y1.6977
X0.6743 Y1.6934
X0.6644 Y1.6863
X0.6562 Y1.6772
X0.6501 Y1.6666
X0.6463 Y1.655
X0.645 Y1.6428
Y1.5407
G3 X0.6472 Y1.5312 I0.025 J0.0009 F30
X0.6671 Y1.5167 I0.0227 J0.0104 F40
G1 X1.4521 Y1.4245
G3 X1.4778 Y1.4389 I0.0029 J0.0248
X1.48 Y1.4484 I-0.0227 J0.0104 F30
G1 Y1.5547 F40
X1.4793 Y1.569
X1.4778 Y1.5801
X1.4754 Y1.5914
X1.4714 Y1.6049
X1.466 Y1.6187
X1.4584 Y1.6343
X1.4486 Y1.651
X1.4361 Y1.6688
X1.4206 Y1.6875
X1.4007 Y1.7079
X1.3778 Y1.7279
X1.3495 Y1.7488
X1.3164 Y1.7694
X1.2818 Y1.7874
X1.246 Y1.8029
X1.2093 Y1.8161
X1.172 Y1.8273
X1.1341 Y1.8364
X1.0957 Y1.8435
X1.0571 Y1.8486
X1.0182 Y1.8518
X0.9792 Y1.8531
X0.9403 Y1.8526
X0.9013 Y1.8502
X0.8626 Y1.846
X0.824 Y1.84
X0.7859 Y1.8322
X0.7481 Y1.8224
X0.7138 Y1.8113
X0.6901 Y1.8015
X0.6768 Y1.7946
X0.6661 Y1.7876
X0.6572 Y1.7784
X0.6505 Y1.7675
X0.6464 Y1.7554
X0.645 Y1.7427
Y1.6428
G3 X0.6472 Y1.6334 I0.025 J0.0009 F30
X0.6672 Y1.6189 I0.0227 J0.0104 F40
G1 X1.4522 Y1.5308
G3 X1.4778 Y1.5452 I0.0028 J0.0248
X1.48 Y1.5547 I-0.0227 J0.0104 F30
G1 Y1.6611 F40
X1.4794 Y1.6724
X1.4781 Y1.6822
X1.4757 Y1.6936
X1.4719 Y1.7062
X1.4668 Y1.7193
X1.4594 Y1.7346
X1.4505 Y1.7496
X1.4381 Y1.7673
X1.424 Y1.7844
X1.4052 Y1.8036
X1.3829 Y1.8231
X1.3561 Y1.8429
X1.3234 Y1.8632
X1.2888 Y1.8811
X1.253 Y1.8965
X1.2162 Y1.9096
X1.1788 Y1.9206
X1.1409 Y1.9297
X1.1026 Y1.9368
X1.0639 Y1.942
X1.0251 Y1.9454
X0.9861 Y1.9471
X0.9472 Y1.947
X0.9082 Y1.9453
X0.8694 Y1.9418
X0.8307 Y1.9367
X0.7923 Y1.93
X0.7543 Y1.9214
X0.7185 Y1.9109
X0.6948 Y1.9018
X0.6751 Y1.8924
X0.6741 Y1.8918
X0.6642 Y1.8847
X0.6561 Y1.8756
X0.65 Y1.8651
X0.6463 Y1.8535
X0.645 Y1.8414
Y1.7427
G3 X0.6472 Y1.7332 I0.025 J0.0009 F30
X0.6674 Y1.7187 I0.0227 J0.0104 F40
G1 X1.4524 Y1.6371
G3 X1.4778 Y1.6516 I0.0026 J0.0249
X1.48 Y1.6611 I-0.0227 J0.0104 F30
G1 Y1.7585 F40
X1.4793 Y1.7724
X1.4781 Y1.782
X1.4756 Y1.7933
X1.4721 Y1.805
X1.467 Y1.8182
X1.4601 Y1.8325
X1.4513 Y1.8474
X1.4394 Y1.8643
X1.4256 Y1.881
X1.4076 Y1.8993
X1.3857 Y1.9185
X1.36 Y1.9375
X1.3282 Y1.9573
X1.2936 Y1.9751
X1.2577 Y1.9905
X1.221 Y2.0035
X1.1836 Y2.0144
X1.1456 Y2.0234
X1.1073 Y2.0305
X1.0687 Y2.0359
X1.0298 Y2.0394
X0.9909 Y2.0414
X0.9519 Y2.0416
X0.9129 Y2.0403
X0.874 Y2.0375
X0.8353 Y2.0331
X0.7968 Y2.027
X0.7586 Y2.0192
X0.7221 Y2.0093
X0.6972 Y2.0003
X0.6782 Y1.9917
X0.6751 Y1.99
X0.6649 Y1.9829
X0.6565 Y1.9737
X0.6502 Y1.9631
X0.6463 Y1.9513
X0.645 Y1.939
Y1.8414
G3 X0.6472 Y1.8319 I0.025 J0.0009 F30
X0.6674 Y1.8174 I0.0227 J0.0104 F40
G1 X1.4524 Y1.7346
G3 X1.4778 Y1.749 I0.0026 J0.0249
X1.48 Y1.7585 I-0.0227 J0.0104 F30
G1 Y1.8609 F40
X1.4795 Y1.8701
X1.4792 Y1.8761
X1.4785 Y1.882
X1.4776 Y1.8879
X1.4763 Y1.8938
X1.4749 Y1.8996
X1.4731 Y1.9054
X1.4712 Y1.9111
X1.469 Y1.9167
X1.4667 Y1.9222
X1.4642 Y1.9276
X1.4615 Y1.933
X1.4586 Y1.9383
X1.4556 Y1.9435
X1.4525 Y1.9486
X1.4492 Y1.9536
X1.4458 Y1.9585
X1.4423 Y1.9634
X1.4386 Y1.9681
X1.4348 Y1.9728
X1.431 Y1.9774
X1.427 Y1.9819
X1.423 Y1.9863
X1.4188 Y1.9907
X1.4146 Y1.9949
X1.4103 Y1.9991
X1.4059 Y2.0032
X1.4014 Y2.0072
X1.3969 Y2.0111
X1.3923 Y2.015
X1.3877 Y2.0188
X1.3829 Y2.0225
X1.3782 Y2.0261
X1.3733 Y2.0297
X1.3684 Y2.0332
X1.3635 Y2.0366
X1.3585 Y2.0399
X1.3535 Y2.0432
X1.3484 Y2.0464
X1.3433 Y2.0495
X1.3382 Y2.0526
X1.333 Y2.0556
X1.3277 Y2.0586
X1.3225 Y2.0614
X1.3172 Y2.0643
X1.3119 Y2.067
X1.3065 Y2.0697
X1.3011 Y2.0723
X1.2957 Y2.0749
X1.2902 Y2.0774
X1.2848 Y2.0799
X1.2793 Y2.0823
X1.2737 Y2.0847
X1.2682 Y2.087
X1.2626 Y2.0892
X1.257 Y2.0914
X1.2514 Y2.0935
X1.2458 Y2.0956
X1.2402 Y2.0976
X1.2345 Y2.0996
X1.2288 Y2.1015
X1.2231 Y2.1034
X1.2174 Y2.1052
X1.2117 Y2.107
X1.2059 Y2.1087
X1.2002 Y2.1104
X1.1944 Y2.1121
X1.1886 Y2.1137
X1.1828 Y2.1152
X1.177 Y2.1167
X1.1712 Y2.1181
X1.1652 Y2.1196
X1.1589 Y2.1211
X1.153 Y2.1224
X1.1471 Y2.1237
X1.1413 Y2.1249
X1.1354 Y2.1261
X1.1292 Y2.1272
X1.1227 Y2.1285
X1.1158 Y2.1297
X1.1099 Y2.1307
X1.104 Y2.1316
X1.098 Y2.1326
X1.0917 Y2.1335
X1.085 Y2.1344
X1.0778 Y2.1354
X1.0707 Y2.1363
X1.0647 Y2.137
X1.0585 Y2.1377
X1.052 Y2.1383
X1.0451 Y2.139
X1.0377 Y2.1396
X1.0299 Y2.1403
X1.0235 Y2.1407
X1.0171 Y2.1411
X1.0104 Y2.1415
X1.0032 Y2.1419
X0.9956 Y2.1422
X0.9874 Y2.1425
X0.9807 Y2.1427
X0.9741 Y2.1429
X0.9672 Y2.143
X0.9598
X0.9519
X0.9435 Y2.1429
X0.9369 Y2.1428
X0.9302 Y2.1427
X0.9231 Y2.1425
X0.9156 Y2.1422
X0.9075 Y2.1418
X0.8992 Y2.1414
X0.8928 Y2.141
X0.8863 Y2.1406
X0.8794 Y2.1401
X0.8721 Y2.1395
X0.8643 Y2.1388
X0.8561 Y2.138
X0.8499 Y2.1374
X0.844 Y2.1367
X0.838 Y2.136
X0.8316 Y2.1352
X0.8249 Y2.1343
X0.8178 Y2.1333
X0.8108 Y2.1322
X0.8048 Y2.1313
X0.7989 Y2.1303
X0.793 Y2.1293
X0.7871 Y2.1282
X0.7812 Y2.1271
X0.7753 Y2.1259
X0.7695 Y2.1247
X0.7636 Y2.1234
X0.7577 Y2.1221
X0.7519 Y2.1207
X0.7461 Y2.1192
X0.7403 Y2.1177
X0.7345 Y2.1161
X0.7287 Y2.1145
X0.723 Y2.1127
X0.7173 Y2.1109
X0.7116 Y2.109
X0.7059 Y2.1069
X0.7003 Y2.1048
X0.6948 Y2.1026
X0.6892 Y2.1003
X0.6838 Y2.0978
X0.6783 Y2.0952
X0.6771 Y2.0946
X0.6663 Y2.0876
X0.6573 Y2.0784
X0.6506 Y2.0674
X0.6464 Y2.0553
X0.645 Y2.0425
Y1.939
G3 X0.6472 Y1.9295 I0.025 J0.0009 F30
X0.6675 Y1.9149 I0.0227 J0.0104 F40
G1 X1.4525 Y1.8369
G3 X1.4778 Y1.8514 I0.0025 J0.0249
X1.48 Y1.8609 I-0.0227 J0.0104 F30
G1 Y1.9623 F40
X1.4795 Y1.9725
X1.4782 Y1.982
X1.476 Y1.9927
X1.4725 Y2.0043
X1.4676 Y2.0169
X1.4609 Y2.0306
X1.4523 Y2.0453
X1.4412 Y2.061
X1.4274 Y2.0777
X1.4102 Y2.0953
X1.3891 Y2.1137
X1.3763 Y2.1232
X1.3727 Y2.1256
X1.344 Y2.1448
X1.31 Y2.1638
X1.2745 Y2.18
X1.2654 Y2.1834
G3 X1.2557 Y2.1847 I-0.0079 J-0.0237 F30
X1.2399 Y2.142 I0.0018 J-0.0249 F40
G1 X1.4374 Y1.9455
G3 X1.4778 Y1.9528 I0.0176 J0.0177
X1.48 Y1.9623 I-0.0227 J0.0104 F30
G1 Y2.0598 F40
X1.4796 Y2.0682
X1.4792 Y2.0742
X1.4786 Y2.0802
X1.4776 Y2.0861
X1.4764 Y2.092
X1.4749 Y2.0978
X1.4731 Y2.1035
X1.4712 Y2.1092
X1.469 Y2.1148
X1.4666 Y2.1203
X1.464 Y2.1257
X1.4613 Y2.131
X1.4584 Y2.1363
X1.4546 Y2.1453
X1.4523 Y2.1548
X1.4517 Y2.1645
X1.4527 Y2.1742
X1.4553 Y2.1836
X1.4594 Y2.1924
X1.4645 Y2.1999
X1.4711 Y2.2085
X1.476 Y2.2182
X1.479 Y2.2287
X1.48 Y2.2395
G3 X1.4778 Y2.249 I-0.025 J-0.0009 F30
X1.43 Y2.2386 I-0.0227 J-0.0104 F40
G1 Y2.0607
G3 X1.4778 Y2.0503 I0.025 J0
X1.48 Y2.0598 I-0.0227 J0.0104 F30
G1 Y2.237 F40
G3 X1.4778 Y2.2465 I-0.025 J-0.0009 F30
X1.4633 Y2.2597 I-0.0227 J-0.0104 F40
G1 X0.697 Y2.5274
G3 X0.6646 Y2.51 I-0.0082 J-0.0236
X0.6454 Y2.3837 I0.6183 J-0.1584
X0.645 Y2.3739 I0.6374 J-0.0321 F30
G1 Y2.3611 F40
X0.6451 Y2.3596
X0.6485 Y2.3547
X0.6523 Y2.35
X0.6564 Y2.3456
X0.6608 Y2.3415
X0.6653 Y2.3376
X0.6721 Y2.3306
X0.6775 Y2.3225
X0.6815 Y2.3136
X0.684 Y2.3042
X0.6849 Y2.2945
X0.6842 Y2.2847
X0.6818 Y2.2753
X0.674 Y2.2574
X0.6603 Y2.2423
X0.6538 Y2.2337
X0.6489 Y2.2241
X0.646 Y2.2137
X0.645 Y2.203
Y2.0425
G3 X0.6472 Y2.033 I0.025 J0.0009 F30
X0.695 Y2.0434 I0.0227 J0.0104 F40
G1 Y2.2866
G3 X0.6472 Y2.297 I-0.025 J0
X0.645 Y2.2875 I0.0227 J-0.0104 F30
G1 Y2.203 F40
X0.6455 Y2.2009 Z-0.1994 F30
X0.6459 Y2.1989 Z-0.1986
X0.6463 Y2.1971 Z-0.1975
X0.6466 Y2.1956 Z-0.1959
X0.6468 Y2.1944 Z-0.1941
X0.6471 Y2.1937 Z-0.192
X0.6472 Y2.1935 Z-0.1898
G0 Z0.2
X1.2667 Y-0.2842
Z-0.3492
G1 Z-0.3742 F30
X1.2668 Y-0.2839 Z-0.3781
X1.267 Y-0.283 Z-0.3819
X1.2674 Y-0.2816 Z-0.3856
X1.2679 Y-0.2796 Z-0.3889
X1.2685 Y-0.2771 Z-0.3919
X1.2693 Y-0.2743 Z-0.3944
X1.2701 Y-0.271 Z-0.3965
X1.271 Y-0.2675 Z-0.398
X1.272 Y-0.2638 Z-0.3989
X1.2729 Y-0.26 Z-0.3992
G3 X1.2925 Y-0.1239 I-0.6183 J0.1584
G1 Y-0.1111 F40
X1.2924 Y-0.1096
X1.2884 Y-0.1046
X1.2829 Y-0.0989
X1.2758 Y-0.0926
X1.2667 Y-0.0856
X1.2549 Y-0.0781
X1.2398 Y-0.0701
X1.2201 Y-0.0617
X1.1939 Y-0.0528
X1.1571 Y-0.0436
X1.1187 Y-0.0372
X1.0799 Y-0.0328
X1.041 Y-0.0299
X1.0021 Y-0.0279
X0.9631 Y-0.0266
X0.9241 Y-0.0257
X0.8918 Y-0.0252
X0.8786 Y-0.0265
X0.8661 Y-0.0307
X0.8549 Y-0.0376
X0.8455 Y-0.0468
X0.8384 Y-0.058
X0.834 Y-0.0704
X0.8325 Y-0.0835
G3 X0.8347 Y-0.093 I0.025 J0.0009 F30
X0.8558 Y-0.1076 I0.0227 J0.0104 F40
G1 X1.2658 Y-0.1351
G3 X1.2903 Y-0.1206 I0.0017 J0.0249
X1.2925 Y-0.1111 I-0.0227 J0.0104 F30
G1 Y-0.0796 F40
X1.2922 Y-0.0736
X1.2899 Y-0.0668
X1.2869 Y-0.06
X1.2827 Y-0.0521
X1.2773 Y-0.0437
X1.2707 Y-0.0351
X1.2619 Y-0.0253
X1.2516 Y-0.0156
X1.2391 Y-0.0055
X1.2234 Y0.0052
X1.2047 Y0.0158
X1.1813 Y0.0267
X1.1514 Y0.0379
X1.1138 Y0.0485
X1.0756 Y0.0562
X1.037 Y0.0618
X0.9983 Y0.0659
X0.9609 Y0.0684
X0.9353 Y0.0681
X0.9156 Y0.0662
X0.8973 Y0.063
X0.8818 Y0.059
X0.8717 Y0.0555
X0.8608 Y0.0504
X0.8512 Y0.0432
X0.8433 Y0.0342
X0.8374 Y0.0237
X0.8337 Y0.0123
X0.8325 Y0.0004
G3 X0.8347 Y-0.0091 I0.025 J0.0009 F30
X0.8527 Y-0.0233 I0.0227 J0.0104 F40
G1 X1.2627 Y-0.1033
G3 X1.2903 Y-0.0891 I0.0048 J0.0245
X1.2925 Y-0.0796 I-0.0227 J0.0104 F30
G1 Y-0.0264 F40
X1.2922 Y-0.0205
X1.2912 Y-0.0133
X1.2896 Y-0.006
X1.2869 Y0.0025
X1.2835 Y0.0112
X1.2786 Y0.0208
X1.2725 Y0.031
X1.2649 Y0.0417
X1.255 Y0.0534
X1.2437 Y0.0647
X1.2287 Y0.0776
X1.2122 Y0.0896
X1.1908 Y0.1026
X1.1658 Y0.1152
X1.1344 Y0.128
X1.0972 Y0.1397
X1.0593 Y0.1487
X1.0208 Y0.155
X0.9865 Y0.1579
X0.9554 Y0.1581
X0.9291 Y0.1561
X0.9083 Y0.1528
X0.8895 Y0.1483
X0.8741 Y0.1433
X0.8683 Y0.1408
X0.8583 Y0.1354
X0.8495 Y0.1282
X0.8423 Y0.1194
X0.8369 Y0.1093
X0.8336 Y0.0984
X0.8325 Y0.087
Y0.0004
G3 X0.8347 Y-0.0091 I0.025 J0.0009 F30
X0.8559 Y-0.0237 I0.0227 J0.0104 F40
G1 X1.2659 Y-0.0505
G3 X1.2903 Y-0.0359 I0.0016 J0.0249
X1.2925 Y-0.0264 I-0.0227 J0.0104 F30
G1 Y0.0484 F40
X1.2922 Y0.0548
X1.2912 Y0.0625
X1.2893 Y0.0713
X1.2866 Y0.0803
X1.2825 Y0.0907
X1.2775 Y0.1011
X1.2705 Y0.113
X1.2623 Y0.1247
X1.2515 Y0.1377
X1.2388 Y0.1507
X1.2229 Y0.1646
X1.2042 Y0.1784
X1.1809 Y0.1929
X1.155 Y0.2063
X1.1243 Y0.2191
X1.0906 Y0.2301
X1.0554 Y0.2385
X1.0204 Y0.244
X0.9869 Y0.2465
X0.9554 Y0.2463
X0.9294 Y0.2441
X0.9071 Y0.2403
X0.8887 Y0.2357
X0.873 Y0.2304
X0.8677 Y0.2281
X0.8578 Y0.2226
X0.8492 Y0.2154
X0.8421 Y0.2066
X0.8368 Y0.1966
X0.8336 Y0.1858
X0.8325 Y0.1745
Y0.087
G3 X0.8347 Y0.0775 I0.025 J0.0009 F30
X0.8551 Y0.063 I0.0227 J0.0104 F40
G1 X1.2652 Y0.0244
G3 X1.2903 Y0.0389 I0.0023 J0.0249
X1.2925 Y0.0484 I-0.0227 J0.0104 F30
G1 Y0.1282 F40
X1.292 Y0.1376
X1.291 Y0.1456
X1.289 Y0.155
X1.2861 Y0.1646
X1.2819 Y0.1755
X1.2762 Y0.1871
X1.2691 Y0.1993
X1.2598 Y0.2124
X1.2488 Y0.2257
X1.2349 Y0.2399
X1.2186 Y0.2542
X1.1993 Y0.2684
X1.1758 Y0.283
X1.1507 Y0.296
X1.1217 Y0.3081
X1.0896 Y0.3186
X1.0557 Y0.3267
X1.0216 Y0.3321
X0.9884 Y0.3345
X0.957 Y0.3344
X0.9302 Y0.332
X0.9076 Y0.3283
X0.8892 Y0.3236
X0.8732 Y0.3182
X0.8677 Y0.3158
X0.8578 Y0.3104
X0.8492 Y0.3031
X0.8421 Y0.2943
X0.8368 Y0.2843
X0.8336 Y0.2735
X0.8325 Y0.2623
Y0.1745
G3 X0.8347 Y0.165 I0.025 J0.0009 F30
X0.8547 Y0.1506 I0.0227 J0.0104 F40
G1 X1.2647 Y0.1042
G3 X1.2903 Y0.1187 I0.0028 J0.0248
X1.2925 Y0.1282 I-0.0227 J0.0104 F30
G1 Y0.2168 F40
X1.2922 Y0.2234
X1.2911 Y0.2319
X1.289 Y0.2413
X1.2859 Y0.2517
X1.2817 Y0.2625
X1.2757 Y0.2748
X1.2686 Y0.287
X1.259 Y0.3006
X1.2479 Y0.314
X1.2338 Y0.3284
X1.2175 Y0.3427
X1.1982 Y0.3569
X1.1749 Y0.3714
X1.1498 Y0.3844
X1.1213 Y0.3963
X1.0897 Y0.4066
X1.0561 Y0.4147
X1.0221 Y0.42
X0.9889 Y0.4225
X0.9575 Y0.4223
X0.9305 Y0.42
X0.9078 Y0.4161
X0.8893 Y0.4115
X0.8734 Y0.4061
X0.8677 Y0.4036
X0.8578 Y0.3982
X0.8492 Y0.3909
X0.8421 Y0.3821
X0.8368 Y0.3721
X0.8336 Y0.3613
X0.8325 Y0.3501
Y0.2623
G3 X0.8347 Y0.2528 I0.025 J0.0009 F30
X0.8547 Y0.2383 I0.0227 J0.0104 F40
G1 X1.2648 Y0.1928
G3 X1.2903 Y0.2073 I0.0028 J0.0248
X1.2925 Y0.2168 I-0.0227 J0.0104 F30
G1 Y0.3054 F40
X1.2922 Y0.3114
X1.291 Y0.32
X1.289 Y0.3295
X1.2858 Y0.3401
X1.2814 Y0.351
X1.2754 Y0.3634
X1.2681 Y0.3757
X1.2584 Y0.3894
X1.2471 Y0.4028
X1.2329 Y0.4172
X1.2163 Y0.4316
X1.1971 Y0.4457
X1.1737 Y0.4601
X1.1483 Y0.4731
X1.1199 Y0.4848
X1.0884 Y0.495
X1.0548 Y0.5029
X1.0207 Y0.5081
X0.9875 Y0.5104
X0.9561 Y0.5101
X0.9295 Y0.5077
X0.907 Y0.5038
X0.8885 Y0.4991
X0.8727 Y0.4936
X0.8675 Y0.4914
X0.8577 Y0.4859
X0.8491 Y0.4786
X0.842 Y0.4699
X0.8368 Y0.4599
X0.8336 Y0.4491
X0.8325 Y0.4379
Y0.3501
G3 X0.8347 Y0.3406 I0.025 J0.0009 F30
X0.8548 Y0.3261 I0.0227 J0.0104 F40
G1 X1.2648 Y0.2814
G3 X1.2903 Y0.2959 I0.0027 J0.0249
X1.2925 Y0.3054 I-0.0227 J0.0104 F30
G1 Y0.39 F40
X1.292 Y0.399
X1.2909 Y0.4078
X1.2889 Y0.4171
X1.2857 Y0.4277
X1.2815 Y0.4385
X1.2755 Y0.4509
X1.2683 Y0.4631
X1.2587 Y0.4768
X1.2476 Y0.4901
X1.2335 Y0.5047
X1.2173 Y0.5188
X1.198 Y0.533
X1.1748 Y0.5474
X1.15 Y0.5603
X1.1216 Y0.5721
X1.09 Y0.5824
X1.0565 Y0.5905
X1.0226 Y0.5958
X0.9894 Y0.5983
X0.958 Y0.5981
X0.9307 Y0.5957
X0.908 Y0.5919
X0.8895 Y0.5872
X0.8734 Y0.5818
X0.8677 Y0.5793
X0.8578 Y0.5739
X0.8492 Y0.5666
X0.8421 Y0.5578
X0.8368 Y0.5478
X0.8336 Y0.537
X0.8325 Y0.5258
Y0.4379
G3 X0.8347 Y0.4284 I0.025 J0.0009 F30
X0.8546 Y0.414 I0.0227 J0.0104 F40
G1 X1.2646 Y0.366
G3 X1.2903 Y0.3805 I0.0029 J0.0248
X1.2925 Y0.39 I-0.0227 J0.0104 F30
G1 Y0.4786 F40
X1.2921 Y0.487
X1.2909 Y0.4956
X1.2889 Y0.505
X1.2858 Y0.5156
X1.2815 Y0.5264
X1.2755 Y0.5388
X1.2683 Y0.551
X1.2587 Y0.5647
X1.2477 Y0.5781
X1.2336 Y0.5925
X1.2172 Y0.6067
X1.1981 Y0.6209
X1.1749 Y0.6353
X1.1499 Y0.6483
X1.1216 Y0.6601
X1.0902 Y0.6703
X1.0567 Y0.6784
X1.0227 Y0.6837
X0.9895 Y0.6862
X0.958 Y0.686
X0.9308 Y0.6836
X0.908 Y0.6798
X0.8895 Y0.6751
X0.8734 Y0.6697
X0.8677 Y0.6672
X0.8578 Y0.6618
X0.8492 Y0.6545
X0.8421 Y0.6457
X0.8368 Y0.6357
X0.8336 Y0.6249
X0.8325 Y0.6137
Y0.5258
G3 X0.8347 Y0.5163 I0.025 J0.0009 F30
X0.8546 Y0.5018 I0.0227 J0.0104 F40
G1 X1.2647 Y0.4546
G3 X1.2903 Y0.4691 I0.0029 J0.0248
X1.2925 Y0.4786 I-0.0227 J0.0104 F30
G1 Y0.5672 F40
X1.2921 Y0.5749
X1.291 Y0.5836
X1.289 Y0.593
X1.2858 Y0.6035
X1.2816 Y0.6144
X1.2756 Y0.6267
X1.2684 Y0.6389
X1.2588 Y0.6527
X1.2477 Y0.666
X1.2336 Y0.6804
X1.2173 Y0.6947
X1.1982 Y0.7088
X1.175 Y0.7232
X1.15 Y0.7361
X1.1217 Y0.748
X1.0903 Y0.7582
X1.0568 Y0.7663
X1.0228 Y0.7716
X0.9895 Y0.774
X0.958 Y0.7739
X0.9309 Y0.7715
X0.9081 Y0.7677
X0.8895 Y0.763
X0.8735 Y0.7576
X0.8677 Y0.7551
X0.8578 Y0.7496
X0.8492 Y0.7424
X0.8421 Y0.7336
X0.8368 Y0.7236
X0.8336 Y0.7128
X0.8325 Y0.7015
Y0.6137
G3 X0.8347 Y0.6042 I0.025 J0.0009 F30
X0.8547 Y0.5897 I0.0227 J0.0104 F40
G1 X1.2647 Y0.5432
G3 X1.2903 Y0.5577 I0.0028 J0.0248
X1.2925 Y0.5672 I-0.0227 J0.0104 F30
G1 Y0.651 F40
X1.2919 Y0.663
X1.2908 Y0.6717
X1.2888 Y0.6811
X1.2856 Y0.6916
X1.2814 Y0.7024
X1.2754 Y0.7148
X1.2682 Y0.727
X1.2586 Y0.7406
X1.2475 Y0.754
X1.2335 Y0.7684
X1.2171 Y0.7826
X1.1981 Y0.7967
X1.1749 Y0.8111
X1.1499 Y0.8241
X1.1217 Y0.8359
X1.0903 Y0.8461
X1.0568 Y0.8541
X1.0228 Y0.8595
X0.9895 Y0.8619
X0.958 Y0.8618
X0.9309 Y0.8594
X0.9081 Y0.8556
X0.8895 Y0.8509
X0.8735 Y0.8455
X0.8677 Y0.843
X0.8578 Y0.8375
X0.8492 Y0.8303
X0.8421 Y0.8215
X0.8368 Y0.8115
X0.8336 Y0.8007
X0.8325 Y0.7894
Y0.7015
G3 X0.8347 Y0.692 I0.025 J0.0009 F30
X0.8544 Y0.6776 I0.0227 J0.0104 F40
G1 X1.2645 Y0.627
G3 X1.2903 Y0.6415 I0.0031 J0.0248
X1.2925 Y0.651 I-0.0227 J0.0104 F30
G1 Y0.7396 F40
X1.2919 Y0.7508
X1.2908 Y0.7595
X1.2888 Y0.7689
X1.2856 Y0.7795
X1.2814 Y0.7903
X1.2754 Y0.8026
X1.2682 Y0.8148
X1.2586 Y0.8285
X1.2475 Y0.8419
X1.2335 Y0.8563
X1.2171 Y0.8705
X1.1981 Y0.8846
X1.175 Y0.899
X1.1499 Y0.912
X1.1217 Y0.9237
X1.0903 Y0.934
X1.0568 Y0.942
X1.0228 Y0.9473
X0.9895 Y0.9498
X0.958 Y0.9497
X0.9309 Y0.9473
X0.9081 Y0.9435
X0.8895 Y0.9388
X0.8735 Y0.9334
X0.8677 Y0.9309
X0.8578 Y0.9254
X0.8492 Y0.9182
X0.8421 Y0.9094
X0.8368 Y0.8994
X0.8336 Y0.8886
X0.8325 Y0.8773
Y0.7894
G3 X0.8347 Y0.7799 I0.025 J0.0009 F30
X0.8545 Y0.7655 I0.0227 J0.0104 F40
G1 X1.2645 Y0.7156
G3 X1.2903 Y0.7301 I0.003 J0.0248
X1.2925 Y0.7396 I-0.0227 J0.0104 F30
G1 Y0.8282 F40
X1.292 Y0.8387
X1.2908 Y0.8474
X1.2888 Y0.8568
X1.2857 Y0.8673
X1.2814 Y0.8782
X1.2755 Y0.8905
X1.2683 Y0.9027
X1.2586 Y0.9164
X1.2476 Y0.9298
X1.2335 Y0.9441
X1.2172 Y0.9584
X1.1981 Y0.9725
X1.175 Y0.9869
X1.1499 Y0.9998
X1.1217 Y1.0116
X1.0903 Y1.0219
X1.0568 Y1.0299
X1.0228 Y1.0352
X0.9896 Y1.0377
X0.958 Y1.0375
X0.9309 Y1.0352
X0.9081 Y1.0314
X0.8895 Y1.0267
X0.8735 Y1.0212
X0.8677 Y1.0188
X0.8578 Y1.0133
X0.8492 Y1.0061
X0.8421 Y0.9973
X0.8368 Y0.9873
X0.8336 Y0.9765
X0.8325 Y0.9652
Y0.8773
G3 X0.8347 Y0.8678 I0.025 J0.0009 F30
X0.8545 Y0.8534 I0.0227 J0.0104 F40
G1 X1.2645 Y0.8042
G3 X1.2903 Y0.8187 I0.003 J0.0248
X1.2925 Y0.8282 I-0.0227 J0.0104 F30
G1 Y0.9168 F40
X1.292 Y0.9266
X1.2909 Y0.9353
X1.2889 Y0.9447
X1.2857 Y0.9552
X1.2815 Y0.966
X1.2755 Y0.9784
X1.2683 Y0.9906
X1.2587 Y1.0043
X1.2476 Y1.0177
X1.2336 Y1.032
X1.2172 Y1.0463
X1.1981 Y1.0604
X1.175 Y1.0748
X1.15 Y1.0877
X1.1217 Y1.0995
X1.0903 Y1.1098
X1.0568 Y1.1178
X1.0228 Y1.1231
X0.9896 Y1.1256
X0.958 Y1.1254
X0.9309 Y1.1231
X0.9081 Y1.1193
X0.8895 Y1.1146
X0.8735 Y1.1091
X0.8585 Y1.1027
X0.8567 Y1.1017
X0.8462 Y1.0946
X0.8375 Y1.0854
X0.831 Y1.0745
X0.827 Y1.0625
X0.8257 Y1.0499
X0.8271 Y1.0373
X0.8312 Y1.0192
X0.8323 Y0.9965
X0.8325 Y0.9877
Y0.9652
G3 X0.8347 Y0.9557 I0.025 J0.0009 F30
X0.8546 Y0.9413 I0.0227 J0.0104 F40
G1 X1.2646 Y0.8928
G3 X1.2903 Y0.9073 I0.0029 J0.0248
X1.2925 Y0.9168 I-0.0227 J0.0104 F30
G1 Y0.9877 F40
X1.2927 Y0.9965
X1.293 Y1.0014
X1.2929 Y1.0091
X1.2922 Y1.0176
X1.2908 Y1.0263
X1.2883 Y1.0364
X1.2848 Y1.0469
X1.2798 Y1.0585
X1.2734 Y1.0708
X1.2652 Y1.0837
X1.255 Y1.0972
X1.2425 Y1.1114
X1.2279 Y1.1253
X1.2097 Y1.1402
X1.1898 Y1.154
X1.166 Y1.1677
X1.1385 Y1.1808
X1.1088 Y1.1921
X1.0772 Y1.2013
X1.0433 Y1.2083
X1.0091 Y1.2125
X0.9764 Y1.2139
X0.9465 Y1.2127
X0.9187 Y1.2094
X0.8967 Y1.205
X0.8784 Y1.1997
X0.8617 Y1.1934
X0.8478 Y1.1869
X0.8345 Y1.1793
X0.8233 Y1.1716
X0.8126 Y1.163
X0.812 Y1.1624
X0.8042 Y1.1532
X0.7984 Y1.1426
X0.7948 Y1.1311
X0.7937 Y1.1191
X0.795 Y1.1071
X0.7988 Y1.0956
X0.8048 Y1.0851
G3 X0.8121 Y1.0787 I0.0198 J0.0153 F30
X0.8192 Y1.076 I0.0124 J0.0217 F40
G1 X1.2627 Y0.979
G3 X1.2903 Y0.992 I0.0053 J0.0244
X1.293 Y1.0014 I-0.0222 J0.0114 F30
G1 X1.2938 Y1.0192 F40
X1.2987 Y1.0408
X1.301 Y1.0485
X1.3015 Y1.0497
X1.3036 Y1.0559
X1.3051 Y1.0618
X1.3061 Y1.0681
X1.3068 Y1.0757
Y1.0837
X1.3061 Y1.093
X1.3046 Y1.1026
X1.302 Y1.1137
X1.2983 Y1.125
X1.293 Y1.1377
X1.2864 Y1.1504
X1.2776 Y1.1647
X1.2673 Y1.1785
X1.2539 Y1.1939
X1.2387 Y1.2087
X1.2205 Y1.2239
X1.1985 Y1.2393
X1.1748 Y1.2533
X1.1475 Y1.2666
X1.1166 Y1.2786
X1.0833 Y1.2886
X1.0487 Y1.296
X1.0138 Y1.3006
X0.9799 Y1.3023
X0.948 Y1.3013
X0.9181 Y1.298
X0.891 Y1.2927
X0.8663 Y1.2859
X0.8436 Y1.2775
X0.8252 Y1.2691
X0.8098 Y1.2604
X0.7959 Y1.251
X0.7844 Y1.2419
X0.7736 Y1.2317
X0.7647 Y1.222
X0.7565 Y1.2113
X0.7498 Y1.201
X0.748 Y1.1977
X0.7433 Y1.1862
X0.7411 Y1.1739
X0.7415 Y1.1614
X0.7446 Y1.1493
X0.7502 Y1.1382
X0.758 Y1.1284
X0.7677 Y1.1206
G3 X0.7765 Y1.1174 I0.0128 J0.0215 F30
G1 X0.7769 Y1.1173
X1.2745 Y1.035 F40
G3 X1.2959 Y1.0417 I0.0041 J0.0247
X1.3015 Y1.0497 I-0.0173 J0.018 F30
G1 X1.305 Y1.0585 F40
X1.3099 Y1.0687
X1.3187 Y1.083
X1.3202 Y1.0851
X1.3223 Y1.0878
X1.3258 Y1.0927
X1.3288 Y1.0979
X1.3313 Y1.1036
X1.3335 Y1.1097
X1.3355 Y1.1171
X1.3369 Y1.1249
X1.3378 Y1.134
X1.338 Y1.1435
X1.3374 Y1.1546
X1.3358 Y1.1659
X1.3329 Y1.1788
X1.3289 Y1.1918
X1.3231 Y1.2062
X1.3157 Y1.2211
X1.3063 Y1.2368
X1.2944 Y1.2535
X1.2808 Y1.2696
X1.2639 Y1.2866
X1.2437 Y1.3039
X1.2216 Y1.3199
X1.1954 Y1.3359
X1.1655 Y1.351
X1.1326 Y1.3644
X1.098 Y1.3753
X1.0617 Y1.3837
X1.0244 Y1.3892
X0.987 Y1.3916
X0.9508 Y1.3911
X0.9162 Y1.3878
X0.8839 Y1.3821
X0.854 Y1.3743
X0.8266 Y1.3647
X0.8022 Y1.3539
X0.7804 Y1.3421
X0.7603 Y1.329
X0.7425 Y1.3153
X0.7281 Y1.3021
X0.7162 Y1.2895
X0.7061 Y1.2767
X0.6979 Y1.2645
X0.6909 Y1.252
X0.6853 Y1.2399
X0.6808 Y1.2278
X0.6775 Y1.2156
X0.6762 Y1.209
X0.6752 Y1.1965
X0.6768 Y1.1841
X0.6811 Y1.1723
X0.6878 Y1.1617
X0.6965 Y1.1528
X0.707 Y1.146
X0.7187 Y1.1415
X0.7268 Y1.1394
G3 X0.7297 Y1.139 I0.0055 J0.0244 F30
G1 X0.7365 Y1.1382
X1.3006 Y1.0791 F40
G3 X1.3147 Y1.0817 I0.0026 J0.0249
X1.3223 Y1.0878 I-0.0115 J0.0222 F30
G1 X1.3272 Y1.094 F40
X1.3364 Y1.1031
X1.3452 Y1.1117
X1.3501 Y1.1154
X1.3546 Y1.1193
X1.3589 Y1.1236
X1.3627 Y1.1282
X1.3662 Y1.1334
X1.3696 Y1.1394
X1.3729 Y1.1462
X1.3758 Y1.154
X1.3783 Y1.1628
X1.3802 Y1.1723
X1.3816 Y1.1833
X1.382 Y1.1946
X1.3815 Y1.2077
X1.3798 Y1.2212
X1.3768 Y1.2359
X1.3722 Y1.2518
X1.366 Y1.268
X1.3575 Y1.2859
X1.3472 Y1.3038
X1.3345 Y1.3222
X1.3185 Y1.3418
X1.3001 Y1.3609
X1.2787 Y1.3799
X1.2532 Y1.3991
X1.2239 Y1.4177
X1.1922 Y1.4344
X1.1579 Y1.4491
X1.1209 Y1.4615
X1.0831 Y1.471
X1.0446 Y1.4776
X1.0058 Y1.4813
X0.9669 Y1.4822
X0.9279 Y1.4801
X0.8893 Y1.475
X0.8526 Y1.4672
X0.8182 Y1.4569
X0.7861 Y1.4443
X0.7569 Y1.4302
X0.7311 Y1.415
X0.7079 Y1.3987
X0.6873 Y1.3815
X0.6692 Y1.3638
X0.6594 Y1.3526
X0.6532 Y1.3441
X0.6487 Y1.3347
X0.6459 Y1.3246
X0.645 Y1.3142
Y1.1737
Y1.1693
X0.6452 Y1.1671
X0.6456 Y1.1649
X0.6463 Y1.1624
X0.6473 Y1.16
X0.6483 Y1.158
X0.6496 Y1.156
X0.6511 Y1.1541
X0.6529 Y1.1522
X0.6561 Y1.1496
X0.6583 Y1.1482
X0.6604 Y1.1472
X0.6627 Y1.1463
X0.665 Y1.1456
X0.6672 Y1.1452
X0.6694 Y1.145
X0.6738
X0.6826 Y1.1449
X0.7003 Y1.1443
X0.7091 Y1.1432
X0.718 Y1.1417
X0.7187 Y1.1415
G3 X0.723 Y1.141 I0.0055 J0.0244 F30
G1 X0.7285 Y1.1407
X1.3344 Y1.1109 F40
G3 X1.3411 Y1.1114 I0.0012 J0.025
X1.3501 Y1.1154 I-0.0056 J0.0244 F30
G1 X1.354 Y1.1185 F40
X1.3573 Y1.1206
X1.3629 Y1.124
X1.3717 Y1.1291
X1.3805 Y1.1332
X1.3832 Y1.1342
X1.3887 Y1.1367
X1.3938 Y1.1398
X1.3986 Y1.1433
X1.4034 Y1.1476
X1.4079 Y1.1524
X1.4127 Y1.1582
X1.4172 Y1.1648
X1.4215 Y1.1724
X1.4256 Y1.1811
X1.4292 Y1.1907
X1.4324 Y1.2017
X1.4347 Y1.2133
X1.4363 Y1.2267
X1.4368 Y1.2408
X1.4362 Y1.256
X1.4341 Y1.273
X1.4306 Y1.2901
X1.4251 Y1.3089
X1.4174 Y1.3291
X1.4079 Y1.3491
X1.3956 Y1.3704
X1.38 Y1.3929
X1.3621 Y1.4148
X1.3407 Y1.4371
X1.3154 Y1.4596
X1.2861 Y1.4815
X1.2536 Y1.5021
X1.219 Y1.5203
X1.1832 Y1.5356
X1.1463 Y1.5483
X1.1087 Y1.5584
X1.0704 Y1.566
X1.0317 Y1.571
X0.9928 Y1.5736
X0.9539
X0.915 Y1.5709
X0.8763 Y1.5656
X0.8382 Y1.5576
X0.8007 Y1.5469
X0.7641 Y1.5335
X0.7287 Y1.5173
X0.6961 Y1.4991
X0.6684 Y1.4806
X0.6671 Y1.4796
X0.6578 Y1.4703
X0.6508 Y1.4592
X0.6465 Y1.4469
X0.645 Y1.4338
Y1.3142
G3 X0.6472 Y1.3047 I0.025 J0.0009 F30
X0.6645 Y1.2907 I0.0227 J0.0104 F40
G1 X1.3697 Y1.1335
G3 X1.3735 Y1.133 I0.0054 J0.0244
X1.3832 Y1.1342 I0.0016 J0.0249 F30
G1 X1.3894 Y1.1366 F40
X1.3941 Y1.1383
X1.3982 Y1.1394
X1.407 Y1.1417
X1.4159 Y1.1432
X1.4185 Y1.1436
X1.4245 Y1.1446
X1.4302 Y1.1463
X1.4358 Y1.1485
X1.4412 Y1.1513
X1.4466 Y1.1547
X1.4525 Y1.1591
X1.4583 Y1.1642
X1.4642 Y1.1702
X1.4666 Y1.1731
X1.4723 Y1.1813
X1.4765 Y1.1905
X1.4791 Y1.2002
X1.48 Y1.2103
G3 X1.4778 Y1.2198 I-0.025 J-0.0009 F30
X1.4368 Y1.2266 I-0.0227 J-0.0104 F40
G1 X1.3982 Y1.1856
G3 X1.4088 Y1.1446 I0.0182 J-0.0172
X1.4185 Y1.1436 I0.0075 J0.0238 F30
G1 X1.4247 Y1.1443 F40
X1.4424 Y1.1449
X1.4512 Y1.145
X1.4556
X1.4578 Y1.1452
X1.46 Y1.1456
X1.4623 Y1.1463
X1.4646 Y1.1472
X1.4667 Y1.1482
X1.4689 Y1.1496
X1.4721 Y1.1522
X1.4739 Y1.1541
X1.4754 Y1.156
X1.4767 Y1.158
X1.4777 Y1.16
X1.4787 Y1.1624
X1.4794 Y1.1649
X1.4798 Y1.1671
X1.48 Y1.1693
Y1.1826
Y1.3155
X1.4792 Y1.3318
X1.477 Y1.3482
X1.4733 Y1.3655
X1.4677 Y1.3841
X1.4597 Y1.4047
X1.4498 Y1.4252
X1.4364 Y1.4479
X1.4198 Y1.4715
X1.4006 Y1.4947
X1.3768 Y1.5191
X1.3487 Y1.5436
X1.3174 Y1.5668
X1.2843 Y1.5874
X1.2498 Y1.6055
X1.214 Y1.6211
X1.1773 Y1.6343
X1.1399 Y1.6452
X1.1019 Y1.6538
X1.0634 Y1.6602
X1.0246 Y1.6644
X0.9857 Y1.6663
X0.9467 Y1.6659
X0.9078 Y1.6631
X0.8692 Y1.658
X0.8309 Y1.6506
X0.7931 Y1.6409
X0.756 Y1.6289
X0.7198 Y1.6146
X0.689 Y1.5998
X0.674 Y1.5911
X0.6642 Y1.5839
X0.6561 Y1.5749
X0.65 Y1.5643
X0.6463 Y1.5528
X0.645 Y1.5407
Y1.4338
G3 X0.6472 Y1.4243 I0.025 J0.0009 F30
X0.6663 Y1.41 I0.0227 J0.0104 F40
G1 X1.4513 Y1.2917
G3 X1.4778 Y1.306 I0.0037 J0.0247
X1.48 Y1.3155 I-0.0227 J0.0104 F30
G1 Y1.4484 F40
X1.4795 Y1.4591
X1.478 Y1.4706
X1.475 Y1.4843
X1.4709 Y1.4982
X1.4646 Y1.5143
X1.4564 Y1.5312
X1.4454 Y1.55
X1.4317 Y1.5694
X1.4138 Y1.5909
X1.3936 Y1.6117
X1.3684 Y1.6337
X1.3382 Y1.656
X1.3051 Y1.6766
X1.2705 Y1.6947
X1.2348 Y1.7104
X1.1982 Y1.7238
X1.1609 Y1.735
X1.1229 Y1.744
X1.0846 Y1.7509
X1.0459 Y1.7558
X1.007 Y1.7587
X0.968 Y1.7595
X0.929 Y1.7582
X0.8902 Y1.755
X0.8516 Y1.7496
X0.8133 Y1.7422
X0.7755 Y1.7327
X0.7382 Y1.7211
X0.7038 Y1.7081
X0.6817 Y1.6977
X0.6743 Y1.6934
X0.6644 Y1.6863
X0.6562 Y1.6772
X0.6501 Y1.6666
X0.6463 Y1.655
X0.645 Y1.6428
Y1.5407
G3 X0.6472 Y1.5312 I0.025 J0.0009 F30
X0.6671 Y1.5167 I0.0227 J0.0104 F40
G1 X1.4521 Y1.4245
G3 X1.4778 Y1.4389 I0.0029 J0.0248
X1.48 Y1.4484 I-0.0227 J0.0104 F30
G1 Y1.5547 F40
X1.4793 Y1.569
X1.4778 Y1.5801
X1.4754 Y1.5914
X1.4714 Y1.6049
X1.466 Y1.6187
X1.4584 Y1.6343
X1.4486 Y1.651
X1.4361 Y1.6688
X1.4206 Y1.6875
X1.4007 Y1.7079
X1.3778 Y1.7279
X1.3495 Y1.7488
X1.3164 Y1.7694
X1.2818 Y1.7874
X1.246 Y1.8029
X1.2093 Y1.8161
X1.172 Y1.8273
X1.1341 Y1.8364
X1.0957 Y1.8435
X1.0571 Y1.8486
X1.0182 Y1.8518
X0.9792 Y1.8531
X0.9403 Y1.8526
X0.9013 Y1.8502
X0.8626 Y1.846
X0.824 Y1.84
X0.7859 Y1.8322
X0.7481 Y1.8224
X0.7138 Y1.8113
X0.6901 Y1.8015
X0.6768 Y1.7946
X0.6661 Y1.7876
X0.6572 Y1.7784
X0.6505 Y1.7675
X0.6464 Y1.7554
X0.645 Y1.7427
Y1.6428
G3 X0.6472 Y1.6334 I0.025 J0.0009 F30
X0.6672 Y1.6189 I0.0227 J0.0104 F40
G1 X1.4522 Y1.5308
G3 X1.4778 Y1.5452 I0.0028 J0.0248
X1.48 Y1.5547 I-0.0227 J0.0104 F30
G1 Y1.6611 F40
X1.4794 Y1.6724
X1.4781 Y1.6822
X1.4757 Y1.6936
X1.4719 Y1.7062
X1.4668 Y1.7193
X1.4594 Y1.7346
X1.4505 Y1.7496
X1.4381 Y1.7673
X1.424 Y1.7844
X1.4052 Y1.8036
X1.3829 Y1.8231
X1.3561 Y1.8429
X1.3234 Y1.8632
X1.2888 Y1.8811
X1.253 Y1.8965
X1.2162 Y1.9096
X1.1788 Y1.9206
X1.1409 Y1.9297
X1.1026 Y1.9368
X1.0639 Y1.942
X1.0251 Y1.9454
X0.9861 Y1.9471
X0.9472 Y1.947
X0.9082 Y1.9453
X0.8694 Y1.9418
X0.8307 Y1.9367
X0.7923 Y1.93
X0.7543 Y1.9214
X0.7185 Y1.9109
X0.6948 Y1.9018
X0.6751 Y1.8924
X0.6741 Y1.8918
X0.6642 Y1.8847
X0.6561 Y1.8756
X0.65 Y1.8651
X0.6463 Y1.8535
X0.645 Y1.8414
Y1.7427
G3 X0.6472 Y1.7332 I0.025 J0.0009 F30
X0.6674 Y1.7187 I0.0227 J0.0104 F40
G1 X1.4524 Y1.6371
G3 X1.4778 Y1.6516 I0.0026 J0.0249
X1.48 Y1.6611 I-0.0227 J0.0104 F30
G1 Y1.7585 F40
X1.4793 Y1.7724
X1.4781 Y1.782
X1.4756 Y1.7933
X1.4721 Y1.805
X1.467 Y1.8182
X1.4601 Y1.8325
X1.4513 Y1.8474
X1.4394 Y1.8643
X1.4256 Y1.881
X1.4076 Y1.8993
X1.3857 Y1.9185
X1.36 Y1.9375
X1.3282 Y1.9573
X1.2936 Y1.9751
X1.2577 Y1.9905
X1.221 Y2.0035
X1.1836 Y2.0144
X1.1456 Y2.0234
X1.1073 Y2.0305
X1.0687 Y2.0359
X1.0298 Y2.0394
X0.9909 Y2.0414
X0.9519 Y2.0416
X0.9129 Y2.0403
X0.874 Y2.0375
X0.8353 Y2.0331
X0.7968 Y2.027
X0.7586 Y2.0192
X0.7221 Y2.0093
X0.6972 Y2.0003
X0.6782 Y1.9917
X0.6751 Y1.99
X0.6649 Y1.9829
X0.6565 Y1.9737
X0.6502 Y1.9631
X0.6463 Y1.9513
X0.645 Y1.939
Y1.8414
G3 X0.6472 Y1.8319 I0.025 J0.0009 F30
X0.6674 Y1.8174 I0.0227 J0.0104 F40
G1 X1.4524 Y1.7346
G3 X1.4778 Y1.749 I0.0026 J0.0249
X1.48 Y1.7585 I-0.0227 J0.0104 F30
G1 Y1.8609 F40
X1.4795 Y1.8701
X1.4792 Y1.8761
X1.4785 Y1.882
X1.4776 Y1.8879
X1.4763 Y1.8938
X1.4749 Y1.8996
X1.4731 Y1.9054
X1.4712 Y1.9111
X1.469 Y1.9167
X1.4667 Y1.9222
X1.4642 Y1.9276
X1.4615 Y1.933
X1.4586 Y1.9383
X1.4556 Y1.9435
X1.4525 Y1.9486
X1.4492 Y1.9536
X1.4458 Y1.9585
X1.4423 Y1.9634
X1.4386 Y1.9681
X1.4348 Y1.9728
X1.431 Y1.9774
X1.427 Y1.9819
X1.423 Y1.9863
X1.4188 Y1.9907
X1.4146 Y1.9949
X1.4103 Y1.9991
X1.4059 Y2.0032
X1.4014 Y2.0072
X1.3969 Y2.0111
X1.3923 Y2.015
X1.3877 Y2.0188
X1.3829 Y2.0225
X1.3782 Y2.0261
X1.3733 Y2.0297
X1.3684 Y2.0332
X1.3635 Y2.0366
X1.3585 Y2.0399
X1.3535 Y2.0432
X1.3484 Y2.0464
X1.3433 Y2.0495
X1.3382 Y2.0526
X1.333 Y2.0556
X1.3277 Y2.0586
X1.3225 Y2.0614
X1.3172 Y2.0643
X1.3119 Y2.067
X1.3065 Y2.0697
X1.3011 Y2.0723
X1.2957 Y2.0749
X1.2902 Y2.0774
X1.2848 Y2.0799
X1.2793 Y2.0823
X1.2737 Y2.0847
X1.2682 Y2.087
X1.2626 Y2.0892
X1.257 Y2.0914
X1.2514 Y2.0935
X1.2458 Y2.0956
X1.2402 Y2.0976
X1.2345 Y2.0996
X1.2288 Y2.1015
X1.2231 Y2.1034
X1.2174 Y2.1052
X1.2117 Y2.107
X1.2059 Y2.1087
X1.2002 Y2.1104
X1.1944 Y2.1121
X1.1886 Y2.1137
X1.1828 Y2.1152
X1.177 Y2.1167
X1.1712 Y2.1181
X1.1652 Y2.1196
X1.1589 Y2.1211
X1.153 Y2.1224
X1.1471 Y2.1237
X1.1413 Y2.1249
X1.1354 Y2.1261
X1.1292 Y2.1272
X1.1227 Y2.1285
X1.1158 Y2.1297
X1.1099 Y2.1307
X1.104 Y2.1316
X1.098 Y2.1326
X1.0917 Y2.1335
X1.085 Y2.1344
X1.0778 Y2.1354
X1.0707 Y2.1363
X1.0647 Y2.137
X1.0585 Y2.1377
X1.052 Y2.1383
X1.0451 Y2.139
X1.0377 Y2.1396
X1.0299 Y2.1403
X1.0235 Y2.1407
X1.0171 Y2.1411
X1.0104 Y2.1415
X1.0032 Y2.1419
X0.9956 Y2.1422
X0.9874 Y2.1425
X0.9807 Y2.1427
X0.9741 Y2.1429
X0.9672 Y2.143
X0.9598
X0.9519
X0.9435 Y2.1429
X0.9369 Y2.1428
X0.9302 Y2.1427
X0.9231 Y2.1425
X0.9156 Y2.1422
X0.9075 Y2.1418
X0.8992 Y2.1414
X0.8928 Y2.141
X0.8863 Y2.1406
X0.8794 Y2.1401
X0.8721 Y2.1395
X0.8643 Y2.1388
X0.8561 Y2.138
X0.8499 Y2.1374
X0.844 Y2.1367
X0.838 Y2.136
X0.8316 Y2.1352
X0.8249 Y2.1343
X0.8178 Y2.1333
X0.8108 Y2.1322
X0.8048 Y2.1313
X0.7989 Y2.1303
X0.793 Y2.1293
X0.7871 Y2.1282
X0.7812 Y2.1271
X0.7753 Y2.1259
X0.7695 Y2.1247
X0.7636 Y2.1234
X0.7577 Y2.1221
X0.7519 Y2.1207
X0.7461 Y2.1192
X0.7403 Y2.1177
X0.7345 Y2.1161
X0.7287 Y2.1145
X0.723 Y2.1127
X0.7173 Y2.1109
X0.7116 Y2.109
X0.7059 Y2.1069
X0.7003 Y2.1048
X0.6948 Y2.1026
X0.6892 Y2.1003
X0.6838 Y2.0978
X0.6783 Y2.0952
X0.6771 Y2.0946
X0.6663 Y2.0876
X0.6573 Y2.0784
X0.6506 Y2.0674
X0.6464 Y2.0553
X0.645 Y2.0425
Y1.939
G3 X0.6472 Y1.9295 I0.025 J0.0009 F30
X0.6675 Y1.9149 I0.0227 J0.0104 F40
G1 X1.4525 Y1.8369
G3 X1.4778 Y1.8514 I0.0025 J0.0249
X1.48 Y1.8609 I-0.0227 J0.0104 F30
G1 Y1.9623 F40
X1.4795 Y1.9725
X1.4782 Y1.982
X1.476 Y1.9927
X1.4725 Y2.0043
X1.4676 Y2.0169
X1.4609 Y2.0306
X1.4523 Y2.0453
X1.4412 Y2.061
X1.4274 Y2.0777
X1.4102 Y2.0953
X1.3891 Y2.1137
X1.3763 Y2.1232
X1.3727 Y2.1256
X1.344 Y2.1448
X1.31 Y2.1638
X1.2745 Y2.18
X1.2654 Y2.1834
G3 X1.2557 Y2.1847 I-0.0079 J-0.0237 F30
X1.2399 Y2.142 I0.0018 J-0.0249 F40
G1 X1.4374 Y1.9455
G3 X1.4778 Y1.9528 I0.0176 J0.0177
X1.48 Y1.9623 I-0.0227 J0.0104 F30
G1 Y2.0598 F40
X1.4796 Y2.0682
X1.4792 Y2.0742
X1.4786 Y2.0802
X1.4776 Y2.0861
X1.4764 Y2.092
X1.4749 Y2.0978
X1.4731 Y2.1035
X1.4712 Y2.1092
X1.469 Y2.1148
X1.4666 Y2.1203
X1.464 Y2.1257
X1.4613 Y2.131
X1.4584 Y2.1363
X1.4546 Y2.1453
X1.4523 Y2.1548
X1.4517 Y2.1645
X1.4527 Y2.1742
X1.4553 Y2.1836
X1.4594 Y2.1924
X1.4645 Y2.1999
X1.4711 Y2.2085
X1.476 Y2.2182
X1.479 Y2.2287
X1.48 Y2.2395
G3 X1.4778 Y2.249 I-0.025 J-0.0009 F30
X1.43 Y2.2386 I-0.0227 J-0.0104 F40
G1 Y2.0607
G3 X1.4778 Y2.0503 I0.025 J0
X1.48 Y2.0598 I-0.0227 J0.0104 F30
G1 Y2.237 F40
G3 X1.4778 Y2.2465 I-0.025 J-0.0009 F30
X1.4633 Y2.2597 I-0.0227 J-0.0104 F40
G1 X0.697 Y2.5274
G3 X0.6646 Y2.51 I-0.0082 J-0.0236
X0.6454 Y2.3837 I0.6183 J-0.1584
X0.645 Y2.3739 I0.6374 J-0.0321 F30
G1 Y2.3611 F40
X0.6451 Y2.3596
X0.6485 Y2.3547
X0.6523 Y2.35
X0.6564 Y2.3456
X0.6608 Y2.3415
X0.6653 Y2.3376
X0.6721 Y2.3306
X0.6775 Y2.3225
X0.6815 Y2.3136
X0.684 Y2.3042
X0.6849 Y2.2945
X0.6842 Y2.2847
X0.6818 Y2.2753
X0.674 Y2.2574
X0.6603 Y2.2423
X0.6538 Y2.2337
X0.6489 Y2.2241
X0.646 Y2.2137
X0.645 Y2.203
Y2.0425
G3 X0.6472 Y2.033 I0.025 J0.0009 F30
X0.695 Y2.0434 I0.0227 J0.0104 F40
G1 Y2.2866
G3 X0.6472 Y2.297 I-0.025 J0
X0.645 Y2.2875 I0.0227 J-0.0104 F30
G1 Y2.203 F40
X0.6455 Y2.2009 Z-0.399 F30
X0.6459 Y2.1989 Z-0.3982
X0.6463 Y2.1971 Z-0.3971
X0.6466 Y2.1956 Z-0.3955
X0.6468 Y2.1944 Z-0.3937
X0.6471 Y2.1937 Z-0.3916
X0.6472 Y2.1935 Z-0.3894
G0 Z0.2
X1.2667 Y-0.2842
Z-0.45
G1 Z-0.475 F30
X1.2668 Y-0.2839 Z-0.4789
X1.267 Y-0.283 Z-0.4827
X1.2674 Y-0.2816 Z-0.4863
X1.2679 Y-0.2796 Z-0.4897
X1.2685 Y-0.2771 Z-0.4927
X1.2693 Y-0.2743 Z-0.4952
X1.2701 Y-0.271 Z-0.4973
X1.271 Y-0.2675 Z-0.4988
X1.272 Y-0.2638 Z-0.4997
X1.2729 Y-0.26 Z-0.5
G3 X1.2925 Y-0.1239 I-0.6183 J0.1584
G1 Y-0.1111 F40
X1.2924 Y-0.1096
X1.2884 Y-0.1046
X1.2829 Y-0.0989
X1.2758 Y-0.0926
X1.2667 Y-0.0856
X1.2549 Y-0.0781
X1.2398 Y-0.0701
X1.2201 Y-0.0617
X1.1939 Y-0.0528
X1.1571 Y-0.0436
X1.1187 Y-0.0372
X1.0799 Y-0.0328
X1.041 Y-0.0299
X1.0021 Y-0.0279
X0.9631 Y-0.0266
X0.9241 Y-0.0257
X0.8918 Y-0.0252
X0.8786 Y-0.0265
X0.8661 Y-0.0307
X0.8549 Y-0.0376
X0.8455 Y-0.0468
X0.8384 Y-0.058
X0.834 Y-0.0704
X0.8325 Y-0.0835
G3 X0.8347 Y-0.093 I0.025 J0.0009 F30
X0.8558 Y-0.1076 I0.0227 J0.0104 F40
G1 X1.2658 Y-0.1351
G3 X1.2903 Y-0.1206 I0.0017 J0.0249
X1.2925 Y-0.1111 I-0.0227 J0.0104 F30
G1 Y-0.0796 F40
X1.2922 Y-0.0736
X1.2899 Y-0.0668
X1.2869 Y-0.06
X1.2827 Y-0.0521
X1.2773 Y-0.0437
X1.2707 Y-0.0351
X1.2619 Y-0.0253
X1.2516 Y-0.0156
X1.2391 Y-0.0055
X1.2234 Y0.0052
X1.2047 Y0.0158
X1.1813 Y0.0267
X1.1514 Y0.0379
X1.1138 Y0.0485
X1.0756 Y0.0562
X1.037 Y0.0618
X0.9983 Y0.0659
X0.9609 Y0.0684
X0.9353 Y0.0681
X0.9156 Y0.0662
X0.8973 Y0.063
X0.8818 Y0.059
X0.8717 Y0.0555
X0.8608 Y0.0504
X0.8512 Y0.0432
X0.8433 Y0.0342
X0.8374 Y0.0237
X0.8337 Y0.0123
X0.8325 Y0.0004
G3 X0.8347 Y-0.0091 I0.025 J0.0009 F30
X0.8527 Y-0.0233 I0.0227 J0.0104 F40
G1 X1.2627 Y-0.1033
G3 X1.2903 Y-0.0891 I0.0048 J0.0245
X1.2925 Y-0.0796 I-0.0227 J0.0104 F30
G1 Y-0.0264 F40
X1.2922 Y-0.0205
X1.2912 Y-0.0133
X1.2896 Y-0.006
X1.2869 Y0.0025
X1.2835 Y0.0112
X1.2786 Y0.0208
X1.2725 Y0.031
X1.2649 Y0.0417
X1.255 Y0.0534
X1.2437 Y0.0647
X1.2287 Y0.0776
X1.2122 Y0.0896
X1.1908 Y0.1026
X1.1658 Y0.1152
X1.1344 Y0.128
X1.0972 Y0.1397
X1.0593 Y0.1487
X1.0208 Y0.155
X0.9865 Y0.1579
X0.9554 Y0.1581
X0.9291 Y0.1561
X0.9083 Y0.1528
X0.8895 Y0.1483
X0.8741 Y0.1433
X0.8683 Y0.1408
X0.8583 Y0.1354
X0.8495 Y0.1282
X0.8423 Y0.1194
X0.8369 Y0.1093
X0.8336 Y0.0984
X0.8325 Y0.087
Y0.0004
G3 X0.8347 Y-0.0091 I0.025 J0.0009 F30
X0.8559 Y-0.0237 I0.0227 J0.0104 F40
G1 X1.2659 Y-0.0505
G3 X1.2903 Y-0.0359 I0.0016 J0.0249
X1.2925 Y-0.0264 I-0.0227 J0.0104 F30
G1 Y0.0484 F40
X1.2922 Y0.0548
X1.2912 Y0.0625
X1.2893 Y0.0713
X1.2866 Y0.0803
X1.2825 Y0.0907
X1.2775 Y0.1011
X1.2705 Y0.113
X1.2623 Y0.1247
X1.2515 Y0.1377
X1.2388 Y0.1507
X1.2229 Y0.1646
X1.2042 Y0.1784
X1.1809 Y0.1929
X1.155 Y0.2063
X1.1243 Y0.2191
X1.0906 Y0.2301
X1.0554 Y0.2385
X1.0204 Y0.244
X0.9869 Y0.2465
X0.9554 Y0.2463
X0.9294 Y0.2441
X0.9071 Y0.2403
X0.8887 Y0.2357
X0.873 Y0.2304
X0.8677 Y0.2281
X0.8578 Y0.2226
X0.8492 Y0.2154
X0.8421 Y0.2066
X0.8368 Y0.1966
X0.8336 Y0.1858
X0.8325 Y0.1745
Y0.087
G3 X0.8347 Y0.0775 I0.025 J0.0009 F30
X0.8551 Y0.063 I0.0227 J0.0104 F40
G1 X1.2652 Y0.0244
G3 X1.2903 Y0.0389 I0.0023 J0.0249
X1.2925 Y0.0484 I-0.0227 J0.0104 F30
G1 Y0.1282 F40
X1.292 Y0.1376
X1.291 Y0.1456
X1.289 Y0.155
X1.2861 Y0.1646
X1.2819 Y0.1755
X1.2762 Y0.1871
X1.2691 Y0.1993
X1.2598 Y0.2124
X1.2488 Y0.2257
X1.2349 Y0.2399
X1.2186 Y0.2542
X1.1993 Y0.2684
X1.1758 Y0.283
X1.1507 Y0.296
X1.1217 Y0.3081
X1.0896 Y0.3186
X1.0557 Y0.3267
X1.0216 Y0.3321
X0.9884 Y0.3345
X0.957 Y0.3344
X0.9302 Y0.332
X0.9076 Y0.3283
X0.8892 Y0.3236
X0.8732 Y0.3182
X0.8677 Y0.3158
X0.8578 Y0.3104
X0.8492 Y0.3031
X0.8421 Y0.2943
X0.8368 Y0.2843
X0.8336 Y0.2735
X0.8325 Y0.2623
Y0.1745
G3 X0.8347 Y0.165 I0.025 J0.0009 F30
X0.8547 Y0.1506 I0.0227 J0.0104 F40
G1 X1.2647 Y0.1042
G3 X1.2903 Y0.1187 I0.0028 J0.0248
X1.2925 Y0.1282 I-0.0227 J0.0104 F30
G1 Y0.2168 F40
X1.2922 Y0.2234
X1.2911 Y0.2319
X1.289 Y0.2413
X1.2859 Y0.2517
X1.2817 Y0.2625
X1.2757 Y0.2748
X1.2686 Y0.287
X1.259 Y0.3006
X1.2479 Y0.314
X1.2338 Y0.3284
X1.2175 Y0.3427
X1.1982 Y0.3569
X1.1749 Y0.3714
X1.1498 Y0.3844
X1.1213 Y0.3963
X1.0897 Y0.4066
X1.0561 Y0.4147
X1.0221 Y0.42
X0.9889 Y0.4225
X0.9575 Y0.4223
X0.9305 Y0.42
X0.9078 Y0.4161
X0.8893 Y0.4115
X0.8734 Y0.4061
X0.8677 Y0.4036
X0.8578 Y0.3982
X0.8492 Y0.3909
X0.8421 Y0.3821
X0.8368 Y0.3721
X0.8336 Y0.3613
X0.8325 Y0.3501
Y0.2623
G3 X0.8347 Y0.2528 I0.025 J0.0009 F30
X0.8547 Y0.2383 I0.0227 J0.0104 F40
G1 X1.2648 Y0.1928
G3 X1.2903 Y0.2073 I0.0028 J0.0248
X1.2925 Y0.2168 I-0.0227 J0.0104 F30
G1 Y0.3054 F40
X1.2922 Y0.3114
X1.291 Y0.32
X1.289 Y0.3295
X1.2858 Y0.3401
X1.2814 Y0.351
X1.2754 Y0.3634
X1.2681 Y0.3757
X1.2584 Y0.3894
X1.2471 Y0.4028
X1.2329 Y0.4172
X1.2163 Y0.4316
X1.1971 Y0.4457
X1.1737 Y0.4601
X1.1483 Y0.4731
X1.1199 Y0.4848
X1.0884 Y0.495
X1.0548 Y0.5029
X1.0207 Y0.5081
X0.9875 Y0.5104
X0.9561 Y0.5101
X0.9295 Y0.5077
X0.907 Y0.5038
X0.8885 Y0.4991
X0.8727 Y0.4936
X0.8675 Y0.4914
X0.8577 Y0.4859
X0.8491 Y0.4786
X0.842 Y0.4699
X0.8368 Y0.4599
X0.8336 Y0.4491
X0.8325 Y0.4379
Y0.3501
G3 X0.8347 Y0.3406 I0.025 J0.0009 F30
X0.8548 Y0.3261 I0.0227 J0.0104 F40
G1 X1.2648 Y0.2814
G3 X1.2903 Y0.2959 I0.0027 J0.0249
X1.2925 Y0.3054 I-0.0227 J0.0104 F30
G1 Y0.39 F40
X1.292 Y0.399
X1.2909 Y0.4078
X1.2889 Y0.4171
X1.2857 Y0.4277
X1.2815 Y0.4385
X1.2755 Y0.4509
X1.2683 Y0.4631
X1.2587 Y0.4768
X1.2476 Y0.4901
X1.2335 Y0.5047
X1.2173 Y0.5188
X1.198 Y0.533
X1.1748 Y0.5474
X1.15 Y0.5603
X1.1216 Y0.5721
X1.09 Y0.5824
X1.0565 Y0.5905
X1.0226 Y0.5958
X0.9894 Y0.5983
X0.958 Y0.5981
X0.9307 Y0.5957
X0.908 Y0.5919
X0.8895 Y0.5872
X0.8734 Y0.5818
X0.8677 Y0.5793
X0.8578 Y0.5739
X0.8492 Y0.5666
X0.8421 Y0.5578
X0.8368 Y0.5478
X0.8336 Y0.537
X0.8325 Y0.5258
Y0.4379
G3 X0.8347 Y0.4284 I0.025 J0.0009 F30
X0.8546 Y0.414 I0.0227 J0.0104 F40
G1 X1.2646 Y0.366
G3 X1.2903 Y0.3805 I0.0029 J0.0248
X1.2925 Y0.39 I-0.0227 J0.0104 F30
G1 Y0.4786 F40
X1.2921 Y0.487
X1.2909 Y0.4956
X1.2889 Y0.505
X1.2858 Y0.5156
X1.2815 Y0.5264
X1.2755 Y0.5388
X1.2683 Y0.551
X1.2587 Y0.5647
X1.2477 Y0.5781
X1.2336 Y0.5925
X1.2172 Y0.6067
X1.1981 Y0.6209
X1.1749 Y0.6353
X1.1499 Y0.6483
X1.1216 Y0.6601
X1.0902 Y0.6703
X1.0567 Y0.6784
X1.0227 Y0.6837
X0.9895 Y0.6862
X0.958 Y0.686
X0.9308 Y0.6836
X0.908 Y0.6798
X0.8895 Y0.6751
X0.8734 Y0.6697
X0.8677 Y0.6672
X0.8578 Y0.6618
X0.8492 Y0.6545
X0.8421 Y0.6457
X0.8368 Y0.6357
X0.8336 Y0.6249
X0.8325 Y0.6137
Y0.5258
G3 X0.8347 Y0.5163 I0.025 J0.0009 F30
X0.8546 Y0.5018 I0.0227 J0.0104 F40
G1 X1.2647 Y0.4546
G3 X1.2903 Y0.4691 I0.0029 J0.0248
X1.2925 Y0.4786 I-0.0227 J0.0104 F30
G1 Y0.5672 F40
X1.2921 Y0.5749
X1.291 Y0.5836
X1.289 Y0.593
X1.2858 Y0.6035
X1.2816 Y0.6144
X1.2756 Y0.6267
X1.2684 Y0.6389
X1.2588 Y0.6527
X1.2477 Y0.666
X1.2336 Y0.6804
X1.2173 Y0.6947
X1.1982 Y0.7088
X1.175 Y0.7232
X1.15 Y0.7361
X1.1217 Y0.748
X1.0903 Y0.7582
X1.0568 Y0.7663
X1.0228 Y0.7716
X0.9895 Y0.774
X0.958 Y0.7739
X0.9309 Y0.7715
X0.9081 Y0.7677
X0.8895 Y0.763
X0.8735 Y0.7576
X0.8677 Y0.7551
X0.8578 Y0.7496
X0.8492 Y0.7424
X0.8421 Y0.7336
X0.8368 Y0.7236
X0.8336 Y0.7128
X0.8325 Y0.7015
Y0.6137
G3 X0.8347 Y0.6042 I0.025 J0.0009 F30
X0.8547 Y0.5897 I0.0227 J0.0104 F40
G1 X1.2647 Y0.5432
G3 X1.2903 Y0.5577 I0.0028 J0.0248
X1.2925 Y0.5672 I-0.0227 J0.0104 F30
G1 Y0.651 F40
X1.2919 Y0.663
X1.2908 Y0.6717
X1.2888 Y0.6811
X1.2856 Y0.6916
X1.2814 Y0.7024
X1.2754 Y0.7148
X1.2682 Y0.727
X1.2586 Y0.7406
X1.2475 Y0.754
X1.2335 Y0.7684
X1.2171 Y0.7826
X1.1981 Y0.7967
X1.1749 Y0.8111
X1.1499 Y0.8241
X1.1217 Y0.8359
X1.0903 Y0.8461
X1.0568 Y0.8541
X1.0228 Y0.8595
X0.9895 Y0.8619
X0.958 Y0.8618
X0.9309 Y0.8594
X0.9081 Y0.8556
X0.8895 Y0.8509
X0.8735 Y0.8455
X0.8677 Y0.843
X0.8578 Y0.8375
X0.8492 Y0.8303
X0.8421 Y0.8215
X0.8368 Y0.8115
X0.8336 Y0.8007
X0.8325 Y0.7894
Y0.7015
G3 X0.8347 Y0.692 I0.025 J0.0009 F30
X0.8544 Y0.6776 I0.0227 J0.0104 F40
G1 X1.2645 Y0.627
G3 X1.2903 Y0.6415 I0.0031 J0.0248
X1.2925 Y0.651 I-0.0227 J0.0104 F30
G1 Y0.7396 F40
X1.2919 Y0.7508
X1.2908 Y0.7595
X1.2888 Y0.7689
X1.2856 Y0.7795
X1.2814 Y0.7903
X1.2754 Y0.8026
X1.2682 Y0.8148
X1.2586 Y0.8285
X1.2475 Y0.8419
X1.2335 Y0.8563
X1.2171 Y0.8705
X1.1981 Y0.8846
X1.175 Y0.899
X1.1499 Y0.912
X1.1217 Y0.9237
X1.0903 Y0.934
X1.0568 Y0.942
X1.0228 Y0.9473
X0.9895 Y0.9498
X0.958 Y0.9497
X0.9309 Y0.9473
X0.9081 Y0.9435
X0.8895 Y0.9388
X0.8735 Y0.9334
X0.8677 Y0.9309
X0.8578 Y0.9254
X0.8492 Y0.9182
X0.8421 Y0.9094
X0.8368 Y0.8994
X0.8336 Y0.8886
X0.8325 Y0.8773
Y0.7894
G3 X0.8347 Y0.7799 I0.025 J0.0009 F30
X0.8545 Y0.7655 I0.0227 J0.0104 F40
G1 X1.2645 Y0.7156
G3 X1.2903 Y0.7301 I0.003 J0.0248
X1.2925 Y0.7396 I-0.0227 J0.0104 F30
G1 Y0.8282 F40
X1.292 Y0.8387
X1.2908 Y0.8474
X1.2888 Y0.8568
X1.2857 Y0.8673
X1.2814 Y0.8782
X1.2755 Y0.8905
X1.2683 Y0.9027
X1.2586 Y0.9164
X1.2476 Y0.9298
X1.2335 Y0.9441
X1.2172 Y0.9584
X1.1981 Y0.9725
X1.175 Y0.9869
X1.1499 Y0.9998
X1.1217 Y1.0116
X1.0903 Y1.0219
X1.0568 Y1.0299
X1.0228 Y1.0352
X0.9896 Y1.0377
X0.958 Y1.0375
X0.9309 Y1.0352
X0.9081 Y1.0314
X0.8895 Y1.0267
X0.8735 Y1.0212
X0.8677 Y1.0188
X0.8578 Y1.0133
X0.8492 Y1.0061
X0.8421 Y0.9973
X0.8368 Y0.9873
X0.8336 Y0.9765
X0.8325 Y0.9652
Y0.8773
G3 X0.8347 Y0.8678 I0.025 J0.0009 F30
X0.8545 Y0.8534 I0.0227 J0.0104 F40
G1 X1.2645 Y0.8042
G3 X1.2903 Y0.8187 I0.003 J0.0248
X1.2925 Y0.8282 I-0.0227 J0.0104 F30
G1 Y0.9168 F40
X1.292 Y0.9266
X1.2909 Y0.9353
X1.2889 Y0.9447
X1.2857 Y0.9552
X1.2815 Y0.966
X1.2755 Y0.9784
X1.2683 Y0.9906
X1.2587 Y1.0043
X1.2476 Y1.0177
X1.2336 Y1.032
X1.2172 Y1.0463
X1.1981 Y1.0604
X1.175 Y1.0748
X1.15 Y1.0877
X1.1217 Y1.0995
X1.0903 Y1.1098
X1.0568 Y1.1178
X1.0228 Y1.1231
X0.9896 Y1.1256
X0.958 Y1.1254
X0.9309 Y1.1231
X0.9081 Y1.1193
X0.8895 Y1.1146
X0.8735 Y1.1091
X0.8585 Y1.1027
X0.8567 Y1.1017
X0.8462 Y1.0946
X0.8375 Y1.0854
X0.831 Y1.0745
X0.827 Y1.0625
X0.8257 Y1.0499
X0.8271 Y1.0373
X0.8312 Y1.0192
X0.8323 Y0.9965
X0.8325 Y0.9877
Y0.9652
G3 X0.8347 Y0.9557 I0.025 J0.0009 F30
X0.8546 Y0.9413 I0.0227 J0.0104 F40
G1 X1.2646 Y0.8928
G3 X1.2903 Y0.9073 I0.0029 J0.0248
X1.2925 Y0.9168 I-0.0227 J0.0104 F30
G1 Y0.9877 F40
X1.2927 Y0.9965
X1.293 Y1.0014
X1.2929 Y1.0091
X1.2922 Y1.0176
X1.2908 Y1.0263
X1.2883 Y1.0364
X1.2848 Y1.0469
X1.2798 Y1.0585
X1.2734 Y1.0708
X1.2652 Y1.0837
X1.255 Y1.0972
X1.2425 Y1.1114
X1.2279 Y1.1253
X1.2097 Y1.1402
X1.1898 Y1.154
X1.166 Y1.1677
X1.1385 Y1.1808
X1.1088 Y1.1921
X1.0772 Y1.2013
X1.0433 Y1.2083
X1.0091 Y1.2125
X0.9764 Y1.2139
X0.9465 Y1.2127
X0.9187 Y1.2094
X0.8967 Y1.205
X0.8784 Y1.1997
X0.8617 Y1.1934
X0.8478 Y1.1869
X0.8345 Y1.1793
X0.8233 Y1.1716
X0.8126 Y1.163
X0.812 Y1.1624
X0.8042 Y1.1532
X0.7984 Y1.1426
X0.7948 Y1.1311
X0.7937 Y1.1191
X0.795 Y1.1071
X0.7988 Y1.0956
X0.8048 Y1.0851
G3 X0.8121 Y1.0787 I0.0198 J0.0153 F30
X0.8192 Y1.076 I0.0124 J0.0217 F40
G1 X1.2627 Y0.979
G3 X1.2903 Y0.992 I0.0053 J0.0244
X1.293 Y1.0014 I-0.0222 J0.0114 F30
G1 X1.2938 Y1.0192 F40
X1.2987 Y1.0408
X1.301 Y1.0485
X1.3015 Y1.0497
X1.3036 Y1.0559
X1.3051 Y1.0618
X1.3061 Y1.0681
X1.3068 Y1.0757
Y1.0837
X1.3061 Y1.093
X1.3046 Y1.1026
X1.302 Y1.1137
X1.2983 Y1.125
X1.293 Y1.1377
X1.2864 Y1.1504
X1.2776 Y1.1647
X1.2673 Y1.1785
X1.2539 Y1.1939
X1.2387 Y1.2087
X1.2205 Y1.2239
X1.1985 Y1.2393
X1.1748 Y1.2533
X1.1475 Y1.2666
X1.1166 Y1.2786
X1.0833 Y1.2886
X1.0487 Y1.296
X1.0138 Y1.3006
X0.9799 Y1.3023
X0.948 Y1.3013
X0.9181 Y1.298
X0.891 Y1.2927
X0.8663 Y1.2859
X0.8436 Y1.2775
X0.8252 Y1.2691
X0.8098 Y1.2604
X0.7959 Y1.251
X0.7844 Y1.2419
X0.7736 Y1.2317
X0.7647 Y1.222
X0.7565 Y1.2113
X0.7498 Y1.201
X0.748 Y1.1977
X0.7433 Y1.1862
X0.7411 Y1.1739
X0.7415 Y1.1614
X0.7446 Y1.1493
X0.7502 Y1.1382
X0.758 Y1.1284
X0.7677 Y1.1206
G3 X0.7765 Y1.1174 I0.0128 J0.0215 F30
G1 X0.7769 Y1.1173
X1.2745 Y1.035 F40
G3 X1.2959 Y1.0417 I0.0041 J0.0247
X1.3015 Y1.0497 I-0.0173 J0.018 F30
G1 X1.305 Y1.0585 F40
X1.3099 Y1.0687
X1.3187 Y1.083
X1.3202 Y1.0851
X1.3223 Y1.0878
X1.3258 Y1.0927
X1.3288 Y1.0979
X1.3313 Y1.1036
X1.3335 Y1.1097
X1.3355 Y1.1171
X1.3369 Y1.1249
X1.3378 Y1.134
X1.338 Y1.1435
X1.3374 Y1.1546
X1.3358 Y1.1659
X1.3329 Y1.1788
X1.3289 Y1.1918
X1.3231 Y1.2062
X1.3157 Y1.2211
X1.3063 Y1.2368
X1.2944 Y1.2535
X1.2808 Y1.2696
X1.2639 Y1.2866
X1.2437 Y1.3039
X1.2216 Y1.3199
X1.1954 Y1.3359
X1.1655 Y1.351
X1.1326 Y1.3644
X1.098 Y1.3753
X1.0617 Y1.3837
X1.0244 Y1.3892
X0.987 Y1.3916
X0.9508 Y1.3911
X0.9162 Y1.3878
X0.8839 Y1.3821
X0.854 Y1.3743
X0.8266 Y1.3647
X0.8022 Y1.3539
X0.7804 Y1.3421
X0.7603 Y1.329
X0.7425 Y1.3153
X0.7281 Y1.3021
X0.7162 Y1.2895
X0.7061 Y1.2767
X0.6979 Y1.2645
X0.6909 Y1.252
X0.6853 Y1.2399
X0.6808 Y1.2278
X0.6775 Y1.2156
X0.6762 Y1.209
X0.6752 Y1.1965
X0.6768 Y1.1841
X0.6811 Y1.1723
X0.6878 Y1.1617
X0.6965 Y1.1528
X0.707 Y1.146
X0.7187 Y1.1415
X0.7268 Y1.1394
G3 X0.7297 Y1.139 I0.0055 J0.0244 F30
G1 X0.7365 Y1.1382
X1.3006 Y1.0791 F40
G3 X1.3147 Y1.0817 I0.0026 J0.0249
X1.3223 Y1.0878 I-0.0115 J0.0222 F30
G1 X1.3272 Y1.094 F40
X1.3364 Y1.1031
X1.3452 Y1.1117
X1.3501 Y1.1154
X1.3546 Y1.1193
X1.3589 Y1.1236
X1.3627 Y1.1282
X1.3662 Y1.1334
X1.3696 Y1.1394
X1.3729 Y1.1462
X1.3758 Y1.154
X1.3783 Y1.1628
X1.3802 Y1.1723
X1.3816 Y1.1833
X1.382 Y1.1946
X1.3815 Y1.2077
X1.3798 Y1.2212
X1.3768 Y1.2359
X1.3722 Y1.2518
X1.366 Y1.268
X1.3575 Y1.2859
X1.3472 Y1.3038
X1.3345 Y1.3222
X1.3185 Y1.3418
X1.3001 Y1.3609
X1.2787 Y1.3799
X1.2532 Y1.3991
X1.2239 Y1.4177
X1.1922 Y1.4344
X1.1579 Y1.4491
X1.1209 Y1.4615
X1.0831 Y1.471
X1.0446 Y1.4776
X1.0058 Y1.4813
X0.9669 Y1.4822
X0.9279 Y1.4801
X0.8893 Y1.475
X0.8526 Y1.4672
X0.8182 Y1.4569
X0.7861 Y1.4443
X0.7569 Y1.4302
X0.7311 Y1.415
X0.7079 Y1.3987
X0.6873 Y1.3815
X0.6692 Y1.3638
X0.6594 Y1.3526
X0.6532 Y1.3441
X0.6487 Y1.3347
X0.6459 Y1.3246
X0.645 Y1.3142
Y1.1737
Y1.1693
X0.6452 Y1.1671
X0.6456 Y1.1649
X0.6463 Y1.1624
X0.6473 Y1.16
X0.6483 Y1.158
X0.6496 Y1.156
X0.6511 Y1.1541
X0.6529 Y1.1522
X0.6561 Y1.1496
X0.6583 Y1.1482
X0.6604 Y1.1472
X0.6627 Y1.1463
X0.665 Y1.1456
X0.6672 Y1.1452
X0.6694 Y1.145
X0.6738
X0.6826 Y1.1449
X0.7003 Y1.1443
X0.7091 Y1.1432
X0.718 Y1.1417
X0.7187 Y1.1415
G3 X0.723 Y1.141 I0.0055 J0.0244 F30
G1 X0.7285 Y1.1407
X1.3344 Y1.1109 F40
G3 X1.3411 Y1.1114 I0.0012 J0.025
X1.3501 Y1.1154 I-0.0056 J0.0244 F30
G1 X1.354 Y1.1185 F40
X1.3573 Y1.1206
X1.3629 Y1.124
X1.3717 Y1.1291
X1.3805 Y1.1332
X1.3832 Y1.1342
X1.3887 Y1.1367
X1.3938 Y1.1398
X1.3986 Y1.1433
X1.4034 Y1.1476
X1.4079 Y1.1524
X1.4127 Y1.1582
X1.4172 Y1.1648
X1.4215 Y1.1724
X1.4256 Y1.1811
X1.4292 Y1.1907
X1.4324 Y1.2017
X1.4347 Y1.2133
X1.4363 Y1.2267
X1.4368 Y1.2408
X1.4362 Y1.256
X1.4341 Y1.273
X1.4306 Y1.2901
X1.4251 Y1.3089
X1.4174 Y1.3291
X1.4079 Y1.3491
X1.3956 Y1.3704
X1.38 Y1.3929
X1.3621 Y1.4148
X1.3407 Y1.4371
X1.3154 Y1.4596
X1.2861 Y1.4815
X1.2536 Y1.5021
X1.219 Y1.5203
X1.1832 Y1.5356
X1.1463 Y1.5483
X1.1087 Y1.5584
X1.0704 Y1.566
X1.0317 Y1.571
X0.9928 Y1.5736
X0.9539
X0.915 Y1.5709
X0.8763 Y1.5656
X0.8382 Y1.5576
X0.8007 Y1.5469
X0.7641 Y1.5335
X0.7287 Y1.5173
X0.6961 Y1.4991
X0.6684 Y1.4806
X0.6671 Y1.4796
X0.6578 Y1.4703
X0.6508 Y1.4592
X0.6465 Y1.4469
X0.645 Y1.4338
Y1.3142
G3 X0.6472 Y1.3047 I0.025 J0.0009 F30
X0.6645 Y1.2907 I0.0227 J0.0104 F40
G1 X1.3697 Y1.1335
G3 X1.3735 Y1.133 I0.0054 J0.0244
X1.3832 Y1.1342 I0.0016 J0.0249 F30
G1 X1.3894 Y1.1366 F40
X1.3941 Y1.1383
X1.3982 Y1.1394
X1.407 Y1.1417
X1.4159 Y1.1432
X1.4185 Y1.1436
X1.4245 Y1.1446
X1.4302 Y1.1463
X1.4358 Y1.1485
X1.4412 Y1.1513
X1.4466 Y1.1547
X1.4525 Y1.1591
X1.4583 Y1.1642
X1.4642 Y1.1702
X1.4666 Y1.1731
X1.4723 Y1.1813
X1.4765 Y1.1905
X1.4791 Y1.2002
X1.48 Y1.2103
G3 X1.4778 Y1.2198 I-0.025 J-0.0009 F30
X1.4368 Y1.2266 I-0.0227 J-0.0104 F40
G1 X1.3982 Y1.1856
G3 X1.4088 Y1.1446 I0.0182 J-0.0172
X1.4185 Y1.1436 I0.0075 J0.0238 F30
G1 X1.4247 Y1.1443 F40
X1.4424 Y1.1449
X1.4512 Y1.145
X1.4556
X1.4578 Y1.1452
X1.46 Y1.1456
X1.4623 Y1.1463
X1.4646 Y1.1472
X1.4667 Y1.1482
X1.4689 Y1.1496
X1.4721 Y1.1522
X1.4739 Y1.1541
X1.4754 Y1.156
X1.4767 Y1.158
X1.4777 Y1.16
X1.4787 Y1.1624
X1.4794 Y1.1649
X1.4798 Y1.1671
X1.48 Y1.1693
Y1.1826
Y1.3155
X1.4792 Y1.3318
X1.477 Y1.3482
X1.4733 Y1.3655
X1.4677 Y1.3841
X1.4597 Y1.4047
X1.4498 Y1.4252
X1.4364 Y1.4479
X1.4198 Y1.4715
X1.4006 Y1.4947
X1.3768 Y1.5191
X1.3487 Y1.5436
X1.3174 Y1.5668
X1.2843 Y1.5874
X1.2498 Y1.6055
X1.214 Y1.6211
X1.1773 Y1.6343
X1.1399 Y1.6452
X1.1019 Y1.6538
X1.0634 Y1.6602
X1.0246 Y1.6644
X0.9857 Y1.6663
X0.9467 Y1.6659
X0.9078 Y1.6631
X0.8692 Y1.658
X0.8309 Y1.6506
X0.7931 Y1.6409
X0.756 Y1.6289
X0.7198 Y1.6146
X0.689 Y1.5998
X0.674 Y1.5911
X0.6642 Y1.5839
X0.6561 Y1.5749
X0.65 Y1.5643
X0.6463 Y1.5528
X0.645 Y1.5407
Y1.4338
G3 X0.6472 Y1.4243 I0.025 J0.0009 F30
X0.6663 Y1.41 I0.0227 J0.0104 F40
G1 X1.4513 Y1.2917
G3 X1.4778 Y1.306 I0.0037 J0.0247
X1.48 Y1.3155 I-0.0227 J0.0104 F30
G1 Y1.4484 F40
X1.4795 Y1.4591
X1.478 Y1.4706
X1.475 Y1.4843
X1.4709 Y1.4982
X1.4646 Y1.5143
X1.4564 Y1.5312
X1.4454 Y1.55
X1.4317 Y1.5694
X1.4138 Y1.5909
X1.3936 Y1.6117
X1.3684 Y1.6337
X1.3382 Y1.656
X1.3051 Y1.6766
X1.2705 Y1.6947
X1.2348 Y1.7104
X1.1982 Y1.7238
X1.1609 Y1.735
X1.1229 Y1.744
X1.0846 Y1.7509
X1.0459 Y1.7558
X1.007 Y1.7587
X0.968 Y1.7595
X0.929 Y1.7582
X0.8902 Y1.755
X0.8516 Y1.7496
X0.8133 Y1.7422
X0.7755 Y1.7327
X0.7382 Y1.7211
X0.7038 Y1.7081
X0.6817 Y1.6977
X0.6743 Y1.6934
X0.6644 Y1.6863
X0.6562 Y1.6772
X0.6501 Y1.6666
X0.6463 Y1.655
X0.645 Y1.6428
Y1.5407
G3 X0.6472 Y1.5312 I0.025 J0.0009 F30
X0.6671 Y1.5167 I0.0227 J0.0104 F40
G1 X1.4521 Y1.4245
G3 X1.4778 Y1.4389 I0.0029 J0.0248
X1.48 Y1.4484 I-0.0227 J0.0104 F30
G1 Y1.5547 F40
X1.4793 Y1.569
X1.4778 Y1.5801
X1.4754 Y1.5914
X1.4714 Y1.6049
X1.466 Y1.6187
X1.4584 Y1.6343
X1.4486 Y1.651
X1.4361 Y1.6688
X1.4206 Y1.6875
X1.4007 Y1.7079
X1.3778 Y1.7279
X1.3495 Y1.7488
X1.3164 Y1.7694
X1.2818 Y1.7874
X1.246 Y1.8029
X1.2093 Y1.8161
X1.172 Y1.8273
X1.1341 Y1.8364
X1.0957 Y1.8435
X1.0571 Y1.8486
X1.0182 Y1.8518
X0.9792 Y1.8531
X0.9403 Y1.8526
X0.9013 Y1.8502
X0.8626 Y1.846
X0.824 Y1.84
X0.7859 Y1.8322
X0.7481 Y1.8224
X0.7138 Y1.8113
X0.6901 Y1.8015
X0.6768 Y1.7946
X0.6661 Y1.7876
X0.6572 Y1.7784
X0.6505 Y1.7675
X0.6464 Y1.7554
X0.645 Y1.7427
Y1.6428
G3 X0.6472 Y1.6334 I0.025 J0.0009 F30
X0.6672 Y1.6189 I0.0227 J0.0104 F40
G1 X1.4522 Y1.5308
G3 X1.4778 Y1.5452 I0.0028 J0.0248
X1.48 Y1.5547 I-0.0227 J0.0104 F30
G1 Y1.6611 F40
X1.4794 Y1.6724
X1.4781 Y1.6822
X1.4757 Y1.6936
X1.4719 Y1.7062
X1.4668 Y1.7193
X1.4594 Y1.7346
X1.4505 Y1.7496
X1.4381 Y1.7673
X1.424 Y1.7844
X1.4052 Y1.8036
X1.3829 Y1.8231
X1.3561 Y1.8429
X1.3234 Y1.8632
X1.2888 Y1.8811
X1.253 Y1.8965
X1.2162 Y1.9096
X1.1788 Y1.9206
X1.1409 Y1.9297
X1.1026 Y1.9368
X1.0639 Y1.942
X1.0251 Y1.9454
X0.9861 Y1.9471
X0.9472 Y1.947
X0.9082 Y1.9453
X0.8694 Y1.9418
X0.8307 Y1.9367
X0.7923 Y1.93
X0.7543 Y1.9214
X0.7185 Y1.9109
X0.6948 Y1.9018
X0.6751 Y1.8924
X0.6741 Y1.8918
X0.6642 Y1.8847
X0.6561 Y1.8756
X0.65 Y1.8651
X0.6463 Y1.8535
X0.645 Y1.8414
Y1.7427
G3 X0.6472 Y1.7332 I0.025 J0.0009 F30
X0.6674 Y1.7187 I0.0227 J0.0104 F40
G1 X1.4524 Y1.6371
G3 X1.4778 Y1.6516 I0.0026 J0.0249
X1.48 Y1.6611 I-0.0227 J0.0104 F30
G1 Y1.7585 F40
X1.4793 Y1.7724
X1.4781 Y1.782
X1.4756 Y1.7933
X1.4721 Y1.805
X1.467 Y1.8182
X1.4601 Y1.8325
X1.4513 Y1.8474
X1.4394 Y1.8643
X1.4256 Y1.881
X1.4076 Y1.8993
X1.3857 Y1.9185
X1.36 Y1.9375
X1.3282 Y1.9573
X1.2936 Y1.9751
X1.2577 Y1.9905
X1.221 Y2.0035
X1.1836 Y2.0144
X1.1456 Y2.0234
X1.1073 Y2.0305
X1.0687 Y2.0359
X1.0298 Y2.0394
X0.9909 Y2.0414
X0.9519 Y2.0416
X0.9129 Y2.0403
X0.874 Y2.0375
X0.8353 Y2.0331
X0.7968 Y2.027
X0.7586 Y2.0192
X0.7221 Y2.0093
X0.6972 Y2.0003
X0.6782 Y1.9917
X0.6751 Y1.99
X0.6649 Y1.9829
X0.6565 Y1.9737
X0.6502 Y1.9631
X0.6463 Y1.9513
X0.645 Y1.939
Y1.8414
G3 X0.6472 Y1.8319 I0.025 J0.0009 F30
X0.6674 Y1.8174 I0.0227 J0.0104 F40
G1 X1.4524 Y1.7346
G3 X1.4778 Y1.749 I0.0026 J0.0249
X1.48 Y1.7585 I-0.0227 J0.0104 F30
G1 Y1.8609 F40
X1.4795 Y1.8701
X1.4792 Y1.8761
X1.4785 Y1.882
X1.4776 Y1.8879
X1.4763 Y1.8938
X1.4749 Y1.8996
X1.4731 Y1.9054
X1.4712 Y1.9111
X1.469 Y1.9167
X1.4667 Y1.9222
X1.4642 Y1.9276
X1.4615 Y1.933
X1.4586 Y1.9383
X1.4556 Y1.9435
X1.4525 Y1.9486
X1.4492 Y1.9536
X1.4458 Y1.9585
X1.4423 Y1.9634
X1.4386 Y1.9681
X1.4348 Y1.9728
X1.431 Y1.9774
X1.427 Y1.9819
X1.423 Y1.9863
X1.4188 Y1.9907
X1.4146 Y1.9949
X1.4103 Y1.9991
X1.4059 Y2.0032
X1.4014 Y2.0072
X1.3969 Y2.0111
X1.3923 Y2.015
X1.3877 Y2.0188
X1.3829 Y2.0225
X1.3782 Y2.0261
X1.3733 Y2.0297
X1.3684 Y2.0332
X1.3635 Y2.0366
X1.3585 Y2.0399
X1.3535 Y2.0432
X1.3484 Y2.0464
X1.3433 Y2.0495
X1.3382 Y2.0526
X1.333 Y2.0556
X1.3277 Y2.0586
X1.3225 Y2.0614
X1.3172 Y2.0643
X1.3119 Y2.067
X1.3065 Y2.0697
X1.3011 Y2.0723
X1.2957 Y2.0749
X1.2902 Y2.0774
X1.2848 Y2.0799
X1.2793 Y2.0823
X1.2737 Y2.0847
X1.2682 Y2.087
X1.2626 Y2.0892
X1.257 Y2.0914
X1.2514 Y2.0935
X1.2458 Y2.0956
X1.2402 Y2.0976
X1.2345 Y2.0996
X1.2288 Y2.1015
X1.2231 Y2.1034
X1.2174 Y2.1052
X1.2117 Y2.107
X1.2059 Y2.1087
X1.2002 Y2.1104
X1.1944 Y2.1121
X1.1886 Y2.1137
X1.1828 Y2.1152
X1.177 Y2.1167
X1.1712 Y2.1181
X1.1652 Y2.1196
X1.1589 Y2.1211
X1.153 Y2.1224
X1.1471 Y2.1237
X1.1413 Y2.1249
X1.1354 Y2.1261
X1.1292 Y2.1272
X1.1227 Y2.1285
X1.1158 Y2.1297
X1.1099 Y2.1307
X1.104 Y2.1316
X1.098 Y2.1326
X1.0917 Y2.1335
X1.085 Y2.1344
X1.0778 Y2.1354
X1.0707 Y2.1363
X1.0647 Y2.137
X1.0585 Y2.1377
X1.052 Y2.1383
X1.0451 Y2.139
X1.0377 Y2.1396
X1.0299 Y2.1403
X1.0235 Y2.1407
X1.0171 Y2.1411
X1.0104 Y2.1415
X1.0032 Y2.1419
X0.9956 Y2.1422
X0.9874 Y2.1425
X0.9807 Y2.1427
X0.9741 Y2.1429
X0.9672 Y2.143
X0.9598
X0.9519
X0.9435 Y2.1429
X0.9369 Y2.1428
X0.9302 Y2.1427
X0.9231 Y2.1425
X0.9156 Y2.1422
X0.9075 Y2.1418
X0.8992 Y2.1414
X0.8928 Y2.141
X0.8863 Y2.1406
X0.8794 Y2.1401
X0.8721 Y2.1395
X0.8643 Y2.1388
X0.8561 Y2.138
X0.8499 Y2.1374
X0.844 Y2.1367
X0.838 Y2.136
X0.8316 Y2.1352
X0.8249 Y2.1343
X0.8178 Y2.1333
X0.8108 Y2.1322
X0.8048 Y2.1313
X0.7989 Y2.1303
X0.793 Y2.1293
X0.7871 Y2.1282
X0.7812 Y2.1271
X0.7753 Y2.1259
X0.7695 Y2.1247
X0.7636 Y2.1234
X0.7577 Y2.1221
X0.7519 Y2.1207
X0.7461 Y2.1192
X0.7403 Y2.1177
X0.7345 Y2.1161
X0.7287 Y2.1145
X0.723 Y2.1127
X0.7173 Y2.1109
X0.7116 Y2.109
X0.7059 Y2.1069
X0.7003 Y2.1048
X0.6948 Y2.1026
X0.6892 Y2.1003
X0.6838 Y2.0978
X0.6783 Y2.0952
X0.6771 Y2.0946
X0.6663 Y2.0876
X0.6573 Y2.0784
X0.6506 Y2.0674
X0.6464 Y2.0553
X0.645 Y2.0425
Y1.939
G3 X0.6472 Y1.9295 I0.025 J0.0009 F30
X0.6675 Y1.9149 I0.0227 J0.0104 F40
G1 X1.4525 Y1.8369
G3 X1.4778 Y1.8514 I0.0025 J0.0249
X1.48 Y1.8609 I-0.0227 J0.0104 F30
G1 Y1.9623 F40
X1.4795 Y1.9725
X1.4782 Y1.982
X1.476 Y1.9927
X1.4725 Y2.0043
X1.4676 Y2.0169
X1.4609 Y2.0306
X1.4523 Y2.0453
X1.4412 Y2.061
X1.4274 Y2.0777
X1.4102 Y2.0953
X1.3891 Y2.1137
X1.3763 Y2.1232
X1.3727 Y2.1256
X1.344 Y2.1448
X1.31 Y2.1638
X1.2745 Y2.18
X1.2654 Y2.1834
G3 X1.2557 Y2.1847 I-0.0079 J-0.0237 F30
X1.2399 Y2.142 I0.0018 J-0.0249 F40
G1 X1.4374 Y1.9455
G3 X1.4778 Y1.9528 I0.0176 J0.0177
X1.48 Y1.9623 I-0.0227 J0.0104 F30
G1 Y2.0598 F40
X1.4796 Y2.0682
X1.4792 Y2.0742
X1.4786 Y2.0802
X1.4776 Y2.0861
X1.4764 Y2.092
X1.4749 Y2.0978
X1.4731 Y2.1035
X1.4712 Y2.1092
X1.469 Y2.1148
X1.4666 Y2.1203
X1.464 Y2.1257
X1.4613 Y2.131
X1.4584 Y2.1363
X1.4546 Y2.1453
X1.4523 Y2.1548
X1.4517 Y2.1645
X1.4527 Y2.1742
X1.4553 Y2.1836
X1.4594 Y2.1924
X1.4645 Y2.1999
X1.4711 Y2.2085
X1.476 Y2.2182
X1.479 Y2.2287
X1.48 Y2.2395
G3 X1.4778 Y2.249 I-0.025 J-0.0009 F30
X1.43 Y2.2386 I-0.0227 J-0.0104 F40
G1 Y2.0607
G3 X1.4778 Y2.0503 I0.025 J0
X1.48 Y2.0598 I-0.0227 J0.0104 F30
G1 Y2.237 F40
G3 X1.4778 Y2.2465 I-0.025 J-0.0009 F30
X1.4633 Y2.2597 I-0.0227 J-0.0104 F40
G1 X0.697 Y2.5274
G3 X0.6646 Y2.51 I-0.0082 J-0.0236
X0.6454 Y2.3837 I0.6183 J-0.1584
X0.645 Y2.3739 I0.6374 J-0.0321 F30
G1 Y2.3611 F40
X0.6451 Y2.3596
X0.6485 Y2.3547
X0.6523 Y2.35
X0.6564 Y2.3456
X0.6608 Y2.3415
X0.6653 Y2.3376
X0.6721 Y2.3306
X0.6775 Y2.3225
X0.6815 Y2.3136
X0.684 Y2.3042
X0.6849 Y2.2945
X0.6842 Y2.2847
X0.6818 Y2.2753
X0.674 Y2.2574
X0.6603 Y2.2423
X0.6538 Y2.2337
X0.6489 Y2.2241
X0.646 Y2.2137
X0.645 Y2.203
Y2.0425
G3 X0.6472 Y2.033 I0.025 J0.0009 F30
X0.695 Y2.0434 I0.0227 J0.0104 F40
G1 Y2.2866
G3 X0.6472 Y2.297 I-0.025 J0
X0.645 Y2.2875 I0.0227 J-0.0104 F30
G1 Y2.203 F40
G3 X0.6472 Y2.1935 I0.025 J0.0009 F30
G1 X0.6489 Y2.19 Z-0.4997
X0.6504 Y2.1865 Z-0.4988
X0.6519 Y2.1832 Z-0.4973
X0.6533 Y2.1801 Z-0.4952
X0.6546 Y2.1774 Z-0.4927
X0.6556 Y2.1751 Z-0.4897
X0.6565 Y2.1732 Z-0.4863
X0.6571 Y2.1719 Z-0.4827
X0.6575 Y2.171 Z-0.4789
X0.6576 Y2.1708 Z-0.475
G0 Z0.6
X2.6417 Y-0.2842
Z0.2
Z-0.1496
G1 Z-0.1746 F30
X2.6418 Y-0.2839 Z-0.1785
X2.642 Y-0.283 Z-0.1823
X2.6424 Y-0.2816 Z-0.186
X2.6429 Y-0.2796 Z-0.1893
X2.6435 Y-0.2771 Z-0.1923
X2.6443 Y-0.2743 Z-0.1948
X2.6451 Y-0.271 Z-0.1969
X2.646 Y-0.2675 Z-0.1984
X2.647 Y-0.2638 Z-0.1993
X2.6479 Y-0.26 Z-0.1996
G3 X2.6675 Y-0.1239 I-0.6183 J0.1584
G1 Y-0.1111 F40
X2.6674 Y-0.1096
X2.6634 Y-0.1046
X2.6579 Y-0.0989
X2.6508 Y-0.0926
X2.6417 Y-0.0856
X2.6299 Y-0.0781
X2.6148 Y-0.0701
X2.5951 Y-0.0617
X2.5689 Y-0.0528
X2.5321 Y-0.0436
X2.4937 Y-0.0372
X2.4549 Y-0.0328
X2.416 Y-0.0299
X2.3771 Y-0.0279
X2.3381 Y-0.0266
X2.2991 Y-0.0257
X2.2668 Y-0.0252
X2.2536 Y-0.0265
X2.2411 Y-0.0307
X2.2299 Y-0.0376
X2.2205 Y-0.0468
X2.2134 Y-0.058
X2.209 Y-0.0704
X2.2075 Y-0.0835
G3 X2.2097 Y-0.093 I0.025 J0.0009 F30
X2.2308 Y-0.1076 I0.0227 J0.0104 F40
G1 X2.6408 Y-0.1351
G3 X2.6653 Y-0.1206 I0.0017 J0.0249
X2.6675 Y-0.1111 I-0.0227 J0.0104 F30
G1 Y-0.0796 F40
X2.6672 Y-0.0736
X2.6649 Y-0.0668
X2.6619 Y-0.06
X2.6577 Y-0.0521
X2.6523 Y-0.0437
X2.6457 Y-0.0351
X2.6369 Y-0.0253
X2.6266 Y-0.0156
X2.6141 Y-0.0055
X2.5984 Y0.0052
X2.5797 Y0.0158
X2.5563 Y0.0267
X2.5264 Y0.0379
X2.4888 Y0.0485
X2.4506 Y0.0562
X2.412 Y0.0618
X2.3733 Y0.0659
X2.3359 Y0.0684
X2.3103 Y0.0681
X2.2906 Y0.0662
X2.2723 Y0.063
X2.2568 Y0.059
X2.2467 Y0.0555
X2.2358 Y0.0504
X2.2262 Y0.0432
X2.2183 Y0.0342
X2.2124 Y0.0237
X2.2087 Y0.0123
X2.2075 Y0.0004
G3 X2.2097 Y-0.0091 I0.025 J0.0009 F30
X2.2277 Y-0.0233 I0.0227 J0.0104 F40
G1 X2.6377 Y-0.1033
G3 X2.6653 Y-0.0891 I0.0048 J0.0245
X2.6675 Y-0.0796 I-0.0227 J0.0104 F30
G1 Y-0.0264 F40
X2.6672 Y-0.0205
X2.6662 Y-0.0133
X2.6646 Y-0.006
X2.6619 Y0.0025
X2.6585 Y0.0112
X2.6536 Y0.0208
X2.6475 Y0.031
X2.6399 Y0.0417
X2.63 Y0.0534
X2.6187 Y0.0647
X2.6037 Y0.0776
X2.5872 Y0.0896
X2.5658 Y0.1026
X2.5408 Y0.1152
X2.5094 Y0.128
X2.4722 Y0.1397
X2.4343 Y0.1487
X2.3958 Y0.155
X2.3615 Y0.1579
X2.3304 Y0.1581
X2.3041 Y0.1561
X2.2833 Y0.1528
X2.2645 Y0.1483
X2.2491 Y0.1433
X2.2433 Y0.1408
X2.2333 Y0.1354
X2.2245 Y0.1282
X2.2173 Y0.1194
X2.2119 Y0.1093
X2.2086 Y0.0984
X2.2075 Y0.087
Y0.0004
G3 X2.2097 Y-0.0091 I0.025 J0.0009 F30
X2.2309 Y-0.0237 I0.0227 J0.0104 F40
G1 X2.6409 Y-0.0505
G3 X2.6653 Y-0.0359 I0.0016 J0.0249
X2.6675 Y-0.0264 I-0.0227 J0.0104 F30
G1 Y0.0484 F40
X2.6672 Y0.0548
X2.6662 Y0.0625
X2.6643 Y0.0713
X2.6616 Y0.0803
X2.6575 Y0.0907
X2.6525 Y0.1011
X2.6455 Y0.113
X2.6373 Y0.1247
X2.6265 Y0.1377
X2.6138 Y0.1507
X2.5979 Y0.1646
X2.5792 Y0.1784
X2.5559 Y0.1929
X2.53 Y0.2063
X2.4993 Y0.2191
X2.4656 Y0.2301
X2.4304 Y0.2385
X2.3954 Y0.244
X2.3619 Y0.2465
X2.3304 Y0.2463
X2.3044 Y0.2441
X2.2821 Y0.2403
X2.2637 Y0.2357
X2.248 Y0.2304
X2.2427 Y0.2281
X2.2328 Y0.2226
X2.2242 Y0.2154
X2.2171 Y0.2066
X2.2118 Y0.1966
X2.2086 Y0.1858
X2.2075 Y0.1745
Y0.087
G3 X2.2097 Y0.0775 I0.025 J0.0009 F30
X2.2301 Y0.063 I0.0227 J0.0104 F40
G1 X2.6402 Y0.0244
G3 X2.6653 Y0.0389 I0.0023 J0.0249
X2.6675 Y0.0484 I-0.0227 J0.0104 F30
G1 Y0.1282 F40
X2.667 Y0.1376
X2.666 Y0.1456
X2.664 Y0.155
X2.6611 Y0.1646
X2.6569 Y0.1755
X2.6512 Y0.1871
X2.6441 Y0.1993
X2.6348 Y0.2124
X2.6238 Y0.2257
X2.6099 Y0.2399
X2.5936 Y0.2542
X2.5743 Y0.2684
X2.5508 Y0.283
X2.5257 Y0.296
X2.4967 Y0.3081
X2.4646 Y0.3186
X2.4307 Y0.3267
X2.3966 Y0.3321
X2.3634 Y0.3345
X2.332 Y0.3344
X2.3052 Y0.332
X2.2826 Y0.3283
X2.2642 Y0.3236
X2.2482 Y0.3182
X2.2427 Y0.3158
X2.2328 Y0.3104
X2.2242 Y0.3031
X2.2171 Y0.2943
X2.2118 Y0.2843
X2.2086 Y0.2735
X2.2075 Y0.2623
Y0.1745
G3 X2.2097 Y0.165 I0.025 J0.0009 F30
X2.2297 Y0.1506 I0.0227 J0.0104 F40
G1 X2.6397 Y0.1042
G3 X2.6653 Y0.1187 I0.0028 J0.0248
X2.6675 Y0.1282 I-0.0227 J0.0104 F30
G1 Y0.2168 F40
X2.6672 Y0.2234
X2.6661 Y0.2319
X2.664 Y0.2413
X2.6609 Y0.2517
X2.6567 Y0.2625
X2.6507 Y0.2748
X2.6436 Y0.287
X2.634 Y0.3006
X2.6229 Y0.314
X2.6088 Y0.3284
X2.5925 Y0.3427
X2.5732 Y0.3569
X2.5499 Y0.3714
X2.5248 Y0.3844
X2.4963 Y0.3963
X2.4647 Y0.4066
X2.4311 Y0.4147
X2.3971 Y0.42
X2.3639 Y0.4225
X2.3325 Y0.4223
X2.3055 Y0.42
X2.2828 Y0.4161
X2.2643 Y0.4115
X2.2484 Y0.4061
X2.2427 Y0.4036
X2.2328 Y0.3982
X2.2242 Y0.3909
X2.2171 Y0.3821
X2.2118 Y0.3721
X2.2086 Y0.3613
X2.2075 Y0.3501
Y0.2623
G3 X2.2097 Y0.2528 I0.025 J0.0009 F30
X2.2297 Y0.2383 I0.0227 J0.0104 F40
G1 X2.6398 Y0.1928
G3 X2.6653 Y0.2073 I0.0028 J0.0248
X2.6675 Y0.2168 I-0.0227 J0.0104 F30
G1 Y0.3054 F40
X2.6672 Y0.3114
X2.666 Y0.32
X2.664 Y0.3295
X2.6608 Y0.3401
X2.6564 Y0.351
X2.6504 Y0.3634
X2.6431 Y0.3757
X2.6334 Y0.3894
X2.6221 Y0.4028
X2.6079 Y0.4172
X2.5913 Y0.4316
X2.5721 Y0.4457
X2.5487 Y0.4601
X2.5233 Y0.4731
X2.4949 Y0.4848
X2.4634 Y0.495
X2.4298 Y0.5029
X2.3957 Y0.5081
X2.3625 Y0.5104
X2.3311 Y0.5101
X2.3045 Y0.5077
X2.282 Y0.5038
X2.2635 Y0.4991
X2.2477 Y0.4936
X2.2425 Y0.4914
X2.2327 Y0.4859
X2.2241 Y0.4786
X2.217 Y0.4699
X2.2118 Y0.4599
X2.2086 Y0.4491
X2.2075 Y0.4379
Y0.3501
G3 X2.2097 Y0.3406 I0.025 J0.0009 F30
X2.2298 Y0.3261 I0.0227 J0.0104 F40
G1 X2.6398 Y0.2814
G3 X2.6653 Y0.2959 I0.0027 J0.0249
X2.6675 Y0.3054 I-0.0227 J0.0104 F30
G1 Y0.39 F40
X2.667 Y0.399
X2.6659 Y0.4078
X2.6639 Y0.4171
X2.6607 Y0.4277
X2.6565 Y0.4385
X2.6505 Y0.4509
X2.6433 Y0.4631
X2.6337 Y0.4768
X2.6226 Y0.4901
X2.6085 Y0.5047
X2.5923 Y0.5188
X2.573 Y0.533
X2.5498 Y0.5474
X2.525 Y0.5603
X2.4966 Y0.5721
X2.465 Y0.5824
X2.4315 Y0.5905
X2.3976 Y0.5958
X2.3644 Y0.5983
X2.333 Y0.5981
X2.3057 Y0.5957
X2.283 Y0.5919
X2.2645 Y0.5872
X2.2484 Y0.5818
X2.2427 Y0.5793
X2.2328 Y0.5739
X2.2242 Y0.5666
X2.2171 Y0.5578
X2.2118 Y0.5478
X2.2086 Y0.537
X2.2075 Y0.5258
Y0.4379
G3 X2.2097 Y0.4284 I0.025 J0.0009 F30
X2.2296 Y0.414 I0.0227 J0.0104 F40
G1 X2.6396 Y0.366
G3 X2.6653 Y0.3805 I0.0029 J0.0248
X2.6675 Y0.39 I-0.0227 J0.0104 F30
G1 Y0.4786 F40
X2.6671 Y0.487
X2.6659 Y0.4956
X2.6639 Y0.505
X2.6608 Y0.5156
X2.6565 Y0.5264
X2.6505 Y0.5388
X2.6433 Y0.551
X2.6337 Y0.5647
X2.6227 Y0.5781
X2.6086 Y0.5925
X2.5922 Y0.6067
X2.5731 Y0.6209
X2.5499 Y0.6353
X2.5249 Y0.6483
X2.4966 Y0.6601
X2.4652 Y0.6703
X2.4317 Y0.6784
X2.3977 Y0.6837
X2.3645 Y0.6862
X2.333 Y0.686
X2.3058 Y0.6836
X2.283 Y0.6798
X2.2645 Y0.6751
X2.2484 Y0.6697
X2.2427 Y0.6672
X2.2328 Y0.6618
X2.2242 Y0.6545
X2.2171 Y0.6457
X2.2118 Y0.6357
X2.2086 Y0.6249
X2.2075 Y0.6137
Y0.5258
G3 X2.2097 Y0.5163 I0.025 J0.0009 F30
X2.2296 Y0.5018 I0.0227 J0.0104 F40
G1 X2.6397 Y0.4546
G3 X2.6653 Y0.4691 I0.0029 J0.0248
X2.6675 Y0.4786 I-0.0227 J0.0104 F30
G1 Y0.5672 F40
X2.6671 Y0.5749
X2.666 Y0.5836
X2.664 Y0.593
X2.6608 Y0.6035
X2.6566 Y0.6144
X2.6506 Y0.6267
X2.6434 Y0.6389
X2.6338 Y0.6527
X2.6227 Y0.666
X2.6086 Y0.6804
X2.5923 Y0.6947
X2.5732 Y0.7088
X2.55 Y0.7232
X2.525 Y0.7361
X2.4967 Y0.748
X2.4653 Y0.7582
X2.4318 Y0.7663
X2.3978 Y0.7716
X2.3645 Y0.774
X2.333 Y0.7739
X2.3059 Y0.7715
X2.2831 Y0.7677
X2.2645 Y0.763
X2.2485 Y0.7576
X2.2427 Y0.7551
X2.2328 Y0.7496
X2.2242 Y0.7424
X2.2171 Y0.7336
X2.2118 Y0.7236
X2.2086 Y0.7128
X2.2075 Y0.7015
Y0.6137
G3 X2.2097 Y0.6042 I0.025 J0.0009 F30
X2.2297 Y0.5897 I0.0227 J0.0104 F40
G1 X2.6397 Y0.5432
G3 X2.6653 Y0.5577 I0.0028 J0.0248
X2.6675 Y0.5672 I-0.0227 J0.0104 F30
G1 Y0.651 F40
X2.6669 Y0.663
X2.6658 Y0.6717
X2.6638 Y0.6811
X2.6606 Y0.6916
X2.6564 Y0.7024
X2.6504 Y0.7148
X2.6432 Y0.727
X2.6336 Y0.7406
X2.6225 Y0.754
X2.6085 Y0.7684
X2.5921 Y0.7826
X2.5731 Y0.7967
X2.5499 Y0.8111
X2.5249 Y0.8241
X2.4967 Y0.8359
X2.4653 Y0.8461
X2.4318 Y0.8541
X2.3978 Y0.8595
X2.3645 Y0.8619
X2.333 Y0.8618
X2.3059 Y0.8594
X2.2831 Y0.8556
X2.2645 Y0.8509
X2.2485 Y0.8455
X2.2427 Y0.843
X2.2328 Y0.8375
X2.2242 Y0.8303
X2.2171 Y0.8215
X2.2118 Y0.8115
X2.2086 Y0.8007
X2.2075 Y0.7894
Y0.7015
G3 X2.2097 Y0.692 I0.025 J0.0009 F30
X2.2294 Y0.6776 I0.0227 J0.0104 F40
G1 X2.6395 Y0.627
G3 X2.6653 Y0.6415 I0.0031 J0.0248
X2.6675 Y0.651 I-0.0227 J0.0104 F30
G1 Y0.7396 F40
X2.6669 Y0.7508
X2.6658 Y0.7595
X2.6638 Y0.7689
X2.6606 Y0.7795
X2.6564 Y0.7903
X2.6504 Y0.8026
X2.6432 Y0.8148
X2.6336 Y0.8285
X2.6225 Y0.8419
X2.6085 Y0.8563
X2.5921 Y0.8705
X2.5731 Y0.8846
X2.55 Y0.899
X2.5249 Y0.912
X2.4967 Y0.9237
X2.4653 Y0.934
X2.4318 Y0.942
X2.3978 Y0.9473
X2.3645 Y0.9498
X2.333 Y0.9497
X2.3059 Y0.9473
X2.2831 Y0.9435
X2.2645 Y0.9388
X2.2485 Y0.9334
X2.2427 Y0.9309
X2.2328 Y0.9254
X2.2242 Y0.9182
X2.2171 Y0.9094
X2.2118 Y0.8994
X2.2086 Y0.8886
X2.2075 Y0.8773
Y0.7894
G3 X2.2097 Y0.7799 I0.025 J0.0009 F30
X2.2295 Y0.7655 I0.0227 J0.0104 F40
G1 X2.6395 Y0.7156
G3 X2.6653 Y0.7301 I0.003 J0.0248
X2.6675 Y0.7396 I-0.0227 J0.0104 F30
G1 Y0.8282 F40
X2.667 Y0.8387
X2.6658 Y0.8474
X2.6638 Y0.8568
X2.6607 Y0.8673
X2.6564 Y0.8782
X2.6505 Y0.8905
X2.6433 Y0.9027
X2.6336 Y0.9164
X2.6226 Y0.9298
X2.6085 Y0.9441
X2.5922 Y0.9584
X2.5731 Y0.9725
X2.55 Y0.9869
X2.5249 Y0.9998
X2.4967 Y1.0116
X2.4653 Y1.0219
X2.4318 Y1.0299
X2.3978 Y1.0352
X2.3646 Y1.0377
X2.333 Y1.0375
X2.3059 Y1.0352
X2.2831 Y1.0314
X2.2645 Y1.0267
X2.2485 Y1.0212
X2.2427 Y1.0188
X2.2328 Y1.0133
X2.2242 Y1.0061
X2.2171 Y0.9973
X2.2118 Y0.9873
X2.2086 Y0.9765
X2.2075 Y0.9652
Y0.8773
G3 X2.2097 Y0.8678 I0.025 J0.0009 F30
X2.2295 Y0.8534 I0.0227 J0.0104 F40
G1 X2.6395 Y0.8042
G3 X2.6653 Y0.8187 I0.003 J0.0248
X2.6675 Y0.8282 I-0.0227 J0.0104 F30
G1 Y0.9168 F40
X2.667 Y0.9266
X2.6659 Y0.9353
X2.6639 Y0.9447
X2.6607 Y0.9552
X2.6565 Y0.966
X2.6505 Y0.9784
X2.6433 Y0.9906
X2.6337 Y1.0043
X2.6226 Y1.0177
X2.6086 Y1.032
X2.5922 Y1.0463
X2.5731 Y1.0604
X2.55 Y1.0748
X2.525 Y1.0877
X2.4967 Y1.0995
X2.4653 Y1.1098
X2.4318 Y1.1178
X2.3978 Y1.1231
X2.3646 Y1.1256
X2.333 Y1.1254
X2.3059 Y1.1231
X2.2831 Y1.1193
X2.2645 Y1.1146
X2.2485 Y1.1091
X2.2335 Y1.1027
X2.2317 Y1.1017
X2.2212 Y1.0946
X2.2125 Y1.0854
X2.206 Y1.0745
X2.202 Y1.0625
X2.2007 Y1.0499
X2.2021 Y1.0373
X2.2062 Y1.0192
X2.2073 Y0.9965
X2.2075 Y0.9877
Y0.9652
G3 X2.2097 Y0.9557 I0.025 J0.0009 F30
X2.2296 Y0.9413 I0.0227 J0.0104 F40
G1 X2.6396 Y0.8928
G3 X2.6653 Y0.9073 I0.0029 J0.0248
X2.6675 Y0.9168 I-0.0227 J0.0104 F30
G1 Y0.9877 F40
X2.6677 Y0.9965
X2.668 Y1.0014
X2.6679 Y1.0091
X2.6672 Y1.0176
X2.6658 Y1.0263
X2.6633 Y1.0364
X2.6598 Y1.0469
X2.6548 Y1.0585
X2.6484 Y1.0708
X2.6402 Y1.0837
X2.63 Y1.0972
X2.6175 Y1.1114
X2.6029 Y1.1253
X2.5847 Y1.1402
X2.5648 Y1.154
X2.541 Y1.1677
X2.5135 Y1.1808
X2.4838 Y1.1921
X2.4522 Y1.2013
X2.4183 Y1.2083
X2.3841 Y1.2125
X2.3514 Y1.2139
X2.3215 Y1.2127
X2.2937 Y1.2094
X2.2717 Y1.205
X2.2534 Y1.1997
X2.2367 Y1.1934
X2.2228 Y1.1869
X2.2095 Y1.1793
X2.1983 Y1.1716
X2.1876 Y1.163
X2.187 Y1.1624
X2.1792 Y1.1532
X2.1734 Y1.1426
X2.1698 Y1.1311
X2.1687 Y1.1191
X2.17 Y1.1071
X2.1738 Y1.0956
X2.1798 Y1.0851
G3 X2.1871 Y1.0787 I0.0198 J0.0153 F30
X2.1942 Y1.076 I0.0124 J0.0217 F40
G1 X2.6377 Y0.979
G3 X2.6653 Y0.992 I0.0053 J0.0244
X2.668 Y1.0014 I-0.0222 J0.0114 F30
G1 X2.6688 Y1.0192 F40
X2.6737 Y1.0408
X2.676 Y1.0485
X2.6765 Y1.0497
X2.6786 Y1.0559
X2.6801 Y1.0618
X2.6811 Y1.0681
X2.6818 Y1.0757
Y1.0837
X2.6811 Y1.093
X2.6796 Y1.1026
X2.677 Y1.1137
X2.6733 Y1.125
X2.668 Y1.1377
X2.6614 Y1.1504
X2.6526 Y1.1647
X2.6423 Y1.1785
X2.6289 Y1.1939
X2.6137 Y1.2087
X2.5955 Y1.2239
X2.5735 Y1.2393
X2.5498 Y1.2533
X2.5225 Y1.2666
X2.4916 Y1.2786
X2.4583 Y1.2886
X2.4237 Y1.296
X2.3888 Y1.3006
X2.3549 Y1.3023
X2.323 Y1.3013
X2.2931 Y1.298
X2.266 Y1.2927
X2.2413 Y1.2859
X2.2186 Y1.2775
X2.2002 Y1.2691
X2.1848 Y1.2604
X2.1709 Y1.251
X2.1594 Y1.2419
X2.1486 Y1.2317
X2.1397 Y1.222
X2.1315 Y1.2113
X2.1248 Y1.201
X2.123 Y1.1977
X2.1183 Y1.1862
X2.1161 Y1.1739
X2.1165 Y1.1614
X2.1196 Y1.1493
X2.1252 Y1.1382
X2.133 Y1.1284
X2.1427 Y1.1206
G3 X2.1515 Y1.1174 I0.0128 J0.0215 F30
G1 X2.1519 Y1.1173
X2.6495 Y1.035 F40
G3 X2.6709 Y1.0417 I0.0041 J0.0247
X2.6765 Y1.0497 I-0.0173 J0.018 F30
G1 X2.68 Y1.0585 F40
X2.6849 Y1.0687
X2.6937 Y1.083
X2.6952 Y1.0851
X2.6973 Y1.0878
X2.7008 Y1.0927
X2.7038 Y1.0979
X2.7063 Y1.1036
X2.7085 Y1.1097
X2.7105 Y1.1171
X2.7119 Y1.1249
X2.7128 Y1.134
X2.713 Y1.1435
X2.7124 Y1.1546
X2.7108 Y1.1659
X2.7079 Y1.1788
X2.7039 Y1.1918
X2.6981 Y1.2062
X2.6907 Y1.2211
X2.6813 Y1.2368
X2.6694 Y1.2535
X2.6558 Y1.2696
X2.6389 Y1.2866
X2.6187 Y1.3039
X2.5966 Y1.3199
X2.5704 Y1.3359
X2.5405 Y1.351
X2.5076 Y1.3644
X2.473 Y1.3753
X2.4367 Y1.3837
X2.3994 Y1.3892
X2.362 Y1.3916
X2.3258 Y1.3911
X2.2912 Y1.3878
X2.2589 Y1.3821
X2.229 Y1.3743
X2.2016 Y1.3647
X2.1772 Y1.3539
X2.1554 Y1.3421
X2.1353 Y1.329
X2.1175 Y1.3153
X2.1031 Y1.3021
X2.0912 Y1.2895
X2.0811 Y1.2767
X2.0729 Y1.2645
X2.0659 Y1.252
X2.0603 Y1.2399
X2.0558 Y1.2278
X2.0525 Y1.2156
X2.0512 Y1.209
X2.0502 Y1.1965
X2.0518 Y1.1841
X2.0561 Y1.1723
X2.0628 Y1.1617
X2.0715 Y1.1528
X2.082 Y1.146
X2.0937 Y1.1415
X2.1018 Y1.1394
G3 X2.1047 Y1.139 I0.0055 J0.0244 F30
G1 X2.1115 Y1.1382
X2.6756 Y1.0791 F40
G3 X2.6897 Y1.0817 I0.0026 J0.0249
X2.6973 Y1.0878 I-0.0115 J0.0222 F30
G1 X2.7022 Y1.094 F40
X2.7114 Y1.1031
X2.7202 Y1.1117
X2.7251 Y1.1154
X2.7296 Y1.1193
X2.7339 Y1.1236
X2.7377 Y1.1282
X2.7412 Y1.1334
X2.7446 Y1.1394
X2.7479 Y1.1462
X2.7508 Y1.154
X2.7533 Y1.1628
X2.7552 Y1.1723
X2.7566 Y1.1833
X2.757 Y1.1946
X2.7565 Y1.2077
X2.7548 Y1.2212
X2.7518 Y1.2359
X2.7472 Y1.2518
X2.741 Y1.268
X2.7325 Y1.2859
X2.7222 Y1.3038
X2.7095 Y1.3222
X2.6935 Y1.3418
X2.6751 Y1.3609
X2.6537 Y1.3799
X2.6282 Y1.3991
X2.5989 Y1.4177
X2.5672 Y1.4344
X2.5329 Y1.4491
X2.4959 Y1.4615
X2.4581 Y1.471
X2.4196 Y1.4776
X2.3808 Y1.4813
X2.3419 Y1.4822
X2.3029 Y1.4801
X2.2643 Y1.475
X2.2276 Y1.4672
X2.1932 Y1.4569
X2.1611 Y1.4443
X2.1319 Y1.4302
X2.1061 Y1.415
X2.0829 Y1.3987
X2.0623 Y1.3815
X2.0442 Y1.3638
X2.0344 Y1.3526
X2.0282 Y1.3441
X2.0237 Y1.3347
X2.0209 Y1.3246
X2.02 Y1.3142
Y1.1737
Y1.1693
X2.0202 Y1.1671
X2.0206 Y1.1649
X2.0213 Y1.1624
X2.0223 Y1.16
X2.0233 Y1.158
X2.0246 Y1.156
X2.0261 Y1.1541
X2.0279 Y1.1522
X2.0311 Y1.1496
X2.0333 Y1.1482
X2.0354 Y1.1472
X2.0377 Y1.1463
X2.04 Y1.1456
X2.0422 Y1.1452
X2.0444 Y1.145
X2.0488
X2.0576 Y1.1449
X2.0753 Y1.1443
X2.0841 Y1.1432
X2.093 Y1.1417
X2.0937 Y1.1415
G3 X2.098 Y1.141 I0.0055 J0.0244 F30
G1 X2.1035 Y1.1407
X2.7093 Y1.1109 F40
G3 X2.7161 Y1.1114 I0.0012 J0.025
X2.7251 Y1.1154 I-0.0056 J0.0244 F30
G1 X2.729 Y1.1185 F40
X2.7323 Y1.1206
X2.7379 Y1.124
X2.7467 Y1.1291
X2.7555 Y1.1332
X2.7582 Y1.1342
X2.7637 Y1.1367
X2.7688 Y1.1398
X2.7736 Y1.1433
X2.7784 Y1.1476
X2.7829 Y1.1524
X2.7877 Y1.1582
X2.7922 Y1.1648
X2.7965 Y1.1724
X2.8006 Y1.1811
X2.8042 Y1.1907
X2.8074 Y1.2017
X2.8097 Y1.2133
X2.8113 Y1.2267
X2.8118 Y1.2408
X2.8112 Y1.256
X2.8091 Y1.273
X2.8056 Y1.2901
X2.8001 Y1.3089
X2.7924 Y1.3291
X2.7829 Y1.3491
X2.7706 Y1.3704
X2.755 Y1.3929
X2.7371 Y1.4148
X2.7157 Y1.4371
X2.6904 Y1.4596
X2.6611 Y1.4815
X2.6286 Y1.5021
X2.594 Y1.5203
X2.5582 Y1.5356
X2.5213 Y1.5483
X2.4837 Y1.5584
X2.4454 Y1.566
X2.4067 Y1.571
X2.3678 Y1.5736
X2.3289
X2.29 Y1.5709
X2.2513 Y1.5656
X2.2132 Y1.5576
X2.1757 Y1.5469
X2.1391 Y1.5335
X2.1037 Y1.5173
X2.0711 Y1.4991
X2.0434 Y1.4806
X2.0421 Y1.4796
X2.0328 Y1.4703
X2.0258 Y1.4592
X2.0215 Y1.4469
X2.02 Y1.4338
Y1.3142
G3 X2.0222 Y1.3047 I0.025 J0.0009 F30
X2.0395 Y1.2907 I0.0227 J0.0104 F40
G1 X2.7447 Y1.1335
G3 X2.7485 Y1.133 I0.0054 J0.0244
X2.7582 Y1.1342 I0.0016 J0.0249 F30
G1 X2.7644 Y1.1366 F40
X2.7691 Y1.1383
X2.7732 Y1.1394
X2.782 Y1.1417
X2.7909 Y1.1432
X2.7935 Y1.1436
X2.7995 Y1.1446
X2.8052 Y1.1463
X2.8108 Y1.1485
X2.8162 Y1.1513
X2.8216 Y1.1547
X2.8275 Y1.1591
X2.8333 Y1.1642
X2.8392 Y1.1702
X2.8416 Y1.1731
X2.8473 Y1.1813
X2.8515 Y1.1905
X2.8541 Y1.2002
X2.855 Y1.2103
G3 X2.8528 Y1.2198 I-0.025 J-0.0009 F30
X2.8118 Y1.2266 I-0.0227 J-0.0104 F40
G1 X2.7732 Y1.1856
G3 X2.7838 Y1.1446 I0.0182 J-0.0172
X2.7935 Y1.1436 I0.0075 J0.0238 F30
G1 X2.7997 Y1.1443 F40
X2.8174 Y1.1449
X2.8262 Y1.145
X2.8306
X2.8328 Y1.1452
X2.835 Y1.1456
X2.8373 Y1.1463
X2.8396 Y1.1472
X2.8417 Y1.1482
X2.8439 Y1.1496
X2.8471 Y1.1522
X2.8489 Y1.1541
X2.8504 Y1.156
X2.8517 Y1.158
X2.8527 Y1.16
X2.8537 Y1.1624
X2.8544 Y1.1649
X2.8548 Y1.1671
X2.855 Y1.1693
Y1.1826
Y1.3155
X2.8542 Y1.3318
X2.852 Y1.3482
X2.8483 Y1.3655
X2.8427 Y1.3841
X2.8347 Y1.4047
X2.8248 Y1.4252
X2.8114 Y1.4479
X2.7948 Y1.4715
X2.7756 Y1.4947
X2.7518 Y1.5191
X2.7237 Y1.5436
X2.6924 Y1.5668
X2.6593 Y1.5874
X2.6248 Y1.6055
X2.589 Y1.6211
X2.5523 Y1.6343
X2.5149 Y1.6452
X2.4769 Y1.6538
X2.4384 Y1.6602
X2.3996 Y1.6644
X2.3607 Y1.6663
X2.3217 Y1.6659
X2.2828 Y1.6631
X2.2442 Y1.658
X2.2059 Y1.6506
X2.1681 Y1.6409
X2.131 Y1.6289
X2.0948 Y1.6146
X2.064 Y1.5998
X2.049 Y1.5911
X2.0392 Y1.5839
X2.0311 Y1.5749
X2.025 Y1.5643
X2.0213 Y1.5528
X2.02 Y1.5407
Y1.4338
G3 X2.0222 Y1.4243 I0.025 J0.0009 F30
X2.0413 Y1.41 I0.0227 J0.0104 F40
G1 X2.8263 Y1.2917
G3 X2.8528 Y1.306 I0.0037 J0.0247
X2.855 Y1.3155 I-0.0227 J0.0104 F30
G1 Y1.4484 F40
X2.8545 Y1.4591
X2.853 Y1.4706
X2.85 Y1.4843
X2.8459 Y1.4982
X2.8396 Y1.5143
X2.8314 Y1.5312
X2.8204 Y1.55
X2.8067 Y1.5694
X2.7888 Y1.5909
X2.7686 Y1.6117
X2.7434 Y1.6337
X2.7132 Y1.656
X2.6801 Y1.6766
X2.6455 Y1.6947
X2.6098 Y1.7104
X2.5732 Y1.7238
X2.5359 Y1.735
X2.4979 Y1.744
X2.4596 Y1.7509
X2.4209 Y1.7558
X2.382 Y1.7587
X2.343 Y1.7595
X2.304 Y1.7582
X2.2652 Y1.755
X2.2266 Y1.7496
X2.1883 Y1.7422
X2.1505 Y1.7327
X2.1132 Y1.7211
X2.0788 Y1.7081
X2.0567 Y1.6977
X2.0493 Y1.6934
X2.0394 Y1.6863
X2.0312 Y1.6772
X2.0251 Y1.6666
X2.0213 Y1.655
X2.02 Y1.6428
Y1.5407
G3 X2.0222 Y1.5312 I0.025 J0.0009 F30
X2.0421 Y1.5167 I0.0227 J0.0104 F40
G1 X2.8271 Y1.4245
G3 X2.8528 Y1.4389 I0.0029 J0.0248
X2.855 Y1.4484 I-0.0227 J0.0104 F30
G1 Y1.5547 F40
X2.8543 Y1.569
X2.8528 Y1.5801
X2.8504 Y1.5914
X2.8464 Y1.6049
X2.841 Y1.6187
X2.8334 Y1.6343
X2.8236 Y1.651
X2.8111 Y1.6688
X2.7956 Y1.6875
X2.7757 Y1.7079
X2.7528 Y1.7279
X2.7245 Y1.7488
X2.6914 Y1.7694
X2.6568 Y1.7874
X2.621 Y1.8029
X2.5843 Y1.8161
X2.547 Y1.8273
X2.5091 Y1.8364
X2.4707 Y1.8435
X2.4321 Y1.8486
X2.3932 Y1.8518
X2.3542 Y1.8531
X2.3153 Y1.8526
X2.2763 Y1.8502
X2.2376 Y1.846
X2.199 Y1.84
X2.1609 Y1.8322
X2.1231 Y1.8224
X2.0888 Y1.8113
X2.0651 Y1.8015
X2.0518 Y1.7946
X2.0411 Y1.7876
X2.0322 Y1.7784
X2.0255 Y1.7675
X2.0214 Y1.7554
X2.02 Y1.7427
Y1.6428
G3 X2.0222 Y1.6334 I0.025 J0.0009 F30
X2.0422 Y1.6189 I0.0227 J0.0104 F40
G1 X2.8272 Y1.5308
G3 X2.8528 Y1.5452 I0.0028 J0.0248
X2.855 Y1.5547 I-0.0227 J0.0104 F30
G1 Y1.6611 F40
X2.8544 Y1.6724
X2.8531 Y1.6822
X2.8507 Y1.6936
X2.8469 Y1.7062
X2.8418 Y1.7193
X2.8344 Y1.7346
X2.8255 Y1.7496
X2.8131 Y1.7673
X2.799 Y1.7844
X2.7802 Y1.8036
X2.7579 Y1.8231
X2.7311 Y1.8429
X2.6984 Y1.8632
X2.6638 Y1.8811
X2.628 Y1.8965
X2.5912 Y1.9096
X2.5538 Y1.9206
X2.5159 Y1.9297
X2.4776 Y1.9368
X2.4389 Y1.942
X2.4001 Y1.9454
X2.3611 Y1.9471
X2.3222 Y1.947
X2.2832 Y1.9453
X2.2444 Y1.9418
X2.2057 Y1.9367
X2.1673 Y1.93
X2.1293 Y1.9214
X2.0935 Y1.9109
X2.0698 Y1.9018
X2.0501 Y1.8924
X2.0491 Y1.8918
X2.0392 Y1.8847
X2.0311 Y1.8756
X2.025 Y1.8651
X2.0213 Y1.8535
X2.02 Y1.8414
Y1.7427
G3 X2.0222 Y1.7332 I0.025 J0.0009 F30
X2.0424 Y1.7187 I0.0227 J0.0104 F40
G1 X2.8274 Y1.6371
G3 X2.8528 Y1.6516 I0.0026 J0.0249
X2.855 Y1.6611 I-0.0227 J0.0104 F30
G1 Y1.7585 F40
X2.8543 Y1.7724
X2.8531 Y1.782
X2.8506 Y1.7933
X2.8471 Y1.805
X2.842 Y1.8182
X2.8351 Y1.8325
X2.8263 Y1.8474
X2.8144 Y1.8643
X2.8006 Y1.881
X2.7826 Y1.8993
X2.7607 Y1.9185
X2.735 Y1.9375
X2.7032 Y1.9573
X2.6686 Y1.9751
X2.6327 Y1.9905
X2.596 Y2.0035
X2.5586 Y2.0144
X2.5206 Y2.0234
X2.4823 Y2.0305
X2.4437 Y2.0359
X2.4048 Y2.0394
X2.3659 Y2.0414
X2.3269 Y2.0416
X2.2879 Y2.0403
X2.249 Y2.0375
X2.2103 Y2.0331
X2.1718 Y2.027
X2.1336 Y2.0192
X2.0971 Y2.0093
X2.0722 Y2.0003
X2.0532 Y1.9917
X2.0501 Y1.99
X2.0399 Y1.9829
X2.0315 Y1.9737
X2.0252 Y1.9631
X2.0213 Y1.9513
X2.02 Y1.939
Y1.8414
G3 X2.0222 Y1.8319 I0.025 J0.0009 F30
X2.0424 Y1.8174 I0.0227 J0.0104 F40
G1 X2.8274 Y1.7346
G3 X2.8528 Y1.749 I0.0026 J0.0249
X2.855 Y1.7585 I-0.0227 J0.0104 F30
G1 Y1.8609 F40
X2.8545 Y1.8701
X2.8542 Y1.8761
X2.8535 Y1.882
X2.8526 Y1.8879
X2.8513 Y1.8938
X2.8499 Y1.8996
X2.8481 Y1.9054
X2.8462 Y1.9111
X2.844 Y1.9167
X2.8417 Y1.9222
X2.8392 Y1.9276
X2.8365 Y1.933
X2.8336 Y1.9383
X2.8306 Y1.9435
X2.8275 Y1.9486
X2.8242 Y1.9536
X2.8208 Y1.9585
X2.8173 Y1.9634
X2.8136 Y1.9681
X2.8098 Y1.9728
X2.806 Y1.9774
X2.802 Y1.9819
X2.798 Y1.9863
X2.7938 Y1.9907
X2.7896 Y1.9949
X2.7853 Y1.9991
X2.7809 Y2.0032
X2.7764 Y2.0072
X2.7719 Y2.0111
X2.7673 Y2.015
X2.7627 Y2.0188
X2.7579 Y2.0225
X2.7532 Y2.0261
X2.7483 Y2.0297
X2.7434 Y2.0332
X2.7385 Y2.0366
X2.7335 Y2.0399
X2.7285 Y2.0432
X2.7234 Y2.0464
X2.7183 Y2.0495
X2.7132 Y2.0526
X2.708 Y2.0556
X2.7027 Y2.0586
X2.6975 Y2.0614
X2.6922 Y2.0643
X2.6869 Y2.067
X2.6815 Y2.0697
X2.6761 Y2.0723
X2.6707 Y2.0749
X2.6652 Y2.0774
X2.6598 Y2.0799
X2.6543 Y2.0823
X2.6487 Y2.0847
X2.6432 Y2.087
X2.6376 Y2.0892
X2.632 Y2.0914
X2.6264 Y2.0935
X2.6208 Y2.0956
X2.6152 Y2.0976
X2.6095 Y2.0996
X2.6038 Y2.1015
X2.5981 Y2.1034
X2.5924 Y2.1052
X2.5867 Y2.107
X2.5809 Y2.1087
X2.5752 Y2.1104
X2.5694 Y2.1121
X2.5636 Y2.1137
X2.5578 Y2.1152
X2.552 Y2.1167
X2.5462 Y2.1181
X2.5402 Y2.1196
X2.5339 Y2.1211
X2.528 Y2.1224
X2.5221 Y2.1237
X2.5163 Y2.1249
X2.5104 Y2.1261
X2.5042 Y2.1272
X2.4977 Y2.1285
X2.4908 Y2.1297
X2.4849 Y2.1307
X2.479 Y2.1316
X2.473 Y2.1326
X2.4667 Y2.1335
X2.46 Y2.1344
X2.4528 Y2.1354
X2.4457 Y2.1363
X2.4397 Y2.137
X2.4335 Y2.1377
X2.427 Y2.1383
X2.4201 Y2.139
X2.4127 Y2.1396
X2.4049 Y2.1403
X2.3985 Y2.1407
X2.3921 Y2.1411
X2.3854 Y2.1415
X2.3782 Y2.1419
X2.3706 Y2.1422
X2.3624 Y2.1425
X2.3557 Y2.1427
X2.3491 Y2.1429
X2.3422 Y2.143
X2.3348
X2.3268
X2.3185 Y2.1429
X2.3119 Y2.1428
X2.3052 Y2.1427
X2.2981 Y2.1425
X2.2906 Y2.1422
X2.2825 Y2.1418
X2.2742 Y2.1414
X2.2678 Y2.141
X2.2613 Y2.1406
X2.2544 Y2.1401
X2.2471 Y2.1395
X2.2393 Y2.1388
X2.2311 Y2.138
X2.2249 Y2.1374
X2.219 Y2.1367
X2.213 Y2.136
X2.2066 Y2.1352
X2.1999 Y2.1343
X2.1928 Y2.1333
X2.1858 Y2.1322
X2.1798 Y2.1313
X2.1739 Y2.1303
X2.168 Y2.1293
X2.1621 Y2.1282
X2.1562 Y2.1271
X2.1503 Y2.1259
X2.1445 Y2.1247
X2.1386 Y2.1234
X2.1327 Y2.1221
X2.1269 Y2.1207
X2.1211 Y2.1192
X2.1153 Y2.1177
X2.1095 Y2.1161
X2.1037 Y2.1145
X2.098 Y2.1127
X2.0923 Y2.1109
X2.0866 Y2.109
X2.0809 Y2.1069
X2.0753 Y2.1048
X2.0698 Y2.1026
X2.0642 Y2.1003
X2.0588 Y2.0978
X2.0533 Y2.0952
X2.0521 Y2.0946
X2.0413 Y2.0876
X2.0323 Y2.0784
X2.0256 Y2.0674
X2.0214 Y2.0553
X2.02 Y2.0425
Y1.939
G3 X2.0222 Y1.9295 I0.025 J0.0009 F30
X2.0425 Y1.9149 I0.0227 J0.0104 F40
G1 X2.8275 Y1.8369
G3 X2.8528 Y1.8514 I0.0025 J0.0249
X2.855 Y1.8609 I-0.0227 J0.0104 F30
G1 Y1.9623 F40
X2.8545 Y1.9725
X2.8532 Y1.982
X2.851 Y1.9927
X2.8475 Y2.0043
X2.8426 Y2.0169
X2.8359 Y2.0306
X2.8273 Y2.0453
X2.8162 Y2.061
X2.8024 Y2.0777
X2.7852 Y2.0953
X2.7641 Y2.1137
X2.7513 Y2.1232
X2.7477 Y2.1256
X2.719 Y2.1448
X2.685 Y2.1638
X2.6495 Y2.18
X2.6404 Y2.1834
G3 X2.6307 Y2.1847 I-0.0079 J-0.0237 F30
X2.6149 Y2.142 I0.0018 J-0.0249 F40
G1 X2.8124 Y1.9455
G3 X2.8528 Y1.9528 I0.0176 J0.0177
X2.855 Y1.9623 I-0.0227 J0.0104 F30
G1 Y2.0598 F40
X2.8546 Y2.0682
X2.8542 Y2.0742
X2.8536 Y2.0802
X2.8526 Y2.0861
X2.8514 Y2.092
X2.8499 Y2.0978
X2.8481 Y2.1035
X2.8462 Y2.1092
X2.844 Y2.1148
X2.8416 Y2.1203
X2.839 Y2.1257
X2.8363 Y2.131
X2.8334 Y2.1363
X2.8296 Y2.1453
X2.8273 Y2.1548
X2.8267 Y2.1645
X2.8277 Y2.1742
X2.8303 Y2.1836
X2.8344 Y2.1924
X2.8395 Y2.1999
X2.8461 Y2.2085
X2.851 Y2.2182
X2.854 Y2.2287
X2.855 Y2.2395
G3 X2.8528 Y2.249 I-0.025 J-0.0009 F30
X2.805 Y2.2386 I-0.0227 J-0.0104 F40
G1 Y2.0607
G3 X2.8528 Y2.0503 I0.025 J0
X2.855 Y2.0598 I-0.0227 J0.0104 F30
G1 Y2.237 F40
G3 X2.8528 Y2.2465 I-0.025 J-0.0009 F30
X2.8383 Y2.2597 I-0.0227 J-0.0104 F40
G1 X2.072 Y2.5274
G3 X2.0396 Y2.51 I-0.0082 J-0.0236
X2.0204 Y2.3837 I0.6183 J-0.1584
X2.02 Y2.3739 I0.6374 J-0.0321 F30
G1 Y2.3611 F40
X2.0201 Y2.3596
X2.0235 Y2.3547
X2.0273 Y2.35
X2.0314 Y2.3456
X2.0358 Y2.3415
X2.0403 Y2.3376
X2.0471 Y2.3306
X2.0525 Y2.3225
X2.0565 Y2.3136
X2.059 Y2.3042
X2.0599 Y2.2945
X2.0592 Y2.2847
X2.0568 Y2.2753
X2.049 Y2.2574
X2.0353 Y2.2423
X2.0288 Y2.2337
X2.0239 Y2.2241
X2.021 Y2.2137
X2.02 Y2.203
Y2.0425
G3 X2.0222 Y2.033 I0.025 J0.0009 F30
X2.07 Y2.0434 I0.0227 J0.0104 F40
G1 Y2.2866
G3 X2.0222 Y2.297 I-0.025 J0
X2.02 Y2.2875 I0.0227 J-0.0104 F30
G1 Y2.203 F40
X2.0205 Y2.2009 Z-0.1994 F30
X2.0209 Y2.1989 Z-0.1986
X2.0213 Y2.1971 Z-0.1975
X2.0216 Y2.1956 Z-0.1959
X2.0218 Y2.1944 Z-0.1941
X2.0221 Y2.1937 Z-0.192
X2.0222 Y2.1935 Z-0.1898
G0 Z0.2
X2.6417 Y-0.2842
Z-0.3492
G1 Z-0.3742 F30
X2.6418 Y-0.2839 Z-0.3781
X2.642 Y-0.283 Z-0.3819
X2.6424 Y-0.2816 Z-0.3856
X2.6429 Y-0.2796 Z-0.3889
X2.6435 Y-0.2771 Z-0.3919
X2.6443 Y-0.2743 Z-0.3944
X2.6451 Y-0.271 Z-0.3965
X2.646 Y-0.2675 Z-0.398
X2.647 Y-0.2638 Z-0.3989
X2.6479 Y-0.26 Z-0.3992
G3 X2.6675 Y-0.1239 I-0.6183 J0.1584
G1 Y-0.1111 F40
X2.6674 Y-0.1096
X2.6634 Y-0.1046
X2.6579 Y-0.0989
X2.6508 Y-0.0926
X2.6417 Y-0.0856
X2.6299 Y-0.0781
X2.6148 Y-0.0701
X2.5951 Y-0.0617
X2.5689 Y-0.0528
X2.5321 Y-0.0436
X2.4937 Y-0.0372
X2.4549 Y-0.0328
X2.416 Y-0.0299
X2.3771 Y-0.0279
X2.3381 Y-0.0266
X2.2991 Y-0.0257
X2.2668 Y-0.0252
X2.2536 Y-0.0265
X2.2411 Y-0.0307
X2.2299 Y-0.0376
X2.2205 Y-0.0468
X2.2134 Y-0.058
X2.209 Y-0.0704
X2.2075 Y-0.0835
G3 X2.2097 Y-0.093 I0.025 J0.0009 F30
X2.2308 Y-0.1076 I0.0227 J0.0104 F40
G1 X2.6408 Y-0.1351
G3 X2.6653 Y-0.1206 I0.0017 J0.0249
X2.6675 Y-0.1111 I-0.0227 J0.0104 F30
G1 Y-0.0796 F40
X2.6672 Y-0.0736
X2.6649 Y-0.0668
X2.6619 Y-0.06
X2.6577 Y-0.0521
X2.6523 Y-0.0437
X2.6457 Y-0.0351
X2.6369 Y-0.0253
X2.6266 Y-0.0156
X2.6141 Y-0.0055
X2.5984 Y0.0052
X2.5797 Y0.0158
X2.5563 Y0.0267
X2.5264 Y0.0379
X2.4888 Y0.0485
X2.4506 Y0.0562
X2.412 Y0.0618
X2.3733 Y0.0659
X2.3359 Y0.0684
X2.3103 Y0.0681
X2.2906 Y0.0662
X2.2723 Y0.063
X2.2568 Y0.059
X2.2467 Y0.0555
X2.2358 Y0.0504
X2.2262 Y0.0432
X2.2183 Y0.0342
X2.2124 Y0.0237
X2.2087 Y0.0123
X2.2075 Y0.0004
G3 X2.2097 Y-0.0091 I0.025 J0.0009 F30
X2.2277 Y-0.0233 I0.0227 J0.0104 F40
G1 X2.6377 Y-0.1033
G3 X2.6653 Y-0.0891 I0.0048 J0.0245
X2.6675 Y-0.0796 I-0.0227 J0.0104 F30
G1 Y-0.0264 F40
X2.6672 Y-0.0205
X2.6662 Y-0.0133
X2.6646 Y-0.006
X2.6619 Y0.0025
X2.6585 Y0.0112
X2.6536 Y0.0208
X2.6475 Y0.031
X2.6399 Y0.0417
X2.63 Y0.0534
X2.6187 Y0.0647
X2.6037 Y0.0776
X2.5872 Y0.0896
X2.5658 Y0.1026
X2.5408 Y0.1152
X2.5094 Y0.128
X2.4722 Y0.1397
X2.4343 Y0.1487
X2.3958 Y0.155
X2.3615 Y0.1579
X2.3304 Y0.1581
X2.3041 Y0.1561
X2.2833 Y0.1528
X2.2645 Y0.1483
X2.2491 Y0.1433
X2.2433 Y0.1408
X2.2333 Y0.1354
X2.2245 Y0.1282
X2.2173 Y0.1194
X2.2119 Y0.1093
X2.2086 Y0.0984
X2.2075 Y0.087
Y0.0004
G3 X2.2097 Y-0.0091 I0.025 J0.0009 F30
X2.2309 Y-0.0237 I0.0227 J0.0104 F40
G1 X2.6409 Y-0.0505
G3 X2.6653 Y-0.0359 I0.0016 J0.0249
X2.6675 Y-0.0264 I-0.0227 J0.0104 F30
G1 Y0.0484 F40
X2.6672 Y0.0548
X2.6662 Y0.0625
X2.6643 Y0.0713
X2.6616 Y0.0803
X2.6575 Y0.0907
X2.6525 Y0.1011
X2.6455 Y0.113
X2.6373 Y0.1247
X2.6265 Y0.1377
X2.6138 Y0.1507
X2.5979 Y0.1646
X2.5792 Y0.1784
X2.5559 Y0.1929
X2.53 Y0.2063
X2.4993 Y0.2191
X2.4656 Y0.2301
X2.4304 Y0.2385
X2.3954 Y0.244
X2.3619 Y0.2465
X2.3304 Y0.2463
X2.3044 Y0.2441
X2.2821 Y0.2403
X2.2637 Y0.2357
X2.248 Y0.2304
X2.2427 Y0.2281
X2.2328 Y0.2226
X2.2242 Y0.2154
X2.2171 Y0.2066
X2.2118 Y0.1966
X2.2086 Y0.1858
X2.2075 Y0.1745
Y0.087
G3 X2.2097 Y0.0775 I0.025 J0.0009 F30
X2.2301 Y0.063 I0.0227 J0.0104 F40
G1 X2.6402 Y0.0244
G3 X2.6653 Y0.0389 I0.0023 J0.0249
X2.6675 Y0.0484 I-0.0227 J0.0104 F30
G1 Y0.1282 F40
X2.667 Y0.1376
X2.666 Y0.1456
X2.664 Y0.155
X2.6611 Y0.1646
X2.6569 Y0.1755
X2.6512 Y0.1871
X2.6441 Y0.1993
X2.6348 Y0.2124
X2.6238 Y0.2257
X2.6099 Y0.2399
X2.5936 Y0.2542
X2.5743 Y0.2684
X2.5508 Y0.283
X2.5257 Y0.296
X2.4967 Y0.3081
X2.4646 Y0.3186
X2.4307 Y0.3267
X2.3966 Y0.3321
X2.3634 Y0.3345
X2.332 Y0.3344
X2.3052 Y0.332
X2.2826 Y0.3283
X2.2642 Y0.3236
X2.2482 Y0.3182
X2.2427 Y0.3158
X2.2328 Y0.3104
X2.2242 Y0.3031
X2.2171 Y0.2943
X2.2118 Y0.2843
X2.2086 Y0.2735
X2.2075 Y0.2623
Y0.1745
G3 X2.2097 Y0.165 I0.025 J0.0009 F30
X2.2297 Y0.1506 I0.0227 J0.0104 F40
G1 X2.6397 Y0.1042
G3 X2.6653 Y0.1187 I0.0028 J0.0248
X2.6675 Y0.1282 I-0.0227 J0.0104 F30
G1 Y0.2168 F40
X2.6672 Y0.2234
X2.6661 Y0.2319
X2.664 Y0.2413
X2.6609 Y0.2517
X2.6567 Y0.2625
X2.6507 Y0.2748
X2.6436 Y0.287
X2.634 Y0.3006
X2.6229 Y0.314
X2.6088 Y0.3284
X2.5925 Y0.3427
X2.5732 Y0.3569
X2.5499 Y0.3714
X2.5248 Y0.3844
X2.4963 Y0.3963
X2.4647 Y0.4066
X2.4311 Y0.4147
X2.3971 Y0.42
X2.3639 Y0.4225
X2.3325 Y0.4223
X2.3055 Y0.42
X2.2828 Y0.4161
X2.2643 Y0.4115
X2.2484 Y0.4061
X2.2427 Y0.4036
X2.2328 Y0.3982
X2.2242 Y0.3909
X2.2171 Y0.3821
X2.2118 Y0.3721
X2.2086 Y0.3613
X2.2075 Y0.3501
Y0.2623
G3 X2.2097 Y0.2528 I0.025 J0.0009 F30
X2.2297 Y0.2383 I0.0227 J0.0104 F40
G1 X2.6398 Y0.1928
G3 X2.6653 Y0.2073 I0.0028 J0.0248
X2.6675 Y0.2168 I-0.0227 J0.0104 F30
G1 Y0.3054 F40
X2.6672 Y0.3114
X2.666 Y0.32
X2.664 Y0.3295
X2.6608 Y0.3401
X2.6564 Y0.351
X2.6504 Y0.3634
